LUTGenerator/TEST/CUBE/Warming/crispwarm_linear_sRGB.cube
TITLE crispwarm_linear_sRGB.cube
LUT_3D_SIZE 5
DOMAIN_MIN 0.0 0.0 0.0
DOMAIN_MAX 1.0 1.0 1.0
0.00000	0.00000	0.00000
0.00000	0.00000	0.00000
0.40392	0.00000	0.00000
0.78039	0.00000	0.00000
1.00000	0.00000	0.00000
0.00000	0.00000	0.00000
0.00000	0.00000	0.00000
0.40392	0.00000	0.00000
0.78039	0.00000	0.00000
1.00000	0.00000	0.00000
0.00000	0.38431	0.00000
0.00000	0.38431	0.00000
0.40392	0.38431	0.00000
0.78039	0.38431	0.00000
1.00000	0.38431	0.00000
0.00000	0.74118	0.00000
0.00000	0.74118	0.00000
0.40392	0.74118	0.00000
0.78039	0.74118	0.00000
1.00000	0.74118	0.00000
0.00000	1.00000	0.00000
0.00000	1.00000	0.00000
0.40392	1.00000	0.00000
0.78039	1.00000	0.00000
1.00000	1.00000	0.00000
0.00000	0.00000	0.00000
0.00000	0.00000	0.00000
0.40392	0.00000	0.00000
0.78039	0.00000	0.00000
1.00000	0.00000	0.00000
0.00000	0.00000	0.00000
0.00000	0.00000	0.00000
0.40392	0.00000	0.00000
0.78039	0.00000	0.00000
1.00000	0.00000	0.00000
0.00000	0.38431	0.00000
0.00000	0.38431	0.00000
0.40392	0.38431	0.00000
0.78039	0.38431	0.00000
1.00000	0.38431	0.00000
0.00000	0.74118	0.00000
0.00000	0.74118	0.00000
0.40392	0.74118	0.00000
0.78039	0.74118	0.00000
1.00000	0.74118	0.00000
0.00000	1.00000	0.00000
0.00000	1.00000	0.00000
0.40392	1.00000	0.00000
0.78039	1.00000	0.00000
1.00000	1.00000	0.00000
0.00000	0.00000	0.36078
0.00000	0.00000	0.36078
0.40392	0.00000	0.36078
0.78039	0.00000	0.36078
1.00000	0.00000	0.36078
0.00000	0.00000	0.36078
0.00000	0.00000	0.36078
0.40392	0.00000	0.36078
0.78039	0.00000	0.36078
1.00000	0.00000	0.36078
0.00000	0.38431	0.36078
0.00000	0.38431	0.36078
0.40392	0.38431	0.36078
0.78039	0.38431	0.36078
1.00000	0.38431	0.36078
0.00000	0.74118	0.36078
0.00000	0.74118	0.36078
0.40392	0.74118	0.36078
0.78039	0.74118	0.36078
1.00000	0.74118	0.36078
0.00000	1.00000	0.36078
0.00000	1.00000	0.36078
0.40392	1.00000	0.36078
0.78039	1.00000	0.36078
1.00000	1.00000	0.36078
0.00000	0.00000	0.69804
0.00000	0.00000	0.69804
0.40392	0.00000	0.69804
0.78039	0.00000	0.69804
1.00000	0.00000	0.69804
0.00000	0.00000	0.69804
0.00000	0.00000	0.69804
0.40392	0.00000	0.69804
0.78039	0.00000	0.69804
1.00000	0.00000	0.69804
0.00000	0.38431	0.69804
0.00000	0.38431	0.69804
0.40392	0.38431	0.69804
0.78039	0.38431	0.69804
1.00000	0.38431	0.69804
0.00000	0.74118	0.69804
0.00000	0.74118	0.69804
0.40392	0.74118	0.69804
0.78039	0.74118	0.69804
1.00000	0.74118	0.69804
0.00000	1.00000	0.69804
0.00000	1.00000	0.69804
0.40392	1.00000	0.69804
0.78039	1.00000	0.69804
1.00000	1.00000	0.69804
0.00000	0.00000	0.99216
0.00000	0.00000	0.99216
0.40392	0.00000	0.99216
0.78039	0.00000	0.99216
1.00000	0.00000	0.99216
0.00000	0.00000	0.99216
0.00000	0.00000	0.99216
0.40392	0.00000	0.99216
0.78039	0.00000	0.99216
1.00000	0.00000	0.99216
0.00000	0.38431	0.99216
0.00000	0.38431	0.99216
0.40392	0.38431	0.99216
0.78039	0.38431	0.99216
1.00000	0.38431	0.99216
0.00000	0.74118	0.99216
0.00000	0.74118	0.99216
0.40392	0.74118	0.99216
0.78039	0.74118	0.99216
1.00000	0.74118	0.99216
0.00000	1.00000	0.99216
0.00000	1.00000	0.99216
0.40392	1.00000	0.99216
0.78039	1.00000	0.99216
1.00000	1.00000	0.99216
