LUTGenerator/TEST/CUBE/Warming/crispwarm_linear_sRGB.cube
TITLE crispwarm_linear_sRGB.cube
LUT_3D_SIZE 17
DOMAIN_MIN 0.0 0.0 0.0
DOMAIN_MAX 1.0 1.0 1.0
0.00000	0.00000	0.00000
0.00000	0.00000	0.00000
0.00000	0.00000	0.00000
0.00000	0.00000	0.00000
0.00000	0.00000	0.00000
0.00000	0.00000	0.00000
0.00000	0.00000	0.00000
0.27059	0.00000	0.00000
0.40392	0.00000	0.00000
0.50588	0.00000	0.00000
0.60392	0.00000	0.00000
0.69412	0.00000	0.00000
0.78039	0.00000	0.00000
0.86275	0.00000	0.00000
0.94510	0.00000	0.00000
1.00000	0.00000	0.00000
1.00000	0.00000	0.00000
0.00000	0.00000	0.00000
0.00000	0.00000	0.00000
0.00000	0.00000	0.00000
0.00000	0.00000	0.00000
0.00000	0.00000	0.00000
0.00000	0.00000	0.00000
0.00000	0.00000	0.00000
0.27059	0.00000	0.00000
0.40392	0.00000	0.00000
0.50588	0.00000	0.00000
0.60392	0.00000	0.00000
0.69412	0.00000	0.00000
0.78039	0.00000	0.00000
0.86275	0.00000	0.00000
0.94510	0.00000	0.00000
1.00000	0.00000	0.00000
1.00000	0.00000	0.00000
0.00000	0.00000	0.00000
0.00000	0.00000	0.00000
0.00000	0.00000	0.00000
0.00000	0.00000	0.00000
0.00000	0.00000	0.00000
0.00000	0.00000	0.00000
0.00000	0.00000	0.00000
0.27059	0.00000	0.00000
0.40392	0.00000	0.00000
0.50588	0.00000	0.00000
0.60392	0.00000	0.00000
0.69412	0.00000	0.00000
0.78039	0.00000	0.00000
0.86275	0.00000	0.00000
0.94510	0.00000	0.00000
1.00000	0.00000	0.00000
1.00000	0.00000	0.00000
0.00000	0.00000	0.00000
0.00000	0.00000	0.00000
0.00000	0.00000	0.00000
0.00000	0.00000	0.00000
0.00000	0.00000	0.00000
0.00000	0.00000	0.00000
0.00000	0.00000	0.00000
0.27059	0.00000	0.00000
0.40392	0.00000	0.00000
0.50588	0.00000	0.00000
0.60392	0.00000	0.00000
0.69412	0.00000	0.00000
0.78039	0.00000	0.00000
0.86275	0.00000	0.00000
0.94510	0.00000	0.00000
1.00000	0.00000	0.00000
1.00000	0.00000	0.00000
0.00000	0.00000	0.00000
0.00000	0.00000	0.00000
0.00000	0.00000	0.00000
0.00000	0.00000	0.00000
0.00000	0.00000	0.00000
0.00000	0.00000	0.00000
0.00000	0.00000	0.00000
0.27059	0.00000	0.00000
0.40392	0.00000	0.00000
0.50588	0.00000	0.00000
0.60392	0.00000	0.00000
0.69412	0.00000	0.00000
0.78039	0.00000	0.00000
0.86275	0.00000	0.00000
0.94510	0.00000	0.00000
1.00000	0.00000	0.00000
1.00000	0.00000	0.00000
0.00000	0.00000	0.00000
0.00000	0.00000	0.00000
0.00000	0.00000	0.00000
0.00000	0.00000	0.00000
0.00000	0.00000	0.00000
0.00000	0.00000	0.00000
0.00000	0.00000	0.00000
0.27059	0.00000	0.00000
0.40392	0.00000	0.00000
0.50588	0.00000	0.00000
0.60392	0.00000	0.00000
0.69412	0.00000	0.00000
0.78039	0.00000	0.00000
0.86275	0.00000	0.00000
0.94510	0.00000	0.00000
1.00000	0.00000	0.00000
1.00000	0.00000	0.00000
0.00000	0.00000	0.00000
0.00000	0.00000	0.00000
0.00000	0.00000	0.00000
0.00000	0.00000	0.00000
0.00000	0.00000	0.00000
0.00000	0.00000	0.00000
0.00000	0.00000	0.00000
0.27059	0.00000	0.00000
0.40392	0.00000	0.00000
0.50588	0.00000	0.00000
0.60392	0.00000	0.00000
0.69412	0.00000	0.00000
0.78039	0.00000	0.00000
0.86275	0.00000	0.00000
0.94510	0.00000	0.00000
1.00000	0.00000	0.00000
1.00000	0.00000	0.00000
0.00000	0.25490	0.00000
0.00000	0.25490	0.00000
0.00000	0.25490	0.00000
0.00000	0.25490	0.00000
0.00000	0.25490	0.00000
0.00000	0.25490	0.00000
0.00000	0.25490	0.00000
0.27059	0.25490	0.00000
0.40392	0.25490	0.00000
0.50588	0.25490	0.00000
0.60392	0.25490	0.00000
0.69412	0.25490	0.00000
0.78039	0.25490	0.00000
0.86275	0.25490	0.00000
0.94510	0.25490	0.00000
1.00000	0.25490	0.00000
1.00000	0.25490	0.00000
0.00000	0.38431	0.00000
0.00000	0.38431	0.00000
0.00000	0.38431	0.00000
0.00000	0.38431	0.00000
0.00000	0.38431	0.00000
0.00000	0.38431	0.00000
0.00000	0.38431	0.00000
0.27059	0.38431	0.00000
0.40392	0.38431	0.00000
0.50588	0.38431	0.00000
0.60392	0.38431	0.00000
0.69412	0.38431	0.00000
0.78039	0.38431	0.00000
0.86275	0.38431	0.00000
0.94510	0.38431	0.00000
1.00000	0.38431	0.00000
1.00000	0.38431	0.00000
0.00000	0.47843	0.00000
0.00000	0.47843	0.00000
0.00000	0.47843	0.00000
0.00000	0.47843	0.00000
0.00000	0.48235	0.00000
0.00000	0.48235	0.00000
0.00000	0.47843	0.00000
0.27059	0.47843	0.00000
0.40392	0.47843	0.00000
0.50588	0.47843	0.00000
0.60392	0.47843	0.00000
0.69412	0.48235	0.00000
0.78039	0.48235	0.00000
0.86275	0.47843	0.00000
0.94510	0.47843	0.00000
1.00000	0.48235	0.00000
1.00000	0.47843	0.00000
0.00000	0.57255	0.00000
0.00000	0.57255	0.00000
0.00000	0.57255	0.00000
0.00000	0.57255	0.00000
0.00000	0.57255	0.00000
0.00000	0.57255	0.00000
0.00000	0.57255	0.00000
0.27059	0.57255	0.00000
0.40392	0.57255	0.00000
0.50588	0.57255	0.00000
0.60392	0.57255	0.00000
0.69412	0.57255	0.00000
0.78039	0.57255	0.00000
0.86275	0.57255	0.00000
0.94510	0.57255	0.00000
1.00000	0.57255	0.00000
1.00000	0.57255	0.00000
0.00000	0.65882	0.00000
0.00000	0.65882	0.00000
0.00000	0.65882	0.00000
0.00000	0.65882	0.00000
0.00000	0.65882	0.00000
0.00000	0.65882	0.00000
0.00000	0.65882	0.00000
0.27059	0.65882	0.00000
0.40392	0.65882	0.00000
0.50588	0.65882	0.00000
0.60392	0.65882	0.00000
0.69412	0.65882	0.00000
0.78039	0.65882	0.00000
0.86275	0.65882	0.00000
0.94510	0.65882	0.00000
1.00000	0.65882	0.00000
1.00000	0.65882	0.00000
0.00000	0.74118	0.00000
0.00000	0.74118	0.00000
0.00000	0.74118	0.00000
0.00000	0.74118	0.00000
0.00000	0.74118	0.00000
0.00000	0.74118	0.00000
0.00000	0.74118	0.00000
0.27059	0.74118	0.00000
0.40392	0.74118	0.00000
0.50588	0.74118	0.00000
0.60392	0.74118	0.00000
0.69412	0.74118	0.00000
0.78039	0.74118	0.00000
0.86275	0.74118	0.00000
0.94510	0.74118	0.00000
1.00000	0.74118	0.00000
1.00000	0.74118	0.00000
0.00000	0.81961	0.00000
0.00000	0.81961	0.00000
0.00000	0.81961	0.00000
0.00000	0.81961	0.00000
0.00000	0.81961	0.00000
0.00000	0.81961	0.00000
0.00000	0.81961	0.00000
0.27059	0.81961	0.00000
0.40392	0.81961	0.00000
0.50588	0.81961	0.00000
0.60392	0.81961	0.00000
0.69412	0.81961	0.00000
0.78039	0.81961	0.00000
0.86275	0.81961	0.00000
0.94510	0.81961	0.00000
1.00000	0.81961	0.00000
1.00000	0.81961	0.00000
0.00000	0.89804	0.00000
0.00000	0.89804	0.00000
0.00000	0.89804	0.00000
0.00000	0.89804	0.00000
0.00000	0.89804	0.00000
0.00000	0.89804	0.00000
0.00000	0.89804	0.00000
0.27059	0.89804	0.00000
0.40392	0.89804	0.00000
0.50588	0.89804	0.00000
0.60392	0.89804	0.00000
0.69412	0.89804	0.00000
0.78039	0.89804	0.00000
0.86275	0.89804	0.00000
0.94510	0.89804	0.00000
1.00000	0.89804	0.00000
1.00000	0.89804	0.00000
0.00000	0.97647	0.00000
0.00000	0.97647	0.00000
0.00000	0.97255	0.00000
0.00000	0.97255	0.00000
0.00000	0.97647	0.00000
0.00000	0.97647	0.00000
0.00000	0.97255	0.00000
0.27059	0.97647	0.00000
0.40392	0.97647	0.00000
0.50588	0.97255	0.00000
0.60392	0.97255	0.00000
0.69412	0.97255	0.00000
0.78039	0.97647	0.00000
0.86275	0.97255	0.00000
0.94510	0.97647	0.00000
1.00000	0.97255	0.00000
1.00000	0.97647	0.00000
0.00000	1.00000	0.00000
0.00000	1.00000	0.00000
0.00000	1.00000	0.00000
0.00000	1.00000	0.00000
0.00000	1.00000	0.00000
0.00000	1.00000	0.00000
0.00000	1.00000	0.00000
0.27059	1.00000	0.00000
0.40392	1.00000	0.00000
0.50588	1.00000	0.00000
0.60392	1.00000	0.00000
0.69412	1.00000	0.00000
0.78039	1.00000	0.00000
0.86275	1.00000	0.00000
0.94510	1.00000	0.00000
1.00000	1.00000	0.00000
1.00000	1.00000	0.00000
0.00000	0.00000	0.00000
0.00000	0.00000	0.00000
0.00000	0.00000	0.00000
0.00000	0.00000	0.00000
0.00000	0.00000	0.00000
0.00000	0.00000	0.00000
0.00000	0.00000	0.00000
0.27059	0.00000	0.00000
0.40392	0.00000	0.00000
0.50588	0.00000	0.00000
0.60392	0.00000	0.00000
0.69412	0.00000	0.00000
0.78039	0.00000	0.00000
0.86275	0.00000	0.00000
0.94510	0.00000	0.00000
1.00000	0.00000	0.00000
1.00000	0.00000	0.00000
0.00000	0.00000	0.00000
0.00000	0.00000	0.00000
0.00000	0.00000	0.00000
0.00000	0.00000	0.00000
0.00000	0.00000	0.00000
0.00000	0.00000	0.00000
0.00000	0.00000	0.00000
0.27059	0.00000	0.00000
0.40392	0.00000	0.00000
0.50588	0.00000	0.00000
0.60392	0.00000	0.00000
0.69412	0.00000	0.00000
0.78039	0.00000	0.00000
0.86275	0.00000	0.00000
0.94510	0.00000	0.00000
1.00000	0.00000	0.00000
1.00000	0.00000	0.00000
0.00000	0.00000	0.00000
0.00000	0.00000	0.00000
0.00000	0.00000	0.00000
0.00000	0.00000	0.00000
0.00000	0.00000	0.00000
0.00000	0.00000	0.00000
0.00000	0.00000	0.00000
0.27059	0.00000	0.00000
0.40392	0.00000	0.00000
0.50588	0.00000	0.00000
0.60392	0.00000	0.00000
0.69412	0.00000	0.00000
0.78039	0.00000	0.00000
0.86275	0.00000	0.00000
0.94510	0.00000	0.00000
1.00000	0.00000	0.00000
1.00000	0.00000	0.00000
0.00000	0.00000	0.00000
0.00000	0.00000	0.00000
0.00000	0.00000	0.00000
0.00000	0.00000	0.00000
0.00000	0.00000	0.00000
0.00000	0.00000	0.00000
0.00000	0.00000	0.00000
0.27059	0.00000	0.00000
0.40392	0.00000	0.00000
0.50588	0.00000	0.00000
0.60392	0.00000	0.00000
0.69412	0.00000	0.00000
0.78039	0.00000	0.00000
0.86275	0.00000	0.00000
0.94510	0.00000	0.00000
1.00000	0.00000	0.00000
1.00000	0.00000	0.00000
0.00000	0.00000	0.00000
0.00000	0.00000	0.00000
0.00000	0.00000	0.00000
0.00000	0.00000	0.00000
0.00000	0.00000	0.00000
0.00000	0.00000	0.00000
0.00000	0.00000	0.00000
0.27059	0.00000	0.00000
0.40392	0.00000	0.00000
0.50588	0.00000	0.00000
0.60392	0.00000	0.00000
0.69412	0.00000	0.00000
0.78039	0.00000	0.00000
0.86275	0.00000	0.00000
0.94510	0.00000	0.00000
1.00000	0.00000	0.00000
1.00000	0.00000	0.00000
0.00000	0.00000	0.00000
0.00000	0.00000	0.00000
0.00000	0.00000	0.00000
0.00000	0.00000	0.00000
0.00000	0.00000	0.00000
0.00000	0.00000	0.00000
0.00000	0.00000	0.00000
0.27059	0.00000	0.00000
0.40392	0.00000	0.00000
0.50588	0.00000	0.00000
0.60392	0.00000	0.00000
0.69412	0.00000	0.00000
0.78039	0.00000	0.00000
0.86275	0.00000	0.00000
0.94510	0.00000	0.00000
1.00000	0.00000	0.00000
1.00000	0.00000	0.00000
0.00000	0.00000	0.00000
0.00000	0.00000	0.00000
0.00000	0.00000	0.00000
0.00000	0.00000	0.00000
0.00000	0.00000	0.00000
0.00000	0.00000	0.00000
0.00000	0.00000	0.00000
0.27059	0.00000	0.00000
0.40392	0.00000	0.00000
0.50588	0.00000	0.00000
0.60392	0.00000	0.00000
0.69412	0.00000	0.00000
0.78039	0.00000	0.00000
0.86275	0.00000	0.00000
0.94510	0.00000	0.00000
1.00000	0.00000	0.00000
1.00000	0.00000	0.00000
0.00000	0.25490	0.00000
0.00000	0.25490	0.00000
0.00000	0.25490	0.00000
0.00000	0.25490	0.00000
0.00000	0.25490	0.00000
0.00000	0.25490	0.00000
0.00000	0.25490	0.00000
0.27059	0.25490	0.00000
0.40392	0.25490	0.00000
0.50588	0.25490	0.00000
0.60392	0.25490	0.00000
0.69412	0.25490	0.00000
0.78039	0.25490	0.00000
0.86275	0.25490	0.00000
0.94510	0.25490	0.00000
1.00000	0.25490	0.00000
1.00000	0.25490	0.00000
0.00000	0.38431	0.00000
0.00000	0.38431	0.00000
0.00000	0.38431	0.00000
0.00000	0.38431	0.00000
0.00000	0.38431	0.00000
0.00000	0.38431	0.00000
0.00000	0.38431	0.00000
0.27059	0.38431	0.00000
0.40392	0.38431	0.00000
0.50588	0.38431	0.00000
0.60392	0.38431	0.00000
0.69412	0.38431	0.00000
0.78039	0.38431	0.00000
0.86275	0.38431	0.00000
0.94510	0.38431	0.00000
1.00000	0.38431	0.00000
1.00000	0.38431	0.00000
0.00000	0.48235	0.00000
0.00000	0.47843	0.00000
0.00000	0.47843	0.00000
0.00000	0.48235	0.00000
0.00000	0.47843	0.00000
0.00000	0.47843	0.00000
0.00000	0.47843	0.00000
0.27059	0.47843	0.00000
0.40392	0.47843	0.00000
0.50588	0.47843	0.00000
0.60392	0.47843	0.00000
0.69412	0.47843	0.00000
0.78039	0.47843	0.00000
0.86275	0.47843	0.00000
0.94510	0.47843	0.00000
1.00000	0.47843	0.00000
1.00000	0.47843	0.00000
0.00000	0.57255	0.00000
0.00000	0.57255	0.00000
0.00000	0.57255	0.00000
0.00000	0.57255	0.00000
0.00000	0.57255	0.00000
0.00000	0.57255	0.00000
0.00000	0.57255	0.00000
0.27059	0.57255	0.00000
0.40392	0.57255	0.00000
0.50588	0.57255	0.00000
0.60392	0.57255	0.00000
0.69412	0.57255	0.00000
0.78039	0.57255	0.00000
0.86275	0.57255	0.00000
0.94510	0.57255	0.00000
1.00000	0.57255	0.00000
1.00000	0.57255	0.00000
0.00000	0.65882	0.00000
0.00000	0.65882	0.00000
0.00000	0.65882	0.00000
0.00000	0.65882	0.00000
0.00000	0.65882	0.00000
0.00000	0.65882	0.00000
0.00000	0.65882	0.00000
0.27059	0.65882	0.00000
0.40392	0.65882	0.00000
0.50588	0.65882	0.00000
0.60392	0.65882	0.00000
0.69412	0.65882	0.00000
0.78039	0.65882	0.00000
0.86275	0.65882	0.00000
0.94510	0.65882	0.00000
1.00000	0.65882	0.00000
1.00000	0.65882	0.00000
0.00000	0.74118	0.00000
0.00000	0.74118	0.00000
0.00000	0.74118	0.00000
0.00000	0.74118	0.00000
0.00000	0.74118	0.00000
0.00000	0.74118	0.00000
0.00000	0.74118	0.00000
0.27059	0.74118	0.00000
0.40392	0.74118	0.00000
0.50588	0.74118	0.00000
0.60392	0.74118	0.00000
0.69412	0.74118	0.00000
0.78039	0.74118	0.00000
0.86275	0.74118	0.00000
0.94510	0.74118	0.00000
1.00000	0.74118	0.00000
1.00000	0.74118	0.00000
0.00000	0.81961	0.00000
0.00000	0.81961	0.00000
0.00000	0.81961	0.00000
0.00000	0.81961	0.00000
0.00000	0.81961	0.00000
0.00000	0.81961	0.00000
0.00000	0.81961	0.00000
0.27059	0.81961	0.00000
0.40392	0.81961	0.00000
0.50588	0.81961	0.00000
0.60392	0.81961	0.00000
0.69412	0.81961	0.00000
0.78039	0.81961	0.00000
0.86275	0.81961	0.00000
0.94510	0.81961	0.00000
1.00000	0.81961	0.00000
1.00000	0.81961	0.00000
0.00000	0.89804	0.00000
0.00000	0.89804	0.00000
0.00000	0.89804	0.00000
0.00000	0.89804	0.00000
0.00000	0.89804	0.00000
0.00000	0.89804	0.00000
0.00000	0.89804	0.00000
0.27059	0.89804	0.00000
0.40392	0.89804	0.00000
0.50588	0.89804	0.00000
0.60392	0.89804	0.00000
0.69412	0.89804	0.00000
0.78039	0.89804	0.00000
0.86275	0.89804	0.00000
0.94510	0.89804	0.00000
1.00000	0.89804	0.00000
1.00000	0.89804	0.00000
0.00000	0.97255	0.00000
0.00000	0.97647	0.00000
0.00000	0.97647	0.00000
0.00000	0.97647	0.00000
0.00000	0.97647	0.00000
0.00000	0.97255	0.00000
0.00000	0.97255	0.00000
0.27059	0.97255	0.00000
0.40392	0.97647	0.00000
0.50588	0.97255	0.00000
0.60392	0.97255	0.00000
0.69412	0.97255	0.00000
0.78039	0.97255	0.00000
0.86275	0.97255	0.00000
0.94510	0.97255	0.00000
1.00000	0.97647	0.00000
1.00000	0.97647	0.00000
0.00000	1.00000	0.00000
0.00000	1.00000	0.00000
0.00000	1.00000	0.00000
0.00000	1.00000	0.00000
0.00000	1.00000	0.00000
0.00000	1.00000	0.00000
0.00000	1.00000	0.00000
0.27059	1.00000	0.00000
0.40392	1.00000	0.00000
0.50588	1.00000	0.00000
0.60392	1.00000	0.00000
0.69412	1.00000	0.00000
0.78039	1.00000	0.00000
0.86275	1.00000	0.00000
0.94510	1.00000	0.00000
1.00000	1.00000	0.00000
1.00000	1.00000	0.00000
0.00000	0.00000	0.00000
0.00000	0.00000	0.00000
0.00000	0.00000	0.00000
0.00000	0.00000	0.00000
0.00000	0.00000	0.00000
0.00000	0.00000	0.00000
0.00000	0.00000	0.00000
0.27059	0.00000	0.00000
0.40392	0.00000	0.00000
0.50588	0.00000	0.00000
0.60392	0.00000	0.00000
0.69412	0.00000	0.00000
0.78039	0.00000	0.00000
0.86275	0.00000	0.00000
0.94510	0.00000	0.00000
1.00000	0.00000	0.00000
1.00000	0.00000	0.00000
0.00000	0.00000	0.00000
0.00000	0.00000	0.00000
0.00000	0.00000	0.00000
0.00000	0.00000	0.00000
0.00000	0.00000	0.00000
0.00000	0.00000	0.00000
0.00000	0.00000	0.00000
0.27059	0.00000	0.00000
0.40392	0.00000	0.00000
0.50588	0.00000	0.00000
0.60392	0.00000	0.00000
0.69412	0.00000	0.00000
0.78039	0.00000	0.00000
0.86275	0.00000	0.00000
0.94510	0.00000	0.00000
1.00000	0.00000	0.00000
1.00000	0.00000	0.00000
0.00000	0.00000	0.00000
0.00000	0.00000	0.00000
0.00000	0.00000	0.00000
0.00000	0.00000	0.00000
0.00000	0.00000	0.00000
0.00000	0.00000	0.00000
0.00000	0.00000	0.00000
0.27059	0.00000	0.00000
0.40392	0.00000	0.00000
0.50588	0.00000	0.00000
0.60392	0.00000	0.00000
0.69412	0.00000	0.00000
0.78039	0.00000	0.00000
0.86275	0.00000	0.00000
0.94510	0.00000	0.00000
1.00000	0.00000	0.00000
1.00000	0.00000	0.00000
0.00000	0.00000	0.00000
0.00000	0.00000	0.00000
0.00000	0.00000	0.00000
0.00000	0.00000	0.00000
0.00000	0.00000	0.00000
0.00000	0.00000	0.00000
0.00000	0.00000	0.00000
0.27059	0.00000	0.00000
0.40392	0.00000	0.00000
0.50588	0.00000	0.00000
0.60392	0.00000	0.00000
0.69412	0.00000	0.00000
0.78039	0.00000	0.00000
0.86275	0.00000	0.00000
0.94510	0.00000	0.00000
1.00000	0.00000	0.00000
1.00000	0.00000	0.00000
0.00000	0.00000	0.00000
0.00000	0.00000	0.00000
0.00000	0.00000	0.00000
0.00000	0.00000	0.00000
0.00000	0.00000	0.00000
0.00000	0.00000	0.00000
0.00000	0.00000	0.00000
0.27059	0.00000	0.00000
0.40392	0.00000	0.00000
0.50588	0.00000	0.00000
0.60392	0.00000	0.00000
0.69412	0.00000	0.00000
0.78039	0.00000	0.00000
0.86275	0.00000	0.00000
0.94510	0.00000	0.00000
1.00000	0.00000	0.00000
1.00000	0.00000	0.00000
0.00000	0.00000	0.00000
0.00000	0.00000	0.00000
0.00000	0.00000	0.00000
0.00000	0.00000	0.00000
0.00000	0.00000	0.00000
0.00000	0.00000	0.00000
0.00000	0.00000	0.00000
0.27059	0.00000	0.00000
0.40392	0.00000	0.00000
0.50588	0.00000	0.00000
0.60392	0.00000	0.00000
0.69412	0.00000	0.00000
0.78039	0.00000	0.00000
0.86275	0.00000	0.00000
0.94510	0.00000	0.00000
1.00000	0.00000	0.00000
1.00000	0.00000	0.00000
0.00000	0.00000	0.00000
0.00000	0.00000	0.00000
0.00000	0.00000	0.00000
0.00000	0.00000	0.00000
0.00000	0.00000	0.00000
0.00000	0.00000	0.00000
0.00000	0.00000	0.00000
0.27059	0.00000	0.00000
0.40392	0.00000	0.00000
0.50588	0.00000	0.00000
0.60392	0.00000	0.00000
0.69412	0.00000	0.00000
0.78039	0.00000	0.00000
0.86275	0.00000	0.00000
0.94510	0.00000	0.00000
1.00000	0.00000	0.00000
1.00000	0.00000	0.00000
0.00000	0.25490	0.00000
0.00000	0.25490	0.00000
0.00000	0.25490	0.00000
0.00000	0.25490	0.00000
0.00000	0.25490	0.00000
0.00000	0.25490	0.00000
0.00000	0.25490	0.00000
0.27059	0.25490	0.00000
0.40392	0.25490	0.00000
0.50588	0.25490	0.00000
0.60392	0.25490	0.00000
0.69412	0.25490	0.00000
0.78039	0.25490	0.00000
0.86275	0.25490	0.00000
0.94510	0.25490	0.00000
1.00000	0.25490	0.00000
1.00000	0.25490	0.00000
0.00000	0.38431	0.00000
0.00000	0.38431	0.00000
0.00000	0.38431	0.00000
0.00000	0.38431	0.00000
0.00000	0.38431	0.00000
0.00000	0.38431	0.00000
0.00000	0.38431	0.00000
0.27059	0.38431	0.00000
0.40392	0.38431	0.00000
0.50588	0.38431	0.00000
0.60392	0.38431	0.00000
0.69412	0.38431	0.00000
0.78039	0.38431	0.00000
0.86275	0.38431	0.00000
0.94510	0.38431	0.00000
1.00000	0.38431	0.00000
1.00000	0.38431	0.00000
0.00000	0.48235	0.00000
0.00000	0.47843	0.00000
0.00000	0.47843	0.00000
0.00000	0.47843	0.00000
0.00000	0.48235	0.00000
0.00000	0.47843	0.00000
0.00000	0.47843	0.00000
0.27059	0.47843	0.00000
0.40392	0.48235	0.00000
0.50588	0.47843	0.00000
0.60392	0.47843	0.00000
0.69412	0.47843	0.00000
0.78039	0.47843	0.00000
0.86275	0.47843	0.00000
0.94510	0.48235	0.00000
1.00000	0.48235	0.00000
1.00000	0.47843	0.00000
0.00000	0.57255	0.00000
0.00000	0.57255	0.00000
0.00000	0.57255	0.00000
0.00000	0.57255	0.00000
0.00000	0.57255	0.00000
0.00000	0.57255	0.00000
0.00000	0.57255	0.00000
0.27059	0.57255	0.00000
0.40392	0.57255	0.00000
0.50588	0.57255	0.00000
0.60392	0.57255	0.00000
0.69412	0.57255	0.00000
0.78039	0.57255	0.00000
0.86275	0.57255	0.00000
0.94510	0.57255	0.00000
1.00000	0.57255	0.00000
1.00000	0.57255	0.00000
0.00000	0.65882	0.00000
0.00000	0.65882	0.00000
0.00000	0.65882	0.00000
0.00000	0.65882	0.00000
0.00000	0.65882	0.00000
0.00000	0.65882	0.00000
0.00000	0.65882	0.00000
0.27059	0.65882	0.00000
0.40392	0.65882	0.00000
0.50588	0.65882	0.00000
0.60392	0.65882	0.00000
0.69412	0.65882	0.00000
0.78039	0.65882	0.00000
0.86275	0.65882	0.00000
0.94510	0.65882	0.00000
1.00000	0.65882	0.00000
1.00000	0.65882	0.00000
0.00000	0.74118	0.00000
0.00000	0.74118	0.00000
0.00000	0.74118	0.00000
0.00000	0.74118	0.00000
0.00000	0.74118	0.00000
0.00000	0.74118	0.00000
0.00000	0.74118	0.00000
0.27059	0.74118	0.00000
0.40392	0.74118	0.00000
0.50588	0.74118	0.00000
0.60392	0.74118	0.00000
0.69412	0.74118	0.00000
0.78039	0.74118	0.00000
0.86275	0.74118	0.00000
0.94510	0.74118	0.00000
1.00000	0.74118	0.00000
1.00000	0.74118	0.00000
0.00000	0.81961	0.00000
0.00000	0.81961	0.00000
0.00000	0.81961	0.00000
0.00000	0.81961	0.00000
0.00000	0.81961	0.00000
0.00000	0.81961	0.00000
0.00000	0.81961	0.00000
0.27059	0.81961	0.00000
0.40392	0.81961	0.00000
0.50588	0.81961	0.00000
0.60392	0.81961	0.00000
0.69412	0.81961	0.00000
0.78039	0.81961	0.00000
0.86275	0.81961	0.00000
0.94510	0.81961	0.00000
1.00000	0.81961	0.00000
1.00000	0.81961	0.00000
0.00000	0.89804	0.00000
0.00000	0.89804	0.00000
0.00000	0.89804	0.00000
0.00000	0.89804	0.00000
0.00000	0.89804	0.00000
0.00000	0.89804	0.00000
0.00000	0.89804	0.00000
0.27059	0.89804	0.00000
0.40392	0.89804	0.00000
0.50588	0.89804	0.00000
0.60392	0.89804	0.00000
0.69412	0.89804	0.00000
0.78039	0.89804	0.00000
0.86275	0.89804	0.00000
0.94510	0.89804	0.00000
1.00000	0.89804	0.00000
1.00000	0.89804	0.00000
0.00000	0.97255	0.00000
0.00000	0.97647	0.00000
0.00000	0.97255	0.00000
0.00000	0.97255	0.00000
0.00000	0.97647	0.00000
0.00000	0.97647	0.00000
0.00000	0.97647	0.00000
0.27059	0.97255	0.00000
0.40392	0.97255	0.00000
0.50588	0.97255	0.00000
0.60392	0.97255	0.00000
0.69412	0.97255	0.00000
0.78039	0.97255	0.00000
0.86275	0.97647	0.00000
0.94510	0.97647	0.00000
1.00000	0.97647	0.00000
1.00000	0.97255	0.00000
0.00000	1.00000	0.00000
0.00000	1.00000	0.00000
0.00000	1.00000	0.00000
0.00000	1.00000	0.00000
0.00000	1.00000	0.00000
0.00000	1.00000	0.00000
0.00000	1.00000	0.00000
0.27059	1.00000	0.00000
0.40392	1.00000	0.00000
0.50588	1.00000	0.00000
0.60392	1.00000	0.00000
0.69412	1.00000	0.00000
0.78039	1.00000	0.00000
0.86275	1.00000	0.00000
0.94510	1.00000	0.00000
1.00000	1.00000	0.00000
1.00000	1.00000	0.00000
0.00000	0.00000	0.00000
0.00000	0.00000	0.00000
0.00000	0.00000	0.00000
0.00000	0.00000	0.00000
0.00000	0.00000	0.00000
0.00000	0.00000	0.00000
0.00000	0.00000	0.00000
0.27059	0.00000	0.00000
0.40392	0.00000	0.00000
0.50588	0.00000	0.00000
0.60392	0.00000	0.00000
0.69412	0.00000	0.00000
0.78039	0.00000	0.00000
0.86275	0.00000	0.00000
0.94510	0.00000	0.00000
1.00000	0.00000	0.00000
1.00000	0.00000	0.00000
0.00000	0.00000	0.00000
0.00000	0.00000	0.00000
0.00000	0.00000	0.00000
0.00000	0.00000	0.00000
0.00000	0.00000	0.00000
0.00000	0.00000	0.00000
0.00000	0.00000	0.00000
0.27059	0.00000	0.00000
0.40392	0.00000	0.00000
0.50588	0.00000	0.00000
0.60392	0.00000	0.00000
0.69412	0.00000	0.00000
0.78039	0.00000	0.00000
0.86275	0.00000	0.00000
0.94510	0.00000	0.00000
1.00000	0.00000	0.00000
