LUTGenerator/TEST/CUBE/Warming/softwarming_linear_sRGB.cube
TITLE softwarming_linear_sRGB.cube
LUT_3D_SIZE 9
DOMAIN_MIN 0.0 0.0 0.0
DOMAIN_MAX 1.0 1.0 1.0
0.27843	0.22745	0.25882
0.30588	0.22745	0.25882
0.36471	0.23137	0.26275
0.44706	0.23922	0.27059
0.54118	0.24706	0.27843
0.63529	0.25882	0.29412
0.73725	0.27451	0.30588
0.83922	0.29020	0.32549
0.94118	0.30980	0.34510
0.28235	0.25882	0.26275
0.30980	0.25882	0.26275
0.36471	0.26275	0.26667
0.44706	0.26667	0.27451
0.54118	0.27451	0.28235
0.63529	0.28627	0.29412
0.73725	0.29804	0.30980
0.83922	0.31373	0.32549
0.94118	0.33333	0.34510
0.29020	0.31765	0.27059
0.31373	0.32157	0.27059
0.37255	0.32157	0.27451
0.45098	0.32549	0.28235
0.54510	0.33333	0.29020
0.63922	0.34118	0.30196
0.73725	0.35294	0.31373
0.83922	0.36471	0.33333
0.94118	0.38039	0.34902
0.30196	0.40392	0.28235
0.32549	0.40392	0.28235
0.38039	0.40784	0.28627
0.45882	0.40784	0.29412
0.54902	0.41569	0.30196
0.64314	0.41961	0.30980
0.74118	0.43137	0.32549
0.84314	0.43922	0.34118
0.94510	0.45098	0.36078
0.31765	0.50196	0.29804
0.34118	0.50196	0.30196
0.39216	0.50196	0.30196
0.47059	0.50588	0.30980
0.55686	0.50980	0.31765
0.64706	0.51765	0.32549
0.74510	0.52157	0.34118
0.84706	0.52941	0.35294
0.94902	0.54118	0.37255
0.33725	0.60392	0.31765
0.36078	0.60392	0.32157
0.40784	0.60784	0.32549
0.48235	0.60784	0.32941
0.56471	0.61176	0.33725
0.65490	0.61569	0.34510
0.75294	0.62353	0.35686
0.85098	0.62745	0.37255
0.95294	0.63922	0.38824
0.36471	0.71765	0.34510
0.38431	0.71765	0.34510
0.42745	0.71765	0.34902
0.49804	0.72157	0.35294
0.58039	0.72157	0.36078
0.66667	0.72549	0.36863
0.76078	0.73333	0.38039
0.85882	0.73725	0.39216
0.95686	0.74510	0.40784
0.39216	0.83137	0.37255
0.41176	0.83137	0.37647
0.45098	0.83529	0.37647
0.51765	0.83529	0.38039
0.59216	0.83922	0.38824
0.67843	0.83922	0.39608
0.77255	0.84314	0.40392
0.86667	0.85098	0.41569
0.96471	0.85490	0.43137
0.42353	0.94902	0.40392
0.43922	0.94902	0.40392
0.47843	0.95294	0.40784
0.53725	0.95294	0.41176
0.61176	0.95294	0.41569
0.69412	0.95686	0.42353
0.78431	0.96078	0.43529
0.87843	0.96471	0.44314
0.97255	0.96863	0.45882
0.27843	0.22745	0.28627
0.30588	0.22745	0.28627
0.36471	0.23137	0.29020
0.44706	0.23922	0.29804
0.54118	0.24706	0.30588
0.63529	0.25882	0.31373
0.73725	0.27451	0.32941
0.83922	0.29020	0.34510
0.94118	0.30980	0.36471
0.28235	0.25882	0.29020
0.30980	0.25882	0.29020
0.36471	0.26275	0.29412
0.44706	0.26667	0.29804
0.54118	0.27451	0.30588
0.63529	0.28627	0.31765
0.73725	0.29804	0.32941
0.83922	0.31373	0.34510
0.94118	0.33333	0.36471
0.29020	0.31765	0.29412
0.31373	0.32157	0.29804
0.37255	0.32157	0.29804
0.45098	0.32549	0.30588
0.54510	0.33333	0.31373
0.63922	0.34118	0.32157
0.73725	0.35294	0.33725
0.83922	0.36471	0.35294
0.94118	0.38039	0.36863
0.30196	0.40392	0.30588
0.32549	0.40392	0.30588
0.38039	0.40784	0.30980
0.45882	0.40784	0.31373
0.54902	0.41569	0.32157
0.64314	0.41961	0.33333
0.74118	0.43137	0.34510
0.84314	0.43922	0.36078
0.94510	0.45098	0.37647
0.31765	0.50196	0.32157
0.34118	0.50196	0.32157
0.39216	0.50588	0.32549
0.47059	0.50588	0.32941
0.55686	0.50980	0.33725
0.64706	0.51765	0.34902
0.74510	0.52157	0.36078
0.84706	0.53333	0.37255
0.94902	0.54118	0.38824
0.34118	0.60392	0.34118
0.36078	0.60392	0.34118
0.40784	0.60784	0.34510
0.48235	0.60784	0.34902
0.56471	0.61176	0.35686
0.65490	0.61569	0.36471
0.75294	0.62353	0.37647
0.85098	0.62745	0.38824
0.95294	0.63922	0.40392
0.36471	0.71765	0.36471
0.38431	0.71765	0.36471
0.42745	0.71765	0.36863
0.49804	0.72157	0.37255
0.58039	0.72157	0.37647
0.66667	0.72549	0.38431
0.76078	0.72941	0.39608
0.85882	0.73725	0.40784
0.95686	0.74510	0.42353
0.39216	0.83137	0.39216
0.41176	0.83137	0.39216
0.45098	0.83529	0.39608
0.51765	0.83529	0.40000
0.59608	0.83922	0.40392
0.67843	0.83922	0.41176
0.77255	0.84314	0.41961
0.86667	0.85098	0.43137
0.96471	0.85490	0.44706
0.42353	0.94902	0.41961
0.43922	0.94902	0.41961
0.47843	0.95294	0.42353
0.53725	0.95294	0.42745
0.61176	0.95294	0.43137
0.69412	0.95686	0.43922
0.78431	0.96078	0.44706
0.87843	0.96471	0.45882
0.97255	0.96863	0.47059
0.28235	0.23137	0.34510
0.30980	0.23137	0.34510
0.36471	0.23529	0.34902
0.44706	0.23922	0.35294
0.54118	0.25098	0.36078
0.63529	0.26275	0.36863
0.73725	0.27451	0.38039
0.83922	0.29412	0.39216
0.94118	0.31373	0.40784
0.28235	0.25882	0.34510
0.30980	0.25882	0.34510
0.36863	0.26275	0.34902
0.45098	0.27059	0.35294
0.54118	0.27843	0.36078
0.63529	0.28627	0.36863
0.73725	0.30196	0.38039
0.83922	0.31765	0.39216
0.94118	0.33333	0.40784
0.29020	0.32157	0.35294
0.31765	0.32157	0.35294
0.37255	0.32549	0.35294
0.45490	0.32941	0.35686
0.54510	0.33333	0.36471
0.63922	0.34510	0.37255
0.73725	0.35294	0.38431
0.83922	0.36863	0.39608
0.94118	0.38039	0.41176
0.30196	0.40392	0.36078
0.32549	0.40392	0.36078
0.38039	0.40784	0.36471
0.45882	0.41176	0.36863
0.54902	0.41569	0.37255
0.64314	0.42353	0.38039
0.74118	0.43137	0.39216
0.84314	0.44314	0.40392
0.94510	0.45490	0.41961
0.32157	0.50196	0.37255
0.34118	0.50196	0.37255
0.39216	0.50588	0.37647
0.47059	0.50588	0.38039
0.55686	0.50980	0.38431
0.64706	0.51765	0.39216
0.74902	0.52549	0.40392
0.84706	0.53333	0.41569
0.94902	0.54118	0.43137
0.34118	0.60784	0.38824
0.36078	0.60784	0.38824
0.41176	0.60784	0.39216
0.48235	0.60784	0.39608
0.56863	0.61176	0.40000
0.65490	0.61569	0.40784
0.75294	0.62353	0.41961
0.85098	0.63137	0.43137
0.95294	0.63922	0.44314
0.36471	0.71765	0.40784
0.38431	0.71765	0.40784
0.43137	0.71765	0.41176
0.49804	0.72157	0.41569
0.58039	0.72549	0.41961
0.66667	0.72941	0.42745
0.76078	0.73333	0.43529
0.85882	0.73725	0.44706
0.95686	0.74510	0.46275
0.39608	0.83137	0.43137
0.41176	0.83529	0.43137
0.45098	0.83529	0.43529
0.51765	0.83529	0.43922
0.59608	0.83922	0.44314
0.67843	0.83922	0.45098
0.77255	0.84314	0.45882
0.86667	0.85098	0.47059
0.96471	0.85490	0.48235
0.42353	0.94902	0.45882
0.43922	0.94902	0.45882
0.47843	0.95294	0.46275
0.53725	0.95294	0.46275
0.61176	0.95294	0.46667
0.69412	0.95686	0.47451
0.78431	0.96078	0.48235
0.87843	0.96471	0.49412
0.97255	0.96863	0.50588
0.28235	0.23137	0.42353
0.30980	0.23529	0.42353
0.36863	0.23922	0.42745
0.45098	0.24314	0.43137
0.54118	0.25098	0.43529
0.63529	0.26275	0.44314
0.73725	0.27843	0.45098
0.83922	0.29412	0.46275
0.94118	0.31373	0.47451
0.28627	0.26275	0.42745
0.31373	0.26275	0.42745
0.36863	0.26667	0.42745
0.45098	0.27059	0.43137
0.54118	0.27843	0.43922
0.63529	0.29020	0.44314
0.73725	0.30196	0.45490
0.83922	0.31765	0.46275
0.94118	0.33725	0.47451
0.29412	0.32157	0.43137
0.31765	0.32157	0.43137
0.37255	0.32549	0.43137
0.45490	0.32941	0.43529
0.54510	0.33725	0.44314
0.63922	0.34510	0.44706
0.74118	0.35686	0.45490
0.83922	0.36863	0.46667
0.94118	0.38431	0.47843
0.30588	0.40392	0.43529
0.32941	0.40784	0.43922
0.38431	0.40784	0.43922
0.45882	0.41176	0.44314
0.54902	0.41569	0.44706
0.64314	0.42353	0.45490
0.74118	0.43137	0.46275
0.84314	0.44314	0.47451
0.94510	0.45490	0.48627
0.32157	0.50196	0.44706
0.34510	0.50588	0.44706
0.39608	0.50588	0.44706
0.47059	0.50980	0.45098
0.55686	0.51373	0.45882
0.65098	0.51765	0.46275
0.74902	0.52549	0.47059
0.84706	0.53333	0.48235
0.94902	0.54510	0.49412
0.34118	0.60784	0.45882
0.36471	0.60784	0.45882
0.41176	0.60784	0.46275
0.48235	0.61176	0.46667
0.56863	0.61569	0.47059
0.65882	0.61961	0.47451
0.75294	0.62353	0.48235
0.85098	0.63137	0.49412
0.95294	0.63922	0.50588
0.36863	0.71765	0.47451
0.38824	0.71765	0.47451
0.43137	0.72157	0.47843
0.49804	0.72157	0.48235
0.58039	0.72549	0.48627
0.66667	0.72941	0.49020
0.76078	0.73333	0.49804
0.85882	0.73725	0.50980
0.95686	0.74510	0.51765
0.39608	0.83529	0.49412
0.41569	0.83529	0.49412
0.45490	0.83529	0.49804
0.51765	0.83529	0.50196
0.59608	0.83922	0.50588
0.67843	0.84314	0.50980
0.77255	0.84706	0.51765
0.86667	0.85098	0.52549
0.96471	0.85490	0.53725
0.42745	0.95294	0.51765
0.44314	0.95294	0.51765
0.47843	0.95294	0.51765
0.54118	0.95294	0.52157
0.61176	0.95686	0.52549
0.69412	0.95686	0.52941
0.78431	0.96078	0.53725
0.87843	0.96471	0.54510
0.97255	0.96863	0.55686
0.28627	0.23529	0.51765
0.31373	0.23529	0.51765
0.36863	0.23922	0.51765
0.45098	0.24706	0.52157
0.54118	0.25490	0.52549
0.63922	0.26667	0.53333
0.73725	0.28235	0.53725
0.83922	0.29804	0.54510
0.94118	0.31765	0.55686
0.29020	0.26275	0.51765
0.31765	0.26667	0.51765
0.37255	0.26667	0.52157
0.45098	0.27451	0.52157
0.54510	0.28235	0.52549
0.63922	0.29412	0.53333
0.73725	0.30588	0.54118
0.83922	0.32157	0.54902
0.94118	0.33725	0.55686
0.29804	0.32549	0.52157
0.32157	0.32549	0.52157
0.37647	0.32941	0.52157
0.45490	0.33333	0.52549
0.54902	0.33725	0.52941
0.63922	0.34902	0.53333
0.74118	0.35686	0.54118
0.84314	0.36863	0.54902
0.94118	0.38431	0.56078
0.30980	0.40784	0.52549
0.33333	0.40784	0.52549
0.38431	0.41176	0.52941
0.46275	0.41176	0.52941
0.55294	0.41961	0.53333
0.64314	0.42353	0.54118
0.74510	0.43529	0.54510
0.84314	0.44314	0.55686
0.94510	0.45490	0.56471
0.32549	0.50588	0.53333
0.34902	0.50588	0.53333
0.40000	0.50588	0.53725
0.47059	0.50980	0.53725
0.56078	0.51373	0.54118
0.65098	0.51765	0.54902
0.74902	0.52549	0.55294
0.84706	0.53333	0.56471
0.94902	0.54510	0.57255
0.34510	0.60784	0.54510
0.36471	0.60784	0.54510
0.41569	0.61176	0.54510
0.48627	0.61176	0.54902
0.56863	0.61569	0.55294
0.65882	0.61961	0.55686
0.75294	0.62353	0.56471
0.85490	0.63137	0.57255
0.95294	0.63922	0.58039
0.36863	0.71765	0.55686
0.38824	0.72157	0.55686
0.43529	0.72157	0.56078
0.50196	0.72157	0.56078
0.58039	0.72549	0.56471
0.67059	0.72941	0.56863
0.76471	0.73333	0.57647
0.85882	0.73725	0.58431
0.96078	0.74510	0.59216
0.40000	0.83529	0.57255
0.41569	0.83529	0.57255
0.45490	0.83529	0.57647
0.51765	0.83529	0.57647
0.59608	0.83922	0.58039
0.68235	0.84314	0.58431
0.77255	0.84706	0.59216
0.87059	0.85098	0.60000
0.96471	0.85490	0.60784
0.42745	0.95294	0.59216
0.44314	0.95294	0.59216
0.48235	0.95294	0.59216
0.54118	0.95294	0.59608
0.61569	0.95686	0.60000
0.69412	0.95686	0.60392
0.78431	0.96078	0.60784
0.87843	0.96471	0.61569
0.97647	0.97255	0.62353
0.29412	0.23922	0.61176
0.31765	0.24314	0.61176
0.37255	0.24314	0.61569
0.45490	0.25098	0.61569
0.54510	0.25882	0.61961
0.63922	0.27059	0.62353
0.74118	0.28627	0.63137
0.83922	0.30196	0.63529
0.94118	0.32157	0.64314
0.29412	0.26667	0.61569
0.32157	0.27059	0.61569
0.37647	0.27451	0.61569
0.45490	0.27843	0.61961
0.54510	0.28627	0.61961
0.63922	0.29412	0.62353
0.74118	0.30980	0.63137
0.83922	0.32157	0.63922
0.94118	0.34118	0.64706
0.30196	0.32941	0.61569
0.32549	0.32941	0.61569
0.38039	0.32941	0.61961
0.45882	0.33725	0.61961
0.54902	0.34118	0.62353
0.64314	0.34902	0.62745
0.74118	0.36078	0.63137
0.84314	0.37255	0.63922
0.94510	0.38824	0.64706
0.31373	0.41176	0.61961
0.33725	0.41176	0.61961
0.38824	0.41176	0.62353
0.46667	0.41569	0.62353
0.55294	0.41961	0.62745
0.64706	0.42745	0.63137
0.74510	0.43529	0.63529
0.84706	0.44706	0.64314
0.94510	0.45882	0.65098
0.32941	0.50588	0.62745
0.35294	0.50980	0.62745
0.40000	0.50980	0.62745
0.47451	0.51373	0.63137
0.56078	0.51765	0.63529
0.65098	0.52157	0.63922
0.74902	0.52941	0.64314
0.85098	0.53725	0.65098
0.94902	0.54510	0.65882
0.34902	0.61176	0.63529
0.36863	0.61176	0.63529
0.41569	0.61176	0.63529
0.48627	0.61176	0.63922
0.57255	0.61569	0.64314
0.65882	0.61961	0.64706
0.75686	0.62745	0.65098
0.85490	0.63529	0.65882
0.95294	0.64314	0.66667
0.37255	0.72157	0.64706
0.39216	0.72157	0.64706
0.43529	0.72157	0.64706
0.50196	0.72549	0.65098
0.58431	0.72549	0.65098
0.67059	0.72941	0.65490
0.76471	0.73333	0.66275
0.86275	0.74118	0.66667
0.96078	0.74902	0.67451
0.40000	0.83529	0.65882
0.41961	0.83529	0.65882
0.45882	0.83529	0.65882
0.52157	0.83922	0.66275
0.60000	0.83922	0.66667
0.68235	0.84314	0.67059
0.77255	0.84706	0.67451
0.87059	0.85098	0.67843
0.96863	0.85882	0.68627
0.43137	0.95294	0.67451
0.44706	0.95294	0.67451
0.48235	0.95294	0.67451
0.54118	0.95686	0.67843
0.61569	0.95686	0.67843
0.69804	0.96078	0.68235
0.78824	0.96471	0.69020
0.87843	0.96863	0.69412
0.97647	0.97255	0.70196
0.29804	0.24706	0.71373
0.32157	0.24706	0.71373
0.37647	0.25098	0.71765
0.45882	0.25882	0.71765
0.54902	0.26667	0.72157
0.63922	0.27451	0.72549
0.74118	0.29020	0.72941
0.84314	0.30588	0.73333
0.94510	0.32549	0.74118
0.30196	0.27451	0.71765
0.32549	0.27451	0.71765
0.38039	0.27843	0.71765
0.45882	0.28235	0.71765
0.54902	0.29020	0.72157
0.64314	0.30196	0.72549
0.74118	0.31373	0.72941
0.84314	0.32941	0.73725
0.94510	0.34510	0.74118
0.30588	0.33333	0.71765
0.33333	0.33333	0.71765
0.38431	0.33725	0.71765
0.46275	0.34118	0.72157
0.55294	0.34510	0.72549
0.64314	0.35294	0.72549
0.74118	0.36471	0.73333
0.84314	0.37647	0.73725
0.94510	0.39216	0.74510
0.31765	0.41569	0.72157
0.34118	0.41569	0.72157
0.39216	0.41569	0.72157
0.47059	0.41961	0.72549
0.55686	0.42353	0.72941
0.64706	0.43137	0.72941
0.74510	0.43922	0.73333
0.84706	0.45098	0.74118
0.94902	0.46275	0.74902
0.33333	0.50980	0.72549
0.35686	0.50980	0.72549
0.40392	0.51373	0.72941
0.47843	0.51373	0.72941
0.56471	0.51765	0.73333
0.65490	0.52549	0.73725
0.75294	0.52941	0.74118
0.85098	0.53725	0.74510
0.94902	0.54902	0.75294
0.35294	0.61176	0.73333
0.37647	0.61176	0.73333
0.41961	0.61176	0.73333
0.49020	0.61569	0.73725
0.57255	0.61961	0.73725
0.66275	0.62353	0.74118
0.75686	0.62745	0.74510
0.85490	0.63529	0.75294
0.95686	0.64314	0.75686
0.37647	0.72157	0.74118
0.39608	0.72157	0.74118
0.43922	0.72549	0.74118
0.50588	0.72549	0.74510
0.58431	0.72941	0.74902
0.67059	0.73333	0.75294
0.76471	0.73725	0.75686
0.86275	0.74118	0.76078
0.96078	0.74902	0.76863
0.40392	0.83529	0.75294
0.42353	0.83922	0.75294
0.46275	0.83922	0.75294
0.52549	0.83922	0.75686
0.60000	0.84314	0.75686
0.68235	0.84706	0.76078
0.77647	0.84706	0.76471
0.87059	0.85490	0.77255
0.96863	0.85882	0.77647
0.43529	0.95294	0.76471
0.45098	0.95294	0.76471
0.48627	0.95686	0.76863
0.54510	0.95686	0.76863
0.61961	0.95686	0.77255
0.69804	0.96078	0.77255
0.78824	0.96471	0.77647
0.88235	0.96863	0.78431
0.97647	0.97255	0.78824
0.30588	0.25490	0.81961
0.32941	0.25490	0.81961
0.38431	0.25882	0.81961
0.46275	0.26275	0.82353
0.54902	0.27059	0.82353
0.64314	0.28235	0.82745
0.74118	0.29804	0.83137
0.84314	0.31373	0.83529
0.94510	0.32941	0.84314
0.30980	0.28235	0.81961
0.33333	0.28235	0.81961
0.38431	0.28627	0.81961
0.46275	0.29020	0.82353
0.55294	0.29804	0.82353
0.64314	0.30588	0.82745
0.74510	0.31765	0.83137
0.84314	0.33333	0.83529
0.94510	0.34902	0.84314
0.31373	0.33725	0.82353
0.33725	0.33725	0.82353
0.38824	0.34118	0.82353
0.46667	0.34510	0.82353
0.55294	0.35294	0.82745
0.64706	0.36078	0.83137
0.74510	0.36863	0.83529
0.84706	0.38039	0.83922
0.94510	0.39608	0.84314
0.32549	0.41961	0.82353
0.34902	0.41961	0.82353
0.40000	0.41961	0.82745
0.47451	0.42353	0.82745
0.56078	0.42745	0.83137
0.65098	0.43529	0.83137
0.74902	0.44314	0.83529
0.84706	0.45490	0.83922
0.94902	0.46667	0.84706
0.34118	0.51373	0.82745
0.36078	0.51373	0.83137
0.41176	0.51765	0.83137
0.48235	0.51765	0.83137
0.56471	0.52157	0.83529
0.65490	0.52549	0.83529
0.75294	0.53333	0.83922
0.85098	0.54118	0.84706
0.95294	0.55294	0.85098
0.36078	0.61569	0.83529
0.38039	0.61569	0.83529
0.42353	0.61569	0.83529
0.49412	0.61961	0.83922
0.57647	0.62353	0.83922
0.66275	0.62745	0.84314
0.76078	0.63137	0.84706
0.85882	0.63922	0.85098
0.95686	0.64706	0.85490
0.38431	0.72549	0.84314
0.40392	0.72549	0.84314
0.44314	0.72549	0.84314
0.50980	0.72941	0.84314
0.58824	0.72941	0.84706
0.67451	0.73333	0.85098
0.76863	0.73725	0.85490
0.86275	0.74510	0.85882
0.96078	0.75294	0.86275
0.41176	0.83922	0.85098
0.42745	0.83922	0.85098
0.46667	0.83922	0.85098
0.52941	0.84314	0.85490
0.60392	0.84314	0.85490
0.68627	0.84706	0.85882
0.77647	0.85098	0.86275
0.87059	0.85490	0.86667
0.96863	0.86275	0.87059
0.43922	0.95686	0.86275
0.45490	0.95686	0.86275
0.49020	0.95686	0.86275
0.54902	0.95686	0.86275
0.61961	0.96078	0.86667
0.70196	0.96078	0.87059
0.78824	0.96471	0.87451
0.88235	0.96863	0.87843
0.97647	0.97647	0.88235
0.31373	0.26275	0.92549
0.33725	0.26275	0.92549
0.38824	0.26667	0.92549
0.46667	0.27059	0.92941
0.55686	0.28235	0.92941
0.64706	0.29020	0.93333
0.74510	0.30196	0.93333
0.84706	0.31765	0.94118
0.94510	0.33725	0.94510
0.31765	0.28627	0.92549
0.34118	0.29020	0.92549
0.39216	0.29020	0.92549
0.46667	0.29804	0.92941
0.55686	0.30588	0.92941
0.64706	0.31373	0.93333
0.74510	0.32549	0.93725
0.84706	0.34118	0.94118
0.94510	0.35686	0.94510
0.32157	0.34510	0.92549
0.34510	0.34510	0.92941
0.39608	0.34902	0.92941
0.47059	0.35294	0.92941
0.55686	0.35686	0.92941
0.65098	0.36471	0.93333
0.74902	0.37647	0.93725
0.84706	0.38824	0.94118
0.94902	0.40000	0.94510
0.33333	0.42353	0.92941
0.35686	0.42353	0.92941
0.40392	0.42353	0.92941
0.47843	0.42745	0.93333
0.56471	0.43529	0.93333
0.65490	0.43922	0.93725
0.75294	0.44706	0.94118
0.85098	0.45882	0.94118
0.94902	0.47059	0.94902
0.34902	0.51765	0.93333
0.36863	0.51765	0.93333
0.41569	0.52157	0.93333
0.48627	0.52157	0.93725
0.57255	0.52549	0.93725
0.65882	0.52941	0.94118
0.75686	0.53725	0.94118
0.85490	0.54510	0.94510
0.95294	0.55686	0.95294
0.36863	0.61961	0.93725
0.38824	0.61961	0.93725
0.43137	0.61961	0.93725
0.49804	0.62353	0.94118
0.58039	0.62353	0.94118
0.66667	0.62745	0.94510
0.76078	0.63529	0.94902
0.85882	0.64314	0.95294
0.95686	0.65098	0.95686
0.39216	0.72941	0.94510
0.40784	0.72941	0.94510
0.45098	0.72941	0.94510
0.51373	0.72941	0.94510
0.59216	0.73333	0.94902
0.67843	0.73725	0.94902
0.76863	0.74118	0.95294
0.86667	0.74510	0.95686
0.96471	0.75294	0.96078
0.41569	0.84314	0.95294
0.43137	0.84314	0.95294
0.47059	0.84314	0.95294
0.53333	0.84314	0.95294
0.60784	0.84706	0.95686
0.69020	0.84706	0.95686
0.78039	0.85490	0.96078
0.87451	0.85882	0.96471
0.97255	0.86275	0.96863
0.44314	0.95686	0.96078
0.45882	0.95686	0.96078
0.49412	0.95686	0.96078
0.55294	0.96078	0.96471
0.62353	0.96078	0.96471
0.70196	0.96471	0.96863
0.79216	0.96863	0.96863
0.88627	0.97255	0.97255
0.98039	0.97647	0.98039
