LUTGenerator/TEST/CUBE/Warming/softwarming_linear_sRGB.cube
TITLE softwarming_linear_sRGB.cube
LUT_3D_SIZE 5
DOMAIN_MIN 0.0 0.0 0.0
DOMAIN_MAX 1.0 1.0 1.0
0.27843	0.22745	0.25882
0.36471	0.23137	0.26275
0.54118	0.24706	0.27843
0.73725	0.27451	0.30588
0.94118	0.30980	0.34510
0.29020	0.31765	0.27059
0.37255	0.32157	0.27451
0.54510	0.33333	0.29020
0.73725	0.35294	0.31373
0.94118	0.38039	0.34902
0.31765	0.50196	0.29804
0.39216	0.50196	0.30196
0.55686	0.50980	0.31765
0.74510	0.52157	0.34118
0.94902	0.54118	0.37255
0.36471	0.71765	0.34510
0.42745	0.71765	0.34902
0.58039	0.72157	0.36078
0.76078	0.73333	0.38039
0.95686	0.74510	0.40784
0.42353	0.94902	0.40392
0.47843	0.95294	0.40784
0.61176	0.95294	0.41569
0.78431	0.96078	0.43529
0.97255	0.96863	0.45882
0.28235	0.23137	0.34510
0.36471	0.23529	0.34902
0.54118	0.25098	0.36078
0.73725	0.27451	0.38039
0.94118	0.31373	0.40784
0.29020	0.32157	0.35294
0.37255	0.32549	0.35294
0.54510	0.33333	0.36471
0.73725	0.35294	0.38431
0.94118	0.38039	0.41176
0.32157	0.50196	0.37255
0.39216	0.50588	0.37647
0.55686	0.50980	0.38431
0.74902	0.52549	0.40392
0.94902	0.54118	0.43137
0.36471	0.71765	0.40784
0.43137	0.71765	0.41176
0.58039	0.72549	0.41961
0.76078	0.73333	0.43529
0.95686	0.74510	0.46275
0.42353	0.94902	0.45882
0.47843	0.95294	0.46275
0.61176	0.95294	0.46667
0.78431	0.96078	0.48235
0.97255	0.96863	0.50588
0.28627	0.23529	0.51765
0.36863	0.23922	0.51765
0.54118	0.25490	0.52549
0.73725	0.28235	0.53725
0.94118	0.31765	0.55686
0.29804	0.32549	0.52157
0.37647	0.32941	0.52157
0.54902	0.33725	0.52941
0.74118	0.35686	0.54118
0.94118	0.38431	0.56078
0.32549	0.50588	0.53333
0.40000	0.50588	0.53725
0.56078	0.51373	0.54118
0.74902	0.52549	0.55294
0.94902	0.54510	0.57255
0.36863	0.71765	0.55686
0.43529	0.72157	0.56078
0.58039	0.72549	0.56471
0.76471	0.73333	0.57647
0.96078	0.74510	0.59216
0.42745	0.95294	0.59216
0.48235	0.95294	0.59216
0.61569	0.95686	0.60000
0.78431	0.96078	0.60784
0.97647	0.97255	0.62353
0.29804	0.24706	0.71373
0.37647	0.25098	0.71765
0.54902	0.26667	0.72157
0.74118	0.29020	0.72941
0.94510	0.32549	0.74118
0.30588	0.33333	0.71765
0.38431	0.33725	0.71765
0.55294	0.34510	0.72549
0.74118	0.36471	0.73333
0.94510	0.39216	0.74510
0.33333	0.50980	0.72549
0.40392	0.51373	0.72941
0.56471	0.51765	0.73333
0.75294	0.52941	0.74118
0.94902	0.54902	0.75294
0.37647	0.72157	0.74118
0.43922	0.72549	0.74118
0.58431	0.72941	0.74902
0.76471	0.73725	0.75686
0.96078	0.74902	0.76863
0.43529	0.95294	0.76471
0.48627	0.95686	0.76863
0.61961	0.95686	0.77255
0.78824	0.96471	0.77647
0.97647	0.97255	0.78824
0.31373	0.26275	0.92549
0.38824	0.26667	0.92549
0.55686	0.28235	0.92941
0.74510	0.30196	0.93333
0.94510	0.33725	0.94510
0.32157	0.34510	0.92549
0.39608	0.34902	0.92941
0.55686	0.35686	0.92941
0.74902	0.37647	0.93725
0.94902	0.40000	0.94510
0.34902	0.51765	0.93333
0.41569	0.52157	0.93333
0.57255	0.52549	0.93725
0.75686	0.53725	0.94118
0.95294	0.55686	0.95294
0.39216	0.72941	0.94510
0.45098	0.72941	0.94510
0.59216	0.73333	0.94902
0.76863	0.74118	0.95294
0.96471	0.75294	0.96078
0.44314	0.95686	0.96078
0.49412	0.95686	0.96078
0.62353	0.96078	0.96471
0.79216	0.96863	0.96863
0.98039	0.97647	0.98039
