LUTGenerator/TEST/CUBE/Warming/softwarming_linear_sRGB.cube
TITLE softwarming_linear_sRGB.cube
LUT_3D_SIZE 17
DOMAIN_MIN 0.0 0.0 0.0
DOMAIN_MAX 1.0 1.0 1.0
0.27843	0.22745	0.25882
0.29020	0.22745	0.25882
0.30588	0.22745	0.25882
0.33333	0.23137	0.26275
0.36471	0.23137	0.26275
0.40392	0.23529	0.26667
0.44706	0.23922	0.27059
0.49412	0.24314	0.27451
0.54118	0.24706	0.27843
0.58431	0.25490	0.28627
0.63529	0.25882	0.29412
0.68627	0.26667	0.29804
0.73725	0.27451	0.30588
0.78824	0.28235	0.31373
0.83922	0.29020	0.32549
0.89020	0.30196	0.33333
0.94118	0.30980	0.34510
0.27843	0.23922	0.26275
0.29020	0.23922	0.26275
0.30588	0.23922	0.26275
0.33333	0.24314	0.26275
0.36471	0.24314	0.26667
0.40392	0.24706	0.27059
0.44706	0.25098	0.27059
0.49412	0.25490	0.27843
0.54118	0.25882	0.28235
0.58431	0.26275	0.28627
0.63529	0.27059	0.29412
0.68627	0.27451	0.30196
0.73725	0.28235	0.30588
0.78824	0.29020	0.31765
0.83922	0.29804	0.32549
0.89020	0.30980	0.33333
0.94118	0.31765	0.34510
0.28235	0.25882	0.26275
0.29020	0.25882	0.26275
0.30980	0.25882	0.26275
0.33333	0.25882	0.26667
0.36471	0.26275	0.26667
0.40392	0.26275	0.27059
0.44706	0.26667	0.27451
0.49412	0.27059	0.27843
0.54118	0.27451	0.28235
0.58824	0.27843	0.29020
0.63529	0.28627	0.29412
0.68627	0.29020	0.30196
0.73725	0.29804	0.30980
0.78824	0.30588	0.31765
0.83922	0.31373	0.32549
0.89020	0.32157	0.33725
0.94118	0.33333	0.34510
0.28627	0.28235	0.26667
0.29412	0.28627	0.26667
0.30980	0.28627	0.26667
0.33725	0.28627	0.26667
0.36863	0.29020	0.27059
0.40784	0.29020	0.27451
0.45098	0.29412	0.27843
0.49412	0.29804	0.28235
0.54118	0.30196	0.28627
0.58824	0.30588	0.29020
0.63529	0.30980	0.29804
0.68627	0.31765	0.30588
0.73725	0.32157	0.31373
0.78824	0.32941	0.32157
0.83922	0.33725	0.32941
0.89020	0.34510	0.33725
0.94118	0.35294	0.34902
0.29020	0.31765	0.27059
0.29804	0.31765	0.27059
0.31373	0.32157	0.27059
0.33725	0.32157	0.27451
0.37255	0.32157	0.27451
0.40784	0.32549	0.27843
0.45098	0.32549	0.28235
0.49804	0.32941	0.28627
0.54510	0.33333	0.29020
0.58824	0.33725	0.29412
0.63922	0.34118	0.30196
0.68627	0.34510	0.30588
0.73725	0.35294	0.31373
0.78824	0.36078	0.32157
0.83922	0.36471	0.33333
0.89020	0.37255	0.34118
0.94118	0.38039	0.34902
0.29412	0.36078	0.27451
0.30588	0.36078	0.27451
0.32157	0.36078	0.27843
0.34510	0.36078	0.27843
0.37647	0.36078	0.27843
0.41176	0.36471	0.28235
0.45490	0.36471	0.28627
0.49804	0.36863	0.29020
0.54510	0.37255	0.29412
0.59216	0.37647	0.29804
0.63922	0.38039	0.30588
0.69020	0.38431	0.31373
0.74118	0.38824	0.31765
0.78824	0.39608	0.32941
0.83922	0.40000	0.33725
0.89020	0.40784	0.34510
0.94118	0.41569	0.35294
0.30196	0.40392	0.28235
0.30980	0.40392	0.28235
0.32549	0.40392	0.28235
0.34902	0.40392	0.28235
0.38039	0.40784	0.28627
0.41569	0.40784	0.29020
0.45882	0.40784	0.29412
0.50196	0.41176	0.29412
0.54902	0.41569	0.30196
0.59216	0.41569	0.30588
0.64314	0.41961	0.30980
0.69020	0.42353	0.31765
0.74118	0.43137	0.32549
0.79216	0.43529	0.33333
0.84314	0.43922	0.34118
0.89412	0.44706	0.34902
0.94510	0.45098	0.36078
0.30980	0.45098	0.29020
0.31765	0.45098	0.29020
0.33333	0.45098	0.29020
0.35686	0.45098	0.29020
0.38431	0.45490	0.29412
0.42353	0.45490	0.29804
0.46275	0.45490	0.29804
0.50588	0.45882	0.30196
0.55294	0.46275	0.30980
0.59608	0.46275	0.31373
0.64314	0.46667	0.31765
0.69412	0.47059	0.32549
0.74510	0.47451	0.33333
0.79216	0.47843	0.34118
0.84314	0.48235	0.34902
0.89412	0.49020	0.35686
0.94510	0.49412	0.36471
0.31765	0.50196	0.29804
0.32549	0.50196	0.29804
0.34118	0.50196	0.30196
0.36471	0.50196	0.30196
0.39216	0.50196	0.30196
0.42745	0.50588	0.30588
0.47059	0.50588	0.30980
0.50980	0.50980	0.31373
0.55686	0.50980	0.31765
0.60000	0.51373	0.32157
0.64706	0.51765	0.32549
0.69804	0.51765	0.33333
0.74510	0.52157	0.34118
0.79608	0.52549	0.34510
0.84706	0.52941	0.35294
0.89804	0.53725	0.36471
0.94902	0.54118	0.37255
0.32941	0.55294	0.30980
0.33725	0.55294	0.30980
0.34902	0.55294	0.30980
0.37255	0.55294	0.30980
0.40000	0.55294	0.31373
0.43529	0.55294	0.31373
0.47451	0.55686	0.31765
0.51765	0.55686	0.32157
0.56078	0.56078	0.32549
0.60392	0.56078	0.32941
0.65098	0.56471	0.33725
0.70196	0.56863	0.34118
0.74902	0.56863	0.34902
0.80000	0.57255	0.35294
0.84706	0.57647	0.36078
0.89804	0.58039	0.37255
0.94902	0.58824	0.38039
0.33725	0.60392	0.31765
0.34902	0.60392	0.32157
0.36078	0.60392	0.32157
0.38039	0.60784	0.32157
0.40784	0.60784	0.32549
0.44314	0.60784	0.32549
0.48235	0.60784	0.32941
0.52157	0.61176	0.33333
0.56471	0.61176	0.33725
0.60784	0.61569	0.34118
0.65490	0.61569	0.34510
0.70588	0.61961	0.35294
0.75294	0.62353	0.35686
0.80392	0.62745	0.36471
0.85098	0.62745	0.37255
0.90196	0.63529	0.38039
0.95294	0.63922	0.38824
0.35294	0.65882	0.33333
0.36078	0.66275	0.33333
0.37255	0.66275	0.33333
0.39216	0.66275	0.33333
0.41961	0.66275	0.33725
0.45098	0.66275	0.33725
0.49020	0.66275	0.34118
0.52941	0.66667	0.34510
0.57255	0.66667	0.34902
0.61569	0.67059	0.35294
0.66275	0.67059	0.35686
0.70980	0.67451	0.36078
0.75686	0.67451	0.36863
0.80392	0.67843	0.37647
0.85490	0.68235	0.38039
0.90588	0.68627	0.38824
0.95294	0.69020	0.40000
0.36471	0.71765	0.34510
0.37255	0.71765	0.34510
0.38431	0.71765	0.34510
0.40392	0.71765	0.34902
0.42745	0.71765	0.34902
0.45882	0.71765	0.34902
0.49804	0.72157	0.35294
0.53725	0.72157	0.35686
0.58039	0.72157	0.36078
0.61961	0.72549	0.36471
0.66667	0.72549	0.36863
0.71373	0.72941	0.37255
0.76078	0.73333	0.38039
0.80784	0.73333	0.38431
0.85882	0.73725	0.39216
0.90980	0.74118	0.40000
0.95686	0.74510	0.40784
0.38039	0.77647	0.36078
0.38431	0.77647	0.36078
0.39608	0.77647	0.36078
0.41569	0.77647	0.36078
0.43922	0.77647	0.36078
0.47059	0.77647	0.36471
0.50588	0.77647	0.36863
0.54510	0.78039	0.36863
0.58431	0.78039	0.37255
0.62745	0.78039	0.37647
0.67059	0.78431	0.38039
0.71765	0.78431	0.38824
0.76471	0.78824	0.39216
0.81569	0.78824	0.40000
0.86275	0.79216	0.40392
0.90980	0.79608	0.41176
0.96078	0.80000	0.41961
0.39216	0.83137	0.37255
0.40000	0.83137	0.37255
0.41176	0.83137	0.37647
0.42745	0.83137	0.37647
0.45098	0.83529	0.37647
0.48235	0.83529	0.38039
0.51765	0.83529	0.38039
0.55294	0.83529	0.38431
0.59216	0.83922	0.38824
0.63529	0.83922	0.39216
0.67843	0.83922	0.39608
0.72549	0.84314	0.40000
0.77255	0.84314	0.40392
0.81961	0.84706	0.41176
0.86667	0.85098	0.41569
0.91765	0.85098	0.42353
0.96471	0.85490	0.43137
0.40784	0.89020	0.38824
0.41569	0.89020	0.38824
0.42353	0.89020	0.38824
0.44314	0.89020	0.39216
0.46667	0.89412	0.39216
0.49412	0.89412	0.39216
0.52549	0.89412	0.39608
0.56471	0.89412	0.40000
0.60392	0.89412	0.40000
0.64314	0.89804	0.40392
0.68627	0.89804	0.40784
0.72941	0.89804	0.41176
0.77647	0.90196	0.41961
0.82353	0.90588	0.42353
0.87059	0.90588	0.43137
0.92157	0.90980	0.43922
0.96863	0.91373	0.44314
0.42353	0.94902	0.40392
0.43137	0.94902	0.40392
0.43922	0.94902	0.40392
0.45490	0.95294	0.40784
0.47843	0.95294	0.40784
0.50588	0.95294	0.40784
0.53725	0.95294	0.41176
0.57255	0.95294	0.41569
0.61176	0.95294	0.41569
0.65098	0.95686	0.41961
0.69412	0.95686	0.42353
0.73725	0.95686	0.42745
0.78431	0.96078	0.43529
0.83137	0.96078	0.43922
0.87843	0.96471	0.44314
0.92549	0.96863	0.45098
0.97255	0.96863	0.45882
0.27843	0.22745	0.27059
0.29020	0.22745	0.27059
0.30588	0.23137	0.27059
0.33333	0.23137	0.27059
0.36471	0.23137	0.27451
0.40392	0.23529	0.27843
0.44706	0.23922	0.28235
0.49412	0.24314	0.28627
0.54118	0.24706	0.29020
0.58431	0.25490	0.29412
0.63529	0.25882	0.30196
0.68627	0.26667	0.30980
0.73725	0.27451	0.31373
0.78824	0.28235	0.32157
0.83922	0.29020	0.33333
0.89020	0.30196	0.34118
0.94118	0.30980	0.34902
0.28235	0.23922	0.27059
0.29020	0.23922	0.27059
0.30588	0.23922	0.27059
0.33333	0.24314	0.27451
0.36471	0.24314	0.27451
0.40392	0.24706	0.27843
0.44706	0.25098	0.28235
0.49412	0.25490	0.28627
0.54118	0.25882	0.29020
0.58431	0.26275	0.29412
0.63529	0.27059	0.30196
0.68627	0.27451	0.30980
0.73725	0.28235	0.31765
0.78824	0.29020	0.32549
0.83922	0.30196	0.33333
0.89020	0.30980	0.34118
0.94118	0.31765	0.35294
0.28235	0.25882	0.27059
0.29020	0.25882	0.27451
0.30980	0.25882	0.27451
0.33333	0.25882	0.27451
0.36471	0.26275	0.27843
0.40392	0.26275	0.27843
0.44706	0.26667	0.28235
0.49412	0.27059	0.28627
0.54118	0.27451	0.29020
0.58431	0.27843	0.29804
0.63529	0.28627	0.30196
0.68627	0.29020	0.30980
0.73725	0.29804	0.31765
0.78824	0.30588	0.32549
0.83922	0.31373	0.33333
0.89020	0.32157	0.34118
0.94118	0.33333	0.35294
0.28627	0.28627	0.27451
0.29412	0.28627	0.27451
0.30980	0.28627	0.27451
0.33725	0.28627	0.27843
0.36863	0.29020	0.27843
0.40784	0.29020	0.28235
0.45098	0.29412	0.28627
0.49412	0.29804	0.29020
0.54118	0.30196	0.29412
0.58824	0.30588	0.29804
0.63529	0.30980	0.30588
0.68627	0.31765	0.31373
0.73725	0.32157	0.32157
0.78824	0.32941	0.32941
0.83922	0.33725	0.33725
0.89020	0.34510	0.34510
0.94118	0.35294	0.35294
0.29020	0.31765	0.27843
0.29804	0.32157	0.27843
0.31373	0.32157	0.28235
0.34118	0.32157	0.28235
0.37255	0.32157	0.28235
0.40784	0.32549	0.28627
0.45098	0.32549	0.29020
0.49804	0.32941	0.29412
0.54510	0.33333	0.29804
0.58824	0.33725	0.30196
0.63922	0.34118	0.30980
0.68627	0.34510	0.31373
0.73725	0.35294	0.32157
0.78824	0.36078	0.32941
0.83922	0.36471	0.33725
0.89020	0.37255	0.34902
0.94118	0.38039	0.35686
0.29412	0.36078	0.28627
0.30588	0.36078	0.28627
0.32157	0.36078	0.28627
0.34510	0.36078	0.28627
0.37647	0.36078	0.29020
0.41176	0.36471	0.29020
0.45490	0.36471	0.29412
0.50196	0.36863	0.29804
0.54510	0.37255	0.30196
0.59216	0.37647	0.30588
0.63922	0.38039	0.31373
0.69020	0.38431	0.32157
0.74118	0.38824	0.32941
0.78824	0.39608	0.33333
0.83922	0.40000	0.34118
0.89020	0.40784	0.35294
0.94118	0.41569	0.36078
0.30196	0.40392	0.29020
0.30980	0.40392	0.29020
0.32549	0.40392	0.29412
0.34902	0.40392	0.29412
0.38039	0.40392	0.29412
0.41569	0.40784	0.29804
0.45882	0.40784	0.30196
0.50196	0.41176	0.30588
0.54902	0.41569	0.30980
0.59216	0.41961	0.31373
0.64314	0.41961	0.31765
0.69020	0.42353	0.32549
0.74118	0.43137	0.33333
0.79216	0.43529	0.34118
0.84314	0.43922	0.34902
0.89412	0.44706	0.35686
0.94510	0.45098	0.36471
0.30980	0.45098	0.29804
0.31765	0.45098	0.29804
0.33333	0.45098	0.29804
0.35686	0.45098	0.30196
0.38431	0.45490	0.30196
0.42353	0.45490	0.30588
0.46275	0.45490	0.30980
0.50588	0.45882	0.30980
0.55294	0.46275	0.31765
0.59608	0.46275	0.32157
0.64314	0.46667	0.32549
0.69412	0.47059	0.33333
0.74510	0.47451	0.33725
0.79216	0.47843	0.34510
0.84314	0.48627	0.35294
0.89412	0.49020	0.36078
0.94510	0.49412	0.37255
0.31765	0.50196	0.30588
0.32549	0.50196	0.30588
0.34118	0.50196	0.30980
0.36471	0.50196	0.30980
0.39216	0.50196	0.30980
0.42745	0.50588	0.31373
0.47059	0.50588	0.31765
0.50980	0.50980	0.32157
0.55686	0.50980	0.32549
0.60000	0.51373	0.32941
0.64706	0.51765	0.33333
0.69804	0.51765	0.34118
0.74510	0.52157	0.34510
0.79608	0.52549	0.35294
0.84706	0.53333	0.36078
0.89804	0.53725	0.36863
0.94902	0.54118	0.37647
0.32941	0.55294	0.31765
0.33725	0.55294	0.31765
0.34902	0.55294	0.31765
0.37255	0.55294	0.31765
0.40000	0.55294	0.32157
0.43529	0.55294	0.32157
0.47451	0.55686	0.32549
0.51765	0.55686	0.32941
0.56078	0.56078	0.33333
0.60392	0.56078	0.33725
0.65098	0.56471	0.34118
0.70196	0.56471	0.34902
0.74902	0.56863	0.35294
0.80000	0.57255	0.36078
0.84706	0.57647	0.36863
0.89804	0.58431	0.37647
0.94902	0.58824	0.38431
0.34118	0.60392	0.32941
0.34902	0.60392	0.32941
0.36078	0.60784	0.32941
0.38039	0.60784	0.32941
0.40784	0.60784	0.33333
0.44314	0.60784	0.33333
0.48235	0.60784	0.33725
0.52157	0.61176	0.34118
0.56471	0.61176	0.34510
0.60784	0.61569	0.34902
0.65490	0.61569	0.35294
0.70588	0.61961	0.35686
0.75294	0.62353	0.36471
0.80392	0.62745	0.37255
0.85098	0.63137	0.37647
0.90196	0.63529	0.38824
0.95294	0.63922	0.39216
0.35294	0.66275	0.34118
0.36078	0.66275	0.34118
0.37255	0.66275	0.34118
0.39216	0.66275	0.34118
0.41961	0.66275	0.34118
0.45098	0.66275	0.34510
0.49020	0.66275	0.34902
0.52941	0.66667	0.35294
0.57255	0.66667	0.35294
0.61569	0.67059	0.35686
0.66275	0.67059	0.36471
0.70980	0.67451	0.36863
0.75686	0.67451	0.37647
0.80392	0.67843	0.38039
0.85490	0.68235	0.38824
0.90588	0.68627	0.39608
0.95294	0.69020	0.40392
0.36471	0.71765	0.35294
0.37255	0.71765	0.35294
0.38431	0.71765	0.35294
0.40392	0.71765	0.35294
0.42745	0.71765	0.35686
0.45882	0.71765	0.35686
0.49804	0.72157	0.36078
0.53725	0.72157	0.36471
0.58039	0.72157	0.36863
0.61961	0.72549	0.36863
0.66667	0.72549	0.37647
0.71373	0.72941	0.38039
0.76078	0.73333	0.38431
0.80784	0.73333	0.39216
0.85882	0.73725	0.40000
0.90980	0.74118	0.40784
0.95686	0.74510	0.41569
0.38039	0.77647	0.36471
0.38431	0.77647	0.36471
0.39608	0.77647	0.36863
0.41569	0.77647	0.36863
0.43922	0.77647	0.36863
0.47059	0.77647	0.37255
0.50588	0.77647	0.37255
0.54510	0.78039	0.37647
0.58431	0.78039	0.38039
0.62745	0.78039	0.38431
0.67059	0.78431	0.38824
0.71765	0.78431	0.39216
0.76471	0.78824	0.40000
0.81569	0.78824	0.40392
0.86275	0.79216	0.41176
0.91373	0.79608	0.41961
0.96078	0.80000	0.42353
0.39216	0.83137	0.38039
0.40000	0.83137	0.38039
0.41176	0.83137	0.38039
0.42745	0.83529	0.38039
0.45098	0.83529	0.38431
0.48235	0.83529	0.38431
0.51765	0.83529	0.38824
0.55294	0.83529	0.38824
0.59216	0.83922	0.39216
0.63529	0.83922	0.39608
0.67843	0.83922	0.40000
0.72549	0.84314	0.40784
0.77255	0.84314	0.41176
0.81961	0.84706	0.41569
0.86667	0.85098	0.42353
0.91765	0.85098	0.43137
0.96471	0.85490	0.43529
0.40784	0.89020	0.39608
0.41569	0.89020	0.39608
0.42353	0.89020	0.39608
0.44314	0.89020	0.39608
0.46667	0.89412	0.40000
0.49412	0.89412	0.40000
0.52549	0.89412	0.40000
0.56471	0.89412	0.40392
0.60392	0.89412	0.40784
0.64314	0.89804	0.41176
0.68627	0.89804	0.41569
0.72941	0.90196	0.41961
0.77647	0.90196	0.42353
0.82353	0.90588	0.43137
0.87059	0.90588	0.43529
0.92157	0.90980	0.44314
0.96863	0.91373	0.45098
0.42353	0.94902	0.41176
0.43137	0.94902	0.41176
0.43922	0.94902	0.41176
0.45490	0.94902	0.41176
0.47843	0.95294	0.41176
0.50588	0.95294	0.41569
0.53725	0.95294	0.41569
0.57255	0.95294	0.41961
0.61176	0.95294	0.42353
0.65098	0.95686	0.42745
0.69412	0.95686	0.43137
0.73725	0.96078	0.43529
0.78431	0.96078	0.43922
0.83137	0.96471	0.44314
0.87843	0.96471	0.45098
0.92549	0.96863	0.45490
0.97255	0.96863	0.46275
0.27843	0.22745	0.28627
0.29020	0.22745	0.28627
0.30588	0.22745	0.28627
0.33333	0.23137	0.29020
0.36471	0.23137	0.29020
0.40392	0.23529	0.29412
0.44706	0.23922	0.29804
0.49412	0.24314	0.30196
0.54118	0.24706	0.30588
0.58431	0.25490	0.30980
0.63529	0.25882	0.31373
0.68627	0.26667	0.32157
0.73725	0.27451	0.32941
0.78824	0.28235	0.33725
0.83922	0.29020	0.34510
0.89020	0.30196	0.35294
0.94118	0.30980	0.36471
0.28235	0.23922	0.28627
0.29020	0.23922	0.28627
0.30588	0.23922	0.29020
0.33333	0.24314	0.29020
0.36471	0.24314	0.29020
0.40392	0.24706	0.29412
0.44706	0.25098	0.29804
0.49412	0.25490	0.30196
0.54118	0.25882	0.30588
0.58431	0.26275	0.30980
0.63529	0.27059	0.31765
0.68627	0.27451	0.32157
0.73725	0.28235	0.32941
0.78824	0.29020	0.33725
0.83922	0.30196	0.34510
0.89020	0.30980	0.35294
0.94118	0.31765	0.36471
0.28235	0.25882	0.29020
0.29412	0.25882	0.29020
0.30980	0.25882	0.29020
0.33333	0.25882	0.29020
0.36471	0.26275	0.29412
0.40392	0.26275	0.29412
0.44706	0.26667	0.29804
0.49412	0.27059	0.30196
0.54118	0.27451	0.30588
0.58824	0.28235	0.31373
0.63529	0.28627	0.31765
0.68627	0.29412	0.32549
0.73725	0.29804	0.32941
0.78824	0.30588	0.33725
0.83922	0.31373	0.34510
0.89020	0.32157	0.35686
0.94118	0.33333	0.36471
0.28627	0.28627	0.29020
0.29412	0.28627	0.29020
0.30980	0.28627	0.29412
0.33725	0.28627	0.29412
0.36863	0.29020	0.29412
0.40784	0.29020	0.29804
0.45098	0.29412	0.30196
0.49412	0.29804	0.30588
0.54118	0.30196	0.30980
0.58824	0.30588	0.31373
0.63529	0.30980	0.32157
0.68627	0.31765	0.32549
0.73725	0.32157	0.33333
0.78824	0.32941	0.34118
0.83922	0.33725	0.34902
0.89020	0.34510	0.35686
0.94118	0.35294	0.36863
0.29020	0.31765	0.29412
0.29804	0.32157	0.29412
0.31373	0.32157	0.29804
0.34118	0.32157	0.29804
0.37255	0.32157	0.29804
0.40784	0.32549	0.30196
0.45098	0.32549	0.30588
0.49804	0.32941	0.30980
0.54510	0.33333	0.31373
0.58824	0.33725	0.31765
0.63922	0.34118	0.32157
0.69020	0.34902	0.32941
0.73725	0.35294	0.33725
0.78824	0.36078	0.34510
0.83922	0.36471	0.35294
0.89020	0.37255	0.36078
0.94118	0.38039	0.36863
0.29412	0.36078	0.30196
0.30588	0.36078	0.30196
0.32157	0.36078	0.30196
0.34510	0.36078	0.30196
0.37647	0.36078	0.30588
0.41176	0.36471	0.30588
0.45490	0.36471	0.30980
0.50196	0.36863	0.31373
0.54510	0.37255	0.31765
0.59216	0.37647	0.32157
0.63922	0.38039	0.32941
0.69020	0.38431	0.33333
0.74118	0.38824	0.34118
0.78824	0.39608	0.34902
0.83922	0.40000	0.35686
0.89412	0.40784	0.36471
0.94510	0.41569	0.37255
0.30196	0.40392	0.30588
0.30980	0.40392	0.30588
0.32549	0.40392	0.30588
0.34902	0.40392	0.30980
0.38039	0.40784	0.30980
0.41569	0.40784	0.31373
0.45882	0.40784	0.31373
0.50196	0.41176	0.31765
0.54902	0.41569	0.32157
0.59216	0.41961	0.32941
0.64314	0.41961	0.33333
0.69412	0.42745	0.34118
0.74118	0.43137	0.34510
0.79216	0.43529	0.35294
0.84314	0.43922	0.36078
0.89412	0.44706	0.36863
0.94510	0.45098	0.37647
0.30980	0.45098	0.31373
0.31765	0.45098	0.31373
0.33333	0.45098	0.31373
0.35686	0.45098	0.31765
0.38824	0.45490	0.31765
0.42353	0.45490	0.32157
0.46275	0.45490	0.32157
0.50588	0.45882	0.32549
0.55294	0.46275	0.32941
0.59608	0.46275	0.33333
0.64706	0.46667	0.34118
0.69412	0.47059	0.34510
0.74510	0.47451	0.35294
0.79216	0.47843	0.36078
0.84314	0.48627	0.36471
0.89412	0.49020	0.37647
0.94510	0.49412	0.38431
0.31765	0.50196	0.32157
0.32549	0.50196	0.32157
0.34118	0.50196	0.32157
0.36471	0.50196	0.32549
0.39216	0.50588	0.32549
0.42745	0.50588	0.32941
0.47059	0.50588	0.32941
0.51373	0.50980	0.33333
0.55686	0.50980	0.33725
0.60000	0.51373	0.34118
0.64706	0.51765	0.34902
0.69804	0.51765	0.35294
0.74510	0.52157	0.36078
0.79608	0.52549	0.36471
0.84706	0.53333	0.37255
0.89804	0.53725	0.38039
0.94902	0.54118	0.38824
0.32941	0.55294	0.32941
0.33725	0.55294	0.32941
0.34902	0.55294	0.33333
0.37255	0.55294	0.33333
0.40000	0.55294	0.33333
0.43529	0.55294	0.33725
0.47451	0.55686	0.34118
0.51765	0.55686	0.34118
0.56078	0.56078	0.34510
0.60392	0.56078	0.34902
0.65098	0.56471	0.35686
0.70196	0.56471	0.36078
0.74902	0.56863	0.36863
0.80000	0.57255	0.37255
0.84706	0.57647	0.38039
0.89804	0.58039	0.38824
0.94902	0.58824	0.39608
0.34118	0.60392	0.34118
0.34902	0.60392	0.34118
0.36078	0.60392	0.34118
0.38039	0.60784	0.34118
0.40784	0.60784	0.34510
0.44314	0.60784	0.34510
0.48235	0.60784	0.34902
0.52157	0.61176	0.35294
0.56471	0.61176	0.35686
0.60784	0.61569	0.36078
0.65490	0.61569	0.36471
0.70588	0.61961	0.36863
0.75294	0.62353	0.37647
0.80392	0.62745	0.38431
0.85098	0.62745	0.38824
0.90196	0.63529	0.39608
0.95294	0.63922	0.40392
0.35294	0.65882	0.35294
0.36078	0.66275	0.35294
0.37255	0.66275	0.35294
0.39216	0.66275	0.35294
0.41961	0.66275	0.35686
0.45098	0.66275	0.35686
0.49020	0.66275	0.36078
0.52941	0.66667	0.36471
0.57255	0.66667	0.36863
0.61569	0.67059	0.36863
0.66275	0.67059	0.37647
0.70980	0.67451	0.38039
0.75686	0.67451	0.38431
0.80392	0.67843	0.39216
0.85490	0.68235	0.40000
0.90588	0.68627	0.40784
0.95294	0.69020	0.41569
0.36471	0.71765	0.36471
0.37255	0.71765	0.36471
0.38431	0.71765	0.36471
0.40392	0.71765	0.36471
0.42745	0.71765	0.36863
0.46275	0.72157	0.36863
0.49804	0.72157	0.37255
0.53725	0.72157	0.37647
0.58039	0.72157	0.37647
0.61961	0.72549	0.38039
0.66667	0.72549	0.38431
0.71373	0.72941	0.39216
0.76078	0.72941	0.39608
0.80784	0.73333	0.40392
0.85882	0.73725	0.40784
0.90980	0.74118	0.41569
0.95686	0.74510	0.42353
0.38039	0.77647	0.37647
0.38431	0.77647	0.37647
0.39608	0.77647	0.37647
0.41569	0.77647	0.38039
0.43922	0.77647	0.38039
0.47059	0.77647	0.38431
0.50588	0.77647	0.38431
0.54510	0.78039	0.38824
0.58431	0.78039	0.39216
0.62745	0.78039	0.39608
0.67059	0.78431	0.40000
0.71765	0.78431	0.40392
0.76471	0.78824	0.40784
0.81569	0.78824	0.41569
0.86275	0.79216	0.41961
0.90980	0.79608	0.42745
0.96078	0.80000	0.43529
0.39216	0.83137	0.39216
0.40000	0.83137	0.39216
0.41176	0.83137	0.39216
0.42745	0.83529	0.39216
0.45098	0.83529	0.39608
0.48235	0.83529	0.39608
0.51765	0.83529	0.40000
0.55294	0.83529	0.40000
0.59608	0.83922	0.40392
0.63529	0.83922	0.40784
0.67843	0.83922	0.41176
0.72549	0.84314	0.41569
0.77255	0.84314	0.41961
0.81961	0.84706	0.42745
0.86667	0.85098	0.43137
0.91765	0.85098	0.43922
0.96471	0.85490	0.44706
0.40784	0.89020	0.40392
0.41569	0.89020	0.40784
0.42353	0.89020	0.40784
0.44314	0.89020	0.40784
0.46667	0.89412	0.40784
0.49412	0.89412	0.41176
0.52549	0.89412	0.41176
0.56471	0.89412	0.41569
0.60392	0.89412	0.41961
0.64314	0.89804	0.41961
0.68627	0.89804	0.42353
0.72941	0.90196	0.42745
0.77647	0.90196	0.43529
0.82353	0.90588	0.43922
0.87059	0.90588	0.44706
0.92157	0.90980	0.45098
0.96863	0.91373	0.45882
0.42353	0.94902	0.41961
0.43137	0.94902	0.41961
0.43922	0.94902	0.41961
0.45490	0.95294	0.42353
0.47843	0.95294	0.42353
0.50588	0.95294	0.42353
0.53725	0.95294	0.42745
0.57255	0.95294	0.43137
0.61176	0.95294	0.43137
0.65098	0.95686	0.43529
0.69412	0.95686	0.43922
0.73725	0.96078	0.44314
0.78431	0.96078	0.44706
0.83137	0.96078	0.45490
0.87843	0.96471	0.45882
0.92549	0.96863	0.46667
0.97255	0.96863	0.47059
0.28235	0.22745	0.30980
0.29020	0.22745	0.31373
0.30588	0.23137	0.31373
0.33333	0.23137	0.31373
0.36471	0.23529	0.31373
0.40392	0.23529	0.31765
0.44706	0.23922	0.32157
0.49412	0.24314	0.32549
0.54118	0.25098	0.32941
0.58431	0.25490	0.33333
0.63529	0.25882	0.33725
0.68627	0.26667	0.34510
0.73725	0.27451	0.34902
0.78824	0.28235	0.35686
0.83922	0.29412	0.36471
0.89020	0.30196	0.37255
0.94118	0.30980	0.38039
0.28235	0.23922	0.31373
0.29020	0.23922	0.31373
0.30980	0.24314	0.31373
0.33333	0.24314	0.31373
0.36471	0.24314	0.31765
0.40392	0.24706	0.31765
0.44706	0.25098	0.32157
0.49412	0.25490	0.32549
0.54118	0.25882	0.32941
0.58824	0.26275	0.33333
0.63529	0.27059	0.33725
0.68627	0.27843	0.34510
0.73725	0.28627	0.35294
0.78824	0.29412	0.35686
0.83922	0.30196	0.36471
0.89020	0.30980	0.37255
