LUTGenerator/TEST/CUBE/BlackAndWhite/LabLightness_sRGB.cube
TITLE LabLightness_17_10.cube
LUT_3D_SIZE 5
DOMAIN_MIN 0.0 0.0 0.0
DOMAIN_MAX 1.0 1.0 1.0
0.00000	0.00000	0.00000
0.14510	0.14510	0.14510
0.34510	0.34510	0.34510
0.49412	0.49412	0.49412
0.62353	0.62353	0.62353
0.30588	0.30588	0.30588
0.34510	0.34510	0.34510
0.43922	0.43922	0.43922
0.54510	0.54510	0.54510
0.65490	0.65490	0.65490
0.54902	0.54902	0.54902
0.56471	0.56471	0.56471
0.60392	0.60392	0.60392
0.66667	0.66667	0.66667
0.74118	0.74118	0.74118
0.74118	0.74118	0.74118
0.74510	0.74510	0.74510
0.76863	0.76863	0.76863
0.80392	0.80392	0.80392
0.85490	0.85490	0.85490
0.90588	0.90588	0.90588
0.90980	0.90980	0.90980
0.92549	0.92549	0.92549
0.94510	0.94510	0.94510
0.98039	0.98039	0.98039
0.02745	0.02745	0.02745
0.17647	0.17647	0.17647
0.35294	0.35294	0.35294
0.49804	0.49804	0.49804
0.62745	0.62745	0.62745
0.31765	0.31765	0.31765
0.35686	0.35686	0.35686
0.44314	0.44314	0.44314
0.54902	0.54902	0.54902
0.65882	0.65882	0.65882
0.55294	0.55294	0.55294
0.56863	0.56863	0.56863
0.60784	0.60784	0.60784
0.66667	0.66667	0.66667
0.74510	0.74510	0.74510
0.74118	0.74118	0.74118
0.74902	0.74902	0.74902
0.76863	0.76863	0.76863
0.80784	0.80784	0.80784
0.85882	0.85882	0.85882
0.90588	0.90588	0.90588
0.90980	0.90980	0.90980
0.92549	0.92549	0.92549
0.94902	0.94902	0.94902
0.98431	0.98431	0.98431
0.16471	0.16471	0.16471
0.24706	0.24706	0.24706
0.38431	0.38431	0.38431
0.51373	0.51373	0.51373
0.63529	0.63529	0.63529
0.34902	0.34902	0.34902
0.38431	0.38431	0.38431
0.46275	0.46275	0.46275
0.56471	0.56471	0.56471
0.66667	0.66667	0.66667
0.56471	0.56471	0.56471
0.58039	0.58039	0.58039
0.61569	0.61569	0.61569
0.67451	0.67451	0.67451
0.74902	0.74902	0.74902
0.74902	0.74902	0.74902
0.75294	0.75294	0.75294
0.77647	0.77647	0.77647
0.81176	0.81176	0.81176
0.86275	0.86275	0.86275
0.90980	0.90980	0.90980
0.91373	0.91373	0.91373
0.92941	0.92941	0.92941
0.95294	0.95294	0.95294
0.98431	0.98431	0.98431
0.28235	0.28235	0.28235
0.32941	0.32941	0.32941
0.42745	0.42745	0.42745
0.54118	0.54118	0.54118
0.65098	0.65098	0.65098
0.40000	0.40000	0.40000
0.42745	0.42745	0.42745
0.49412	0.49412	0.49412
0.58431	0.58431	0.58431
0.68235	0.68235	0.68235
0.58824	0.58824	0.58824
0.60000	0.60000	0.60000
0.63529	0.63529	0.63529
0.69020	0.69020	0.69020
0.76078	0.76078	0.76078
0.75686	0.75686	0.75686
0.76471	0.76471	0.76471
0.78431	0.78431	0.78431
0.81961	0.81961	0.81961
0.87059	0.87059	0.87059
0.91765	0.91765	0.91765
0.92157	0.92157	0.92157
0.93333	0.93333	0.93333
0.95686	0.95686	0.95686
0.99216	0.99216	0.99216
0.38039	0.38039	0.38039
0.41176	0.41176	0.41176
0.48235	0.48235	0.48235
0.57647	0.57647	0.57647
0.67451	0.67451	0.67451
0.46275	0.46275	0.46275
0.48235	0.48235	0.48235
0.53725	0.53725	0.53725
0.61569	0.61569	0.61569
0.70196	0.70196	0.70196
0.61569	0.61569	0.61569
0.62745	0.62745	0.62745
0.65882	0.65882	0.65882
0.70980	0.70980	0.70980
0.77647	0.77647	0.77647
0.77647	0.77647	0.77647
0.78039	0.78039	0.78039
0.80000	0.80000	0.80000
0.83529	0.83529	0.83529
0.88235	0.88235	0.88235
0.92941	0.92941	0.92941
0.93333	0.93333	0.93333
0.94510	0.94510	0.94510
0.96863	0.96863	0.96863
1.00000	1.00000	1.00000
