LUTGenerator/TEST/CUBE/BlackAndWhite/LabLightness_sRGB.cube
TITLE LabLightness_17_10.cube
LUT_3D_SIZE 9
DOMAIN_MIN 0.0 0.0 0.0
DOMAIN_MAX 1.0 1.0 1.0
0.00000	0.00000	0.00000
0.02745	0.02745	0.02745
0.14510	0.14510	0.14510
0.25490	0.25490	0.25490
0.34510	0.34510	0.34510
0.41961	0.41961	0.41961
0.49412	0.49412	0.49412
0.56078	0.56078	0.56078
0.62353	0.62353	0.62353
0.13333	0.13333	0.13333
0.16863	0.16863	0.16863
0.23137	0.23137	0.23137
0.30196	0.30196	0.30196
0.37647	0.37647	0.37647
0.44314	0.44314	0.44314
0.50980	0.50980	0.50980
0.57255	0.57255	0.57255
0.63137	0.63137	0.63137
0.30588	0.30588	0.30588
0.31765	0.31765	0.31765
0.34510	0.34510	0.34510
0.38824	0.38824	0.38824
0.43922	0.43922	0.43922
0.49020	0.49020	0.49020
0.54510	0.54510	0.54510
0.60000	0.60000	0.60000
0.65490	0.65490	0.65490
0.43529	0.43529	0.43529
0.44314	0.44314	0.44314
0.45882	0.45882	0.45882
0.48627	0.48627	0.48627
0.51765	0.51765	0.51765
0.55686	0.55686	0.55686
0.60000	0.60000	0.60000
0.64706	0.64706	0.64706
0.69412	0.69412	0.69412
0.54902	0.54902	0.54902
0.55294	0.55294	0.55294
0.56471	0.56471	0.56471
0.58039	0.58039	0.58039
0.60392	0.60392	0.60392
0.63137	0.63137	0.63137
0.66667	0.66667	0.66667
0.70196	0.70196	0.70196
0.74118	0.74118	0.74118
0.64706	0.64706	0.64706
0.65098	0.65098	0.65098
0.65490	0.65490	0.65490
0.66667	0.66667	0.66667
0.68627	0.68627	0.68627
0.70588	0.70588	0.70588
0.73333	0.73333	0.73333
0.76471	0.76471	0.76471
0.79608	0.79608	0.79608
0.74118	0.74118	0.74118
0.74118	0.74118	0.74118
0.74510	0.74510	0.74510
0.75686	0.75686	0.75686
0.76863	0.76863	0.76863
0.78431	0.78431	0.78431
0.80392	0.80392	0.80392
0.82745	0.82745	0.82745
0.85490	0.85490	0.85490
0.82353	0.82353	0.82353
0.82745	0.82745	0.82745
0.83137	0.83137	0.83137
0.83529	0.83529	0.83529
0.84706	0.84706	0.84706
0.85882	0.85882	0.85882
0.87843	0.87843	0.87843
0.89412	0.89412	0.89412
0.91765	0.91765	0.91765
0.90588	0.90588	0.90588
0.90588	0.90588	0.90588
0.90980	0.90980	0.90980
0.91373	0.91373	0.91373
0.92549	0.92549	0.92549
0.93333	0.93333	0.93333
0.94510	0.94510	0.94510
0.96471	0.96471	0.96471
0.98039	0.98039	0.98039
0.00784	0.00784	0.00784
0.04314	0.04314	0.04314
0.15686	0.15686	0.15686
0.25882	0.25882	0.25882
0.34902	0.34902	0.34902
0.42353	0.42353	0.42353
0.49412	0.49412	0.49412
0.56078	0.56078	0.56078
0.62353	0.62353	0.62353
0.14510	0.14510	0.14510
0.17647	0.17647	0.17647
0.23529	0.23529	0.23529
0.30588	0.30588	0.30588
0.37647	0.37647	0.37647
0.44706	0.44706	0.44706
0.50980	0.50980	0.50980
0.57255	0.57255	0.57255
0.63529	0.63529	0.63529
0.30588	0.30588	0.30588
0.32157	0.32157	0.32157
0.34902	0.34902	0.34902
0.38824	0.38824	0.38824
0.43922	0.43922	0.43922
0.49412	0.49412	0.49412
0.54902	0.54902	0.54902
0.60392	0.60392	0.60392
0.65490	0.65490	0.65490
0.43922	0.43922	0.43922
0.44314	0.44314	0.44314
0.45882	0.45882	0.45882
0.48627	0.48627	0.48627
0.51765	0.51765	0.51765
0.55686	0.55686	0.55686
0.60000	0.60000	0.60000
0.64706	0.64706	0.64706
0.69412	0.69412	0.69412
0.54902	0.54902	0.54902
0.55294	0.55294	0.55294
0.56471	0.56471	0.56471
0.58039	0.58039	0.58039
0.60392	0.60392	0.60392
0.63137	0.63137	0.63137
0.66667	0.66667	0.66667
0.70196	0.70196	0.70196
0.74118	0.74118	0.74118
0.64706	0.64706	0.64706
0.65098	0.65098	0.65098
0.65882	0.65882	0.65882
0.67059	0.67059	0.67059
0.68627	0.68627	0.68627
0.70588	0.70588	0.70588
0.73333	0.73333	0.73333
0.76471	0.76471	0.76471
0.79608	0.79608	0.79608
0.74118	0.74118	0.74118
0.74118	0.74118	0.74118
0.74510	0.74510	0.74510
0.75686	0.75686	0.75686
0.76863	0.76863	0.76863
0.78431	0.78431	0.78431
0.80392	0.80392	0.80392
0.82745	0.82745	0.82745
0.85490	0.85490	0.85490
0.82353	0.82353	0.82353
0.82745	0.82745	0.82745
0.83137	0.83137	0.83137
0.83922	0.83922	0.83922
0.84706	0.84706	0.84706
0.85882	0.85882	0.85882
0.87843	0.87843	0.87843
0.89804	0.89804	0.89804
0.91765	0.91765	0.91765
0.90588	0.90588	0.90588
0.90588	0.90588	0.90588
0.90980	0.90980	0.90980
0.91765	0.91765	0.91765
0.92157	0.92157	0.92157
0.93333	0.93333	0.93333
0.94902	0.94902	0.94902
0.96471	0.96471	0.96471
0.98039	0.98039	0.98039
0.02745	0.02745	0.02745
0.07843	0.07843	0.07843
0.17647	0.17647	0.17647
0.27059	0.27059	0.27059
0.35294	0.35294	0.35294
0.42745	0.42745	0.42745
0.49804	0.49804	0.49804
0.56471	0.56471	0.56471
0.62745	0.62745	0.62745
0.16863	0.16863	0.16863
0.19216	0.19216	0.19216
0.24706	0.24706	0.24706
0.31373	0.31373	0.31373
0.38431	0.38431	0.38431
0.45098	0.45098	0.45098
0.51373	0.51373	0.51373
0.57647	0.57647	0.57647
0.63529	0.63529	0.63529
0.31765	0.31765	0.31765
0.32941	0.32941	0.32941
0.35686	0.35686	0.35686
0.39608	0.39608	0.39608
0.44314	0.44314	0.44314
0.49412	0.49412	0.49412
0.54902	0.54902	0.54902
0.60392	0.60392	0.60392
0.65882	0.65882	0.65882
0.44314	0.44314	0.44314
0.45098	0.45098	0.45098
0.46275	0.46275	0.46275
0.49020	0.49020	0.49020
0.52157	0.52157	0.52157
0.56078	0.56078	0.56078
0.60392	0.60392	0.60392
0.65098	0.65098	0.65098
0.69412	0.69412	0.69412
0.55294	0.55294	0.55294
0.55686	0.55686	0.55686
0.56863	0.56863	0.56863
0.58431	0.58431	0.58431
0.60784	0.60784	0.60784
0.63529	0.63529	0.63529
0.66667	0.66667	0.66667
0.70588	0.70588	0.70588
0.74510	0.74510	0.74510
0.65098	0.65098	0.65098
0.65098	0.65098	0.65098
0.65882	0.65882	0.65882
0.67059	0.67059	0.67059
0.68627	0.68627	0.68627
0.70980	0.70980	0.70980
0.73333	0.73333	0.73333
0.76471	0.76471	0.76471
0.79608	0.79608	0.79608
0.74118	0.74118	0.74118
0.74118	0.74118	0.74118
0.74902	0.74902	0.74902
0.75686	0.75686	0.75686
0.76863	0.76863	0.76863
0.78431	0.78431	0.78431
0.80784	0.80784	0.80784
0.83137	0.83137	0.83137
0.85882	0.85882	0.85882
0.82745	0.82745	0.82745
0.82745	0.82745	0.82745
0.83137	0.83137	0.83137
0.83922	0.83922	0.83922
0.84706	0.84706	0.84706
0.86275	0.86275	0.86275
0.87843	0.87843	0.87843
0.89804	0.89804	0.89804
0.91765	0.91765	0.91765
0.90588	0.90588	0.90588
0.90588	0.90588	0.90588
0.90980	0.90980	0.90980
0.91765	0.91765	0.91765
0.92549	0.92549	0.92549
0.93333	0.93333	0.93333
0.94902	0.94902	0.94902
0.96471	0.96471	0.96471
0.98431	0.98431	0.98431
0.09020	0.09020	0.09020
0.13333	0.13333	0.13333
0.20784	0.20784	0.20784
0.29020	0.29020	0.29020
0.36471	0.36471	0.36471
0.43529	0.43529	0.43529
0.50588	0.50588	0.50588
0.56863	0.56863	0.56863
0.63137	0.63137	0.63137
0.20000	0.20000	0.20000
0.22353	0.22353	0.22353
0.27059	0.27059	0.27059
0.32941	0.32941	0.32941
0.39608	0.39608	0.39608
0.45882	0.45882	0.45882
0.52157	0.52157	0.52157
0.58039	0.58039	0.58039
0.63922	0.63922	0.63922
0.32941	0.32941	0.32941
0.34118	0.34118	0.34118
0.36863	0.36863	0.36863
0.40392	0.40392	0.40392
0.45098	0.45098	0.45098
0.50196	0.50196	0.50196
0.55686	0.55686	0.55686
0.60784	0.60784	0.60784
0.66275	0.66275	0.66275
0.45098	0.45098	0.45098
0.45490	0.45490	0.45490
0.47059	0.47059	0.47059
0.49412	0.49412	0.49412
0.52941	0.52941	0.52941
0.56471	0.56471	0.56471
0.60784	0.60784	0.60784
0.65098	0.65098	0.65098
0.69804	0.69804	0.69804
0.55686	0.55686	0.55686
0.56078	0.56078	0.56078
0.57255	0.57255	0.57255
0.58824	0.58824	0.58824
0.61176	0.61176	0.61176
0.63922	0.63922	0.63922
0.67059	0.67059	0.67059
0.70588	0.70588	0.70588
0.74510	0.74510	0.74510
0.65098	0.65098	0.65098
0.65490	0.65490	0.65490
0.66275	0.66275	0.66275
0.67451	0.67451	0.67451
0.69020	0.69020	0.69020
0.71373	0.71373	0.71373
0.73725	0.73725	0.73725
0.76863	0.76863	0.76863
0.80000	0.80000	0.80000
0.74510	0.74510	0.74510
0.74510	0.74510	0.74510
0.74902	0.74902	0.74902
0.76078	0.76078	0.76078
0.77255	0.77255	0.77255
0.78824	0.78824	0.78824
0.80784	0.80784	0.80784
0.83137	0.83137	0.83137
0.85882	0.85882	0.85882
0.82745	0.82745	0.82745
0.83137	0.83137	0.83137
0.83529	0.83529	0.83529
0.83922	0.83922	0.83922
0.85098	0.85098	0.85098
0.86275	0.86275	0.86275
0.87843	0.87843	0.87843
0.89804	0.89804	0.89804
0.92157	0.92157	0.92157
0.90980	0.90980	0.90980
0.90980	0.90980	0.90980
0.91373	0.91373	0.91373
0.91765	0.91765	0.91765
0.92549	0.92549	0.92549
0.93725	0.93725	0.93725
0.94902	0.94902	0.94902
0.96471	0.96471	0.96471
0.98431	0.98431	0.98431
0.16471	0.16471	0.16471
0.19216	0.19216	0.19216
0.24706	0.24706	0.24706
0.31373	0.31373	0.31373
0.38431	0.38431	0.38431
0.44706	0.44706	0.44706
0.51373	0.51373	0.51373
0.57647	0.57647	0.57647
0.63529	0.63529	0.63529
0.23922	0.23922	0.23922
0.25882	0.25882	0.25882
0.29804	0.29804	0.29804
0.34902	0.34902	0.34902
0.40784	0.40784	0.40784
0.46667	0.46667	0.46667
0.52941	0.52941	0.52941
0.58824	0.58824	0.58824
0.64314	0.64314	0.64314
0.34902	0.34902	0.34902
0.36078	0.36078	0.36078
0.38431	0.38431	0.38431
0.41961	0.41961	0.41961
0.46275	0.46275	0.46275
0.50980	0.50980	0.50980
0.56471	0.56471	0.56471
0.61569	0.61569	0.61569
0.66667	0.66667	0.66667
0.46275	0.46275	0.46275
0.46667	0.46667	0.46667
0.48235	0.48235	0.48235
0.50588	0.50588	0.50588
0.53725	0.53725	0.53725
0.57255	0.57255	0.57255
0.61569	0.61569	0.61569
0.65882	0.65882	0.65882
0.70196	0.70196	0.70196
0.56471	0.56471	0.56471
0.56863	0.56863	0.56863
0.58039	0.58039	0.58039
0.59216	0.59216	0.59216
0.61569	0.61569	0.61569
0.64314	0.64314	0.64314
0.67451	0.67451	0.67451
0.70980	0.70980	0.70980
0.74902	0.74902	0.74902
0.65882	0.65882	0.65882
0.65882	0.65882	0.65882
0.66667	0.66667	0.66667
0.67843	0.67843	0.67843
0.69412	0.69412	0.69412
0.71765	0.71765	0.71765
0.74118	0.74118	0.74118
0.76863	0.76863	0.76863
0.80392	0.80392	0.80392
0.74902	0.74902	0.74902
0.74902	0.74902	0.74902
0.75294	0.75294	0.75294
0.76471	0.76471	0.76471
0.77647	0.77647	0.77647
0.79216	0.79216	0.79216
0.81176	0.81176	0.81176
0.83529	0.83529	0.83529
0.86275	0.86275	0.86275
0.83137	0.83137	0.83137
0.83137	0.83137	0.83137
0.83529	0.83529	0.83529
0.84314	0.84314	0.84314
0.85490	0.85490	0.85490
0.86667	0.86667	0.86667
0.88235	0.88235	0.88235
0.90196	0.90196	0.90196
0.92157	0.92157	0.92157
0.90980	0.90980	0.90980
0.90980	0.90980	0.90980
0.91373	0.91373	0.91373
0.92157	0.92157	0.92157
0.92941	0.92941	0.92941
0.93725	0.93725	0.93725
0.95294	0.95294	0.95294
0.96863	0.96863	0.96863
0.98431	0.98431	0.98431
0.22353	0.22353	0.22353
0.24314	0.24314	0.24314
0.28627	0.28627	0.28627
0.34118	0.34118	0.34118
0.40392	0.40392	0.40392
0.46275	0.46275	0.46275
0.52549	0.52549	0.52549
0.58431	0.58431	0.58431
0.64314	0.64314	0.64314
0.28235	0.28235	0.28235
0.29412	0.29412	0.29412
0.32549	0.32549	0.32549
0.37255	0.37255	0.37255
0.42745	0.42745	0.42745
0.48235	0.48235	0.48235
0.54118	0.54118	0.54118
0.59608	0.59608	0.59608
0.65098	0.65098	0.65098
0.37255	0.37255	0.37255
0.38431	0.38431	0.38431
0.40392	0.40392	0.40392
0.43529	0.43529	0.43529
0.47843	0.47843	0.47843
0.52157	0.52157	0.52157
0.57255	0.57255	0.57255
0.62353	0.62353	0.62353
0.67451	0.67451	0.67451
0.47451	0.47451	0.47451
0.48235	0.48235	0.48235
0.49412	0.49412	0.49412
0.51765	0.51765	0.51765
0.54510	0.54510	0.54510
0.58039	0.58039	0.58039
0.62353	0.62353	0.62353
0.66275	0.66275	0.66275
0.70980	0.70980	0.70980
0.57255	0.57255	0.57255
0.57647	0.57647	0.57647
0.58824	0.58824	0.58824
0.60392	0.60392	0.60392
0.62353	0.62353	0.62353
0.65098	0.65098	0.65098
0.68235	0.68235	0.68235
0.71765	0.71765	0.71765
0.75294	0.75294	0.75294
0.66667	0.66667	0.66667
0.66667	0.66667	0.66667
0.67451	0.67451	0.67451
0.68627	0.68627	0.68627
0.70196	0.70196	0.70196
0.72157	0.72157	0.72157
0.74510	0.74510	0.74510
0.77647	0.77647	0.77647
0.80784	0.80784	0.80784
0.75294	0.75294	0.75294
0.75294	0.75294	0.75294
0.76078	0.76078	0.76078
0.76863	0.76863	0.76863
0.78039	0.78039	0.78039
0.79608	0.79608	0.79608
0.81569	0.81569	0.81569
0.83922	0.83922	0.83922
0.86667	0.86667	0.86667
0.83529	0.83529	0.83529
0.83529	0.83529	0.83529
0.83922	0.83922	0.83922
0.84706	0.84706	0.84706
0.85490	0.85490	0.85490
0.87059	0.87059	0.87059
0.88627	0.88627	0.88627
0.90588	0.90588	0.90588
0.92549	0.92549	0.92549
0.91373	0.91373	0.91373
0.91373	0.91373	0.91373
0.91765	0.91765	0.91765
0.92157	0.92157	0.92157
0.92941	0.92941	0.92941
0.94118	0.94118	0.94118
0.95294	0.95294	0.95294
0.96863	0.96863	0.96863
0.98824	0.98824	0.98824
0.28235	0.28235	0.28235
0.29804	0.29804	0.29804
0.32941	0.32941	0.32941
0.37255	0.37255	0.37255
0.42745	0.42745	0.42745
0.48235	0.48235	0.48235
0.54118	0.54118	0.54118
0.59608	0.59608	0.59608
0.65098	0.65098	0.65098
0.32549	0.32549	0.32549
0.33333	0.33333	0.33333
0.36078	0.36078	0.36078
0.40000	0.40000	0.40000
0.44706	0.44706	0.44706
0.49804	0.49804	0.49804
0.55294	0.55294	0.55294
0.60784	0.60784	0.60784
0.65882	0.65882	0.65882
0.40000	0.40000	0.40000
0.40784	0.40784	0.40784
0.42745	0.42745	0.42745
0.45490	0.45490	0.45490
0.49412	0.49412	0.49412
0.53725	0.53725	0.53725
0.58431	0.58431	0.58431
0.63137	0.63137	0.63137
0.68235	0.68235	0.68235
0.49412	0.49412	0.49412
0.49804	0.49804	0.49804
0.50980	0.50980	0.50980
0.53333	0.53333	0.53333
0.56078	0.56078	0.56078
0.59216	0.59216	0.59216
0.63137	0.63137	0.63137
0.67451	0.67451	0.67451
0.71765	0.71765	0.71765
0.58824	0.58824	0.58824
0.58824	0.58824	0.58824
0.60000	0.60000	0.60000
0.61176	0.61176	0.61176
0.63529	0.63529	0.63529
0.65882	0.65882	0.65882
0.69020	0.69020	0.69020
0.72549	0.72549	0.72549
0.76078	0.76078	0.76078
0.67451	0.67451	0.67451
0.67451	0.67451	0.67451
0.68235	0.68235	0.68235
0.69412	0.69412	0.69412
0.70980	0.70980	0.70980
0.72941	0.72941	0.72941
0.75294	0.75294	0.75294
0.78039	0.78039	0.78039
0.81176	0.81176	0.81176
0.75686	0.75686	0.75686
0.76078	0.76078	0.76078
0.76471	0.76471	0.76471
0.77255	0.77255	0.77255
0.78431	0.78431	0.78431
0.80000	0.80000	0.80000
0.81961	0.81961	0.81961
0.84314	0.84314	0.84314
0.87059	0.87059	0.87059
0.83922	0.83922	0.83922
0.84314	0.84314	0.84314
0.84314	0.84314	0.84314
0.85098	0.85098	0.85098
0.86275	0.86275	0.86275
0.87451	0.87451	0.87451
0.89020	0.89020	0.89020
0.90980	0.90980	0.90980
0.92941	0.92941	0.92941
0.91765	0.91765	0.91765
0.91765	0.91765	0.91765
0.92157	0.92157	0.92157
0.92549	0.92549	0.92549
0.93333	0.93333	0.93333
0.94510	0.94510	0.94510
0.95686	0.95686	0.95686
0.97255	0.97255	0.97255
0.99216	0.99216	0.99216
0.33333	0.33333	0.33333
0.34510	0.34510	0.34510
0.36863	0.36863	0.36863
0.40784	0.40784	0.40784
0.45490	0.45490	0.45490
0.50196	0.50196	0.50196
0.55686	0.55686	0.55686
0.61176	0.61176	0.61176
0.66275	0.66275	0.66275
0.36471	0.36471	0.36471
0.37647	0.37647	0.37647
0.39608	0.39608	0.39608
0.43137	0.43137	0.43137
0.47451	0.47451	0.47451
0.51765	0.51765	0.51765
0.56863	0.56863	0.56863
0.61961	0.61961	0.61961
0.67059	0.67059	0.67059
0.43137	0.43137	0.43137
0.43922	0.43922	0.43922
0.45490	0.45490	0.45490
0.47843	0.47843	0.47843
0.51373	0.51373	0.51373
0.55294	0.55294	0.55294
0.60000	0.60000	0.60000
0.64314	0.64314	0.64314
0.69020	0.69020	0.69020
0.51373	0.51373	0.51373
0.51765	0.51765	0.51765
0.52941	0.52941	0.52941
0.54902	0.54902	0.54902
0.57647	0.57647	0.57647
0.60784	0.60784	0.60784
0.64314	0.64314	0.64314
0.68235	0.68235	0.68235
0.72549	0.72549	0.72549
0.60000	0.60000	0.60000
0.60392	0.60392	0.60392
0.61176	0.61176	0.61176
0.62745	0.62745	0.62745
0.64706	0.64706	0.64706
0.67059	0.67059	0.67059
0.69804	0.69804	0.69804
0.73333	0.73333	0.73333
0.76863	0.76863	0.76863
0.68235	0.68235	0.68235
0.68627	0.68627	0.68627
0.69020	0.69020	0.69020
0.70196	0.70196	0.70196
0.71765	0.71765	0.71765
0.73725	0.73725	0.73725
0.76078	0.76078	0.76078
0.78824	0.78824	0.78824
0.81961	0.81961	0.81961
0.76471	0.76471	0.76471
0.76863	0.76863	0.76863
0.77255	0.77255	0.77255
0.78039	0.78039	0.78039
0.79216	0.79216	0.79216
0.80784	0.80784	0.80784
0.82745	0.82745	0.82745
0.85098	0.85098	0.85098
0.87451	0.87451	0.87451
0.84706	0.84706	0.84706
0.84706	0.84706	0.84706
0.85098	0.85098	0.85098
0.85882	0.85882	0.85882
0.86667	0.86667	0.86667
0.87843	0.87843	0.87843
0.89412	0.89412	0.89412
0.91373	0.91373	0.91373
0.93333	0.93333	0.93333
0.92157	0.92157	0.92157
0.92157	0.92157	0.92157
0.92549	0.92549	0.92549
0.93333	0.93333	0.93333
0.93725	0.93725	0.93725
0.94902	0.94902	0.94902
0.96078	0.96078	0.96078
0.97647	0.97647	0.97647
0.99608	0.99608	0.99608
0.38039	0.38039	0.38039
0.39216	0.39216	0.39216
0.41176	0.41176	0.41176
0.44314	0.44314	0.44314
0.48235	0.48235	0.48235
0.52549	0.52549	0.52549
0.57647	0.57647	0.57647
0.62353	0.62353	0.62353
0.67451	0.67451	0.67451
0.40784	0.40784	0.40784
0.41569	0.41569	0.41569
0.43137	0.43137	0.43137
0.46275	0.46275	0.46275
0.49804	0.49804	0.49804
0.54118	0.54118	0.54118
0.58824	0.58824	0.58824
0.63529	0.63529	0.63529
0.68235	0.68235	0.68235
0.46275	0.46275	0.46275
0.46667	0.46667	0.46667
0.48235	0.48235	0.48235
0.50588	0.50588	0.50588
0.53725	0.53725	0.53725
0.57255	0.57255	0.57255
0.61569	0.61569	0.61569
0.65882	0.65882	0.65882
0.70196	0.70196	0.70196
0.53725	0.53725	0.53725
0.54118	0.54118	0.54118
0.54902	0.54902	0.54902
0.56863	0.56863	0.56863
0.59216	0.59216	0.59216
0.62353	0.62353	0.62353
0.65882	0.65882	0.65882
0.69412	0.69412	0.69412
0.73333	0.73333	0.73333
0.61569	0.61569	0.61569
0.61961	0.61961	0.61961
0.62745	0.62745	0.62745
0.63922	0.63922	0.63922
0.65882	0.65882	0.65882
0.68235	0.68235	0.68235
0.70980	0.70980	0.70980
0.74118	0.74118	0.74118
0.77647	0.77647	0.77647
0.69412	0.69412	0.69412
0.69804	0.69804	0.69804
0.70196	0.70196	0.70196
0.71373	0.71373	0.71373
0.72941	0.72941	0.72941
0.74510	0.74510	0.74510
0.76863	0.76863	0.76863
0.79608	0.79608	0.79608
0.82745	0.82745	0.82745
0.77647	0.77647	0.77647
0.77647	0.77647	0.77647
0.78039	0.78039	0.78039
0.78824	0.78824	0.78824
0.80000	0.80000	0.80000
0.81569	0.81569	0.81569
0.83529	0.83529	0.83529
0.85490	0.85490	0.85490
0.88235	0.88235	0.88235
0.85490	0.85490	0.85490
0.85490	0.85490	0.85490
0.85882	0.85882	0.85882
0.86275	0.86275	0.86275
0.87451	0.87451	0.87451
0.88627	0.88627	0.88627
0.90196	0.90196	0.90196
0.91765	0.91765	0.91765
0.94118	0.94118	0.94118
0.92941	0.92941	0.92941
0.92941	0.92941	0.92941
0.93333	0.93333	0.93333
0.93725	0.93725	0.93725
0.94510	0.94510	0.94510
0.95294	0.95294	0.95294
0.96863	0.96863	0.96863
0.98431	0.98431	0.98431
1.00000	1.00000	1.00000
