LUTGenerator/TEST/CUBE/ChannelMixing/BlueYellow_aBlanked_sRGB.cube
TITLE test.cube
LUT_3D_SIZE 17
DOMAIN_MIN 0.0 0.0 0.0
DOMAIN_MAX 1.0 1.0 1.0
0.00000	0.00000	0.00000
0.01961	0.01569	0.00000
0.05490	0.03922	0.00000
0.09412	0.07451	0.00000
0.13333	0.10588	0.00000
0.16863	0.14118	0.00000
0.20784	0.17255	0.00000
0.24706	0.20784	0.00000
0.28627	0.23922	0.00000
0.32157	0.27059	0.00000
0.36078	0.30196	0.00000
0.40000	0.33725	0.00000
0.43922	0.36863	0.00000
0.47451	0.40392	0.00000
0.51373	0.43529	0.00000
0.55294	0.47059	0.00000
0.59216	0.50196	0.00000
0.05882	0.04706	0.00000
0.07451	0.05882	0.00000
0.09412	0.07451	0.00000
0.12549	0.10196	0.00000
0.15686	0.12549	0.00000
0.18824	0.15686	0.00000
0.22353	0.18431	0.00000
0.25882	0.21569	0.00000
0.29804	0.24706	0.00000
0.32941	0.27843	0.00000
0.36863	0.30980	0.00000
0.40392	0.34118	0.00000
0.44314	0.37647	0.00000
0.48235	0.40784	0.00000
0.51765	0.43922	0.00000
0.55686	0.47451	0.00000
0.59608	0.50588	0.00000
0.12157	0.10196	0.00392
0.12941	0.10588	0.00392
0.14510	0.11765	0.00000
0.16471	0.13725	0.00000
0.18824	0.15686	0.00000
0.21569	0.18039	0.00000
0.24706	0.20784	0.00000
0.27843	0.23529	0.00000
0.31373	0.26275	0.00000
0.34510	0.29020	0.00000
0.38039	0.32157	0.00000
0.41961	0.35294	0.00000
0.45490	0.38431	0.00000
0.49020	0.41569	0.00000
0.52941	0.44706	0.00000
0.56471	0.48235	0.00000
0.60392	0.51373	0.00000
0.18431	0.15686	0.00784
0.18824	0.16078	0.00784
0.20000	0.16863	0.00392
0.21176	0.18039	0.00000
0.23137	0.19608	0.00000
0.25490	0.21569	0.00000
0.28235	0.23922	0.00000
0.30980	0.26275	0.00000
0.34118	0.28627	0.00000
0.36863	0.31373	0.00000
0.40392	0.34118	0.00000
0.43529	0.37255	0.00000
0.47059	0.40000	0.00000
0.50588	0.43137	0.00000
0.54118	0.46275	0.00000
0.57647	0.49412	0.00000
0.61569	0.52549	0.00000
0.24706	0.20784	0.01569
0.25098	0.21176	0.01176
0.25490	0.21961	0.01176
0.26667	0.22745	0.00784
0.28235	0.23922	0.00392
0.30196	0.25490	0.00000
0.32157	0.27451	0.00000
0.34902	0.29412	0.00000
0.37255	0.31765	0.00000
0.40000	0.34118	0.00000
0.43137	0.36471	0.00000
0.46275	0.39216	0.00000
0.49412	0.42353	0.00000
0.52941	0.45098	0.00000
0.56078	0.47843	0.00000
0.59608	0.50980	0.00000
0.63137	0.54118	0.00000
0.30588	0.26275	0.02353
0.30980	0.26667	0.01961
0.31373	0.27059	0.01961
0.32549	0.27843	0.01569
0.33725	0.28627	0.01176
0.35294	0.30196	0.00784
0.36863	0.31765	0.00000
0.39216	0.33333	0.00000
0.41569	0.35294	0.00000
0.43922	0.37647	0.00000
0.46667	0.39608	0.00000
0.49412	0.42353	0.00000
0.52549	0.44706	0.00000
0.55686	0.47451	0.00000
0.58824	0.50196	0.00000
0.61961	0.52941	0.00000
0.65490	0.55686	0.00000
0.36863	0.31765	0.03137
0.37255	0.31765	0.03137
0.37647	0.32157	0.03137
0.38039	0.32941	0.02745
0.39216	0.33725	0.02353
0.40392	0.34902	0.01569
0.41961	0.36078	0.00784
0.43922	0.37647	0.00000
0.45882	0.39216	0.00000
0.48235	0.41176	0.00000
0.50588	0.43137	0.00000
0.52941	0.45490	0.00000
0.56078	0.47843	0.00000
0.58824	0.50196	0.00000
0.61569	0.52941	0.00000
0.64706	0.55686	0.00000
0.67843	0.58039	0.00000
0.43137	0.37255	0.04706
0.43137	0.37255	0.04314
0.43529	0.37647	0.04314
0.44314	0.38039	0.03922
0.45098	0.38824	0.03529
0.45882	0.39608	0.02745
0.47451	0.40784	0.02353
0.49020	0.41961	0.01176
0.50980	0.43529	0.00000
0.52549	0.45490	0.00000
0.54902	0.47059	0.00000
0.57255	0.49020	0.00000
0.59608	0.51373	0.00000
0.62353	0.53725	0.00000
0.65098	0.56078	0.00000
0.68235	0.58431	0.00000
0.70980	0.60784	0.00000
0.49020	0.42745	0.05882
0.49412	0.42745	0.05882
0.49804	0.43137	0.05490
0.50196	0.43529	0.05490
0.50980	0.43922	0.05098
0.51765	0.44706	0.04314
0.52941	0.45882	0.03529
0.54118	0.47059	0.02745
0.56078	0.48235	0.01569
0.57647	0.49804	0.00392
0.59608	0.51373	0.00000
0.61569	0.52941	0.00000
0.63922	0.54902	0.00000
0.66275	0.57255	0.00000
0.69020	0.59216	0.00000
0.71765	0.61569	0.00000
0.74510	0.63922	0.00000
0.54902	0.47843	0.07059
0.54902	0.47843	0.07059
0.55294	0.47843	0.06667
0.55686	0.48235	0.06667
0.56471	0.49020	0.06275
0.57255	0.49412	0.05882
0.58039	0.50588	0.05098
0.59608	0.51373	0.04314
0.60784	0.52549	0.03529
0.62353	0.54118	0.02353
0.64314	0.55294	0.00784
0.66275	0.56863	0.00000
0.68235	0.58824	0.00000
0.70588	0.60784	0.00000
0.72941	0.62745	0.00000
0.75294	0.65098	0.00000
0.78039	0.67059	0.00000
0.61176	0.52941	0.08235
0.61176	0.53333	0.08235
0.61569	0.53333	0.08235
0.61961	0.53725	0.07843
0.62353	0.54118	0.07843
0.63137	0.54902	0.07451
0.63922	0.55686	0.06667
0.65098	0.56471	0.06275
0.66275	0.57647	0.05098
0.67843	0.58431	0.04314
0.69412	0.60000	0.02745
0.70980	0.61569	0.01176
0.72941	0.63137	0.00000
0.74902	0.64706	0.00000
0.77255	0.66667	0.00000
0.79608	0.68627	0.00000
0.81961	0.70980	0.00000
0.67059	0.58431	0.09804
0.67451	0.58431	0.09412
0.67451	0.58824	0.09412
0.67843	0.58824	0.09412
0.68235	0.59216	0.09020
0.69020	0.60000	0.08627
0.69804	0.60784	0.08235
0.70980	0.61569	0.07843
0.71765	0.62353	0.07059
0.73333	0.63529	0.06275
0.74510	0.64706	0.05098
0.76078	0.65882	0.03529
0.78039	0.67451	0.01569
0.80000	0.69020	0.00000
0.81961	0.70980	0.00000
0.83922	0.72549	0.00000
0.86275	0.74510	0.00000
0.73333	0.63922	0.10980
0.73333	0.63922	0.10980
0.73725	0.64314	0.10588
0.74118	0.64314	0.10588
0.74510	0.64706	0.10588
0.74902	0.65098	0.10196
0.75686	0.65882	0.09804
0.76471	0.66667	0.09020
0.77647	0.67451	0.08627
0.78824	0.68235	0.07843
0.80000	0.69412	0.07059
0.81569	0.70588	0.05882
0.83137	0.72157	0.03922
0.85098	0.73725	0.01961
0.86667	0.75294	0.00000
0.88627	0.76863	0.00000
0.90980	0.78824	0.00000
0.79608	0.69412	0.12157
0.79608	0.69412	0.12157
0.80000	0.69412	0.12157
0.80000	0.69804	0.11765
0.80392	0.70196	0.11765
0.81176	0.70588	0.11373
0.81569	0.70980	0.10980
0.82353	0.71765	0.10588
0.83529	0.72549	0.10196
0.84314	0.73333	0.09412
0.85490	0.74510	0.08627
0.87059	0.75294	0.07843
0.88627	0.76863	0.06667
0.90196	0.78039	0.04706
0.91765	0.79608	0.02745
0.93725	0.81176	0.00000
0.95686	0.82745	0.00000
0.85882	0.74902	0.13333
0.85882	0.74902	0.13333
0.85882	0.74902	0.13333
0.86275	0.75294	0.13333
0.86667	0.75294	0.12941
0.87059	0.75686	0.12941
0.87451	0.76471	0.12549
0.88235	0.76863	0.12157
0.89020	0.77647	0.11765
0.90196	0.78431	0.10980
0.91373	0.79216	0.10588
0.92549	0.80392	0.09412
0.93725	0.81569	0.08627
0.95294	0.82745	0.07451
0.96863	0.84314	0.05490
0.98824	0.85490	0.03137
1.00000	0.87059	0.00392
0.91765	0.80000	0.14902
0.91765	0.80000	0.14510
0.92157	0.80392	0.14510
0.92157	0.80392	0.14510
0.92549	0.80784	0.14510
0.92941	0.81176	0.14118
0.93725	0.81569	0.13725
0.94118	0.81961	0.13333
0.94902	0.82745	0.12941
0.96078	0.83529	0.12549
0.96863	0.84314	0.12157
0.98039	0.85490	0.11373
0.99216	0.86275	0.10588
1.00000	0.87451	0.09412
1.00000	0.89020	0.07843
1.00000	0.90196	0.06275
1.00000	0.91765	0.03922
0.98039	0.85490	0.16078
0.98039	0.85490	0.16078
0.98039	0.85490	0.15686
0.98431	0.85882	0.15686
0.98824	0.86275	0.15686
0.99216	0.86667	0.15686
0.99608	0.87059	0.15294
1.00000	0.87451	0.14902
1.00000	0.87843	0.14510
1.00000	0.88627	0.14118
1.00000	0.89412	0.13725
1.00000	0.90196	0.12941
1.00000	0.91373	0.12157
1.00000	0.92549	0.11373
1.00000	0.93725	0.10196
1.00000	0.94902	0.08627
1.00000	0.96471	0.07059
0.00000	0.00392	0.06275
0.00000	0.01961	0.06275
0.03922	0.04706	0.05882
0.08627	0.07843	0.05882
0.12549	0.10980	0.05490
0.16471	0.14118	0.05098
0.20392	0.17647	0.04314
0.24314	0.20784	0.03137
0.28235	0.23922	0.02353
0.31765	0.27059	0.00784
0.35686	0.30588	0.00000
0.39608	0.33725	0.00000
0.43529	0.36863	0.00000
0.47451	0.40392	0.00000
0.51373	0.43529	0.00000
0.55294	0.47059	0.00000
0.58824	0.50196	0.00000
0.04706	0.05098	0.06275
0.06275	0.06275	0.06275
0.08627	0.07843	0.06275
0.11765	0.10196	0.05882
0.14902	0.12941	0.05490
0.18431	0.15686	0.05098
0.21961	0.18824	0.04314
0.25490	0.21961	0.03529
0.29412	0.25098	0.02353
0.32941	0.27843	0.01176
0.36471	0.30980	0.00000
0.40392	0.34510	0.00000
0.44314	0.37647	0.00000
0.47843	0.40784	0.00000
0.51765	0.44314	0.00000
0.55686	0.47451	0.00000
0.59216	0.50588	0.00000
0.11373	0.10196	0.06667
0.12549	0.10980	0.06667
0.13725	0.12157	0.06275
0.15686	0.13725	0.06275
0.18431	0.15686	0.05882
0.21176	0.18431	0.05490
0.24314	0.20784	0.04706
0.27843	0.23529	0.03529
0.30980	0.26667	0.02745
0.34510	0.29412	0.01569
0.38039	0.32157	0.00000
0.41569	0.35294	0.00000
0.45098	0.38431	0.00000
0.49020	0.41569	0.00000
0.52549	0.45098	0.00000
0.56471	0.48235	0.00000
0.60000	0.51373	0.00000
0.17647	0.15686	0.06667
0.18431	0.16078	0.06667
0.19608	0.16863	0.06667
0.20784	0.18039	0.06275
0.22745	0.19608	0.06275
0.25098	0.21569	0.05490
0.27843	0.23922	0.05098
0.30588	0.26275	0.04314
0.33725	0.29020	0.03137
0.36863	0.31373	0.01961
0.40000	0.34118	0.00392
0.43529	0.37255	0.00000
0.47059	0.40000	0.00000
0.50588	0.43137	0.00000
0.54118	0.46275	0.00000
0.57647	0.49412	0.00000
0.61176	0.52549	0.00000
0.24314	0.21176	0.07059
0.24706	0.21176	0.07059
0.25490	0.21961	0.07059
0.26275	0.22745	0.06667
0.27843	0.23922	0.06275
0.29804	0.25882	0.06275
0.32157	0.27451	0.05490
0.34510	0.29804	0.04706
0.37255	0.31765	0.03529
0.40000	0.34118	0.02353
0.43137	0.36863	0.00784
0.46275	0.39608	0.00000
0.49412	0.42353	0.00000
0.52549	0.45098	0.00000
0.56078	0.47843	0.00000
0.59608	0.50980	0.00000
0.63137	0.54118	0.00000
0.30588	0.26275	0.07843
0.30588	0.26667	0.07843
0.31373	0.27059	0.07451
0.32157	0.27843	0.07451
0.33333	0.29020	0.07059
0.34902	0.30196	0.06667
0.36863	0.31765	0.06275
0.38824	0.33333	0.05490
0.41176	0.35294	0.04314
0.43529	0.37647	0.03137
0.46275	0.40000	0.01961
0.49412	0.42353	0.00000
0.52157	0.44706	0.00000
0.55294	0.47451	0.00000
0.58824	0.50196	0.00000
0.61961	0.52941	0.00000
0.65098	0.56078	0.00000
0.36471	0.31765	0.08235
0.36863	0.32157	0.08235
0.37255	0.32549	0.08235
0.38039	0.32941	0.07843
0.39216	0.33725	0.07843
0.40392	0.34902	0.07451
0.41961	0.36078	0.07059
0.43922	0.37647	0.06275
0.45882	0.39608	0.05490
0.47843	0.41176	0.04314
0.50196	0.43137	0.02745
0.52941	0.45490	0.01176
0.55686	0.47843	0.00000
0.58431	0.50196	0.00000
0.61569	0.52941	0.00000
0.64706	0.55686	0.00000
0.67843	0.58431	0.00000
0.42745	0.37255	0.09020
0.43137	0.37255	0.09020
0.43529	0.37647	0.09020
0.43922	0.38039	0.08627
0.44706	0.38824	0.08627
0.45882	0.39608	0.08235
0.47059	0.40784	0.07843
0.49020	0.42353	0.07059
0.50588	0.43922	0.06275
0.52549	0.45490	0.05490
0.54902	0.47059	0.03922
0.57255	0.49020	0.02353
0.59608	0.51373	0.00392
0.62353	0.53725	0.00000
0.65098	0.56078	0.00000
0.67843	0.58431	0.00000
0.70980	0.61176	0.00000
0.49020	0.42745	0.09804
0.49020	0.42745	0.09804
0.49412	0.43137	0.09804
0.49804	0.43529	0.09412
0.50588	0.43922	0.09412
0.51765	0.44706	0.09020
0.52941	0.45882	0.08627
0.54118	0.47059	0.08235
0.55686	0.48235	0.07451
0.57647	0.49804	0.06667
0.59608	0.51373	0.05490
0.61569	0.52941	0.03922
0.63922	0.54902	0.01961
0.66275	0.57255	0.00000
0.69020	0.59216	0.00000
0.71373	0.61569	0.00000
0.74510	0.63922	0.00000
0.54902	0.47843	0.10588
0.54902	0.47843	0.10588
0.55294	0.47843	0.10588
0.55686	0.48235	0.10588
0.56471	0.49020	0.10196
0.57255	0.49804	0.09804
0.58039	0.50588	0.09412
0.59216	0.51373	0.09020
0.60784	0.52549	0.08627
0.62353	0.54118	0.07843
0.63922	0.55294	0.06667
0.65882	0.57255	0.05490
0.68235	0.58824	0.03922
0.70196	0.60784	0.01569
0.72941	0.62745	0.00000
0.75294	0.65098	0.00000
0.78039	0.67059	0.00000
0.60784	0.52941	0.11765
0.61176	0.53333	0.11373
0.61176	0.53333	0.11373
0.61569	0.53725	0.11373
0.62353	0.54118	0.10980
0.63137	0.54902	0.10980
0.63922	0.55686	0.10588
0.65098	0.56471	0.10196
0.66275	0.57647	0.09412
0.67451	0.58824	0.09020
0.69412	0.60000	0.08235
0.70980	0.61569	0.07059
0.72941	0.63137	0.05490
0.74902	0.64706	0.03529
0.77255	0.66667	0.01176
0.79608	0.68627	0.00000
0.81961	0.70980	0.00000
0.67059	0.58431	0.12549
0.67059	0.58431	0.12549
0.67451	0.58824	0.12549
0.67843	0.59216	0.12549
0.68235	0.59608	0.12157
0.69020	0.60000	0.11765
0.69804	0.60784	0.11765
0.70588	0.61569	0.10980
0.71765	0.62353	0.10588
0.72941	0.63529	0.10196
0.74510	0.64706	0.09412
0.76078	0.65882	0.08627
0.78039	0.67451	0.07451
0.80000	0.69020	0.05882
0.81961	0.70980	0.03529
0.83922	0.72549	0.01176
0.86275	0.74510	0.00000
0.73333	0.63922	0.13725
0.73333	0.63922	0.13725
0.73725	0.64314	0.13333
0.73725	0.64314	0.13333
0.74118	0.64706	0.13333
0.74902	0.65098	0.12941
0.75686	0.65882	0.12549
0.76471	0.66667	0.12157
0.77647	0.67451	0.11765
0.78824	0.68235	0.11373
0.80000	0.69412	0.10588
0.81569	0.70588	0.09804
0.83137	0.72157	0.08627
0.84706	0.73725	0.07451
0.86667	0.75294	0.05882
0.88627	0.76863	0.03922
0.90980	0.78824	0.00784
0.79608	0.69412	0.14510
0.79608	0.69412	0.14510
0.79608	0.69412	0.14510
0.80000	0.69804	0.14510
0.80392	0.70196	0.14118
0.80784	0.70588	0.14118
0.81569	0.70980	0.13725
0.82353	0.71765	0.13333
0.83137	0.72549	0.12941
0.84314	0.73333	0.12549
0.85490	0.74510	0.11765
0.87059	0.75686	0.11373
0.88235	0.76863	0.10196
0.90196	0.78039	0.09412
0.91765	0.79608	0.07843
0.93725	0.81176	0.06275
0.95686	0.82745	0.03922
0.85490	0.74902	0.15686
0.85882	0.74902	0.15686
0.85882	0.74902	0.15686
0.85882	0.75294	0.15686
0.86667	0.75294	0.15294
0.87059	0.75686	0.15294
0.87451	0.76471	0.14902
0.88235	0.76863	0.14510
0.89020	0.77647	0.14118
0.90196	0.78431	0.13725
0.90980	0.79216	0.13333
0.92549	0.80392	0.12549
0.93725	0.81569	0.11765
0.95294	0.82745	0.10980
0.96863	0.84314	0.09804
0.98824	0.85490	0.08235
1.00000	0.87059	0.06667
0.91765	0.80000	0.16863
0.91765	0.80392	0.16863
0.92157	0.80392	0.16863
0.92157	0.80392	0.16471
0.92549	0.80784	0.16471
0.92941	0.81176	0.16471
0.93725	0.81569	0.16078
0.94118	0.81961	0.15686
0.94902	0.82745	0.15294
0.95686	0.83529	0.14902
0.96863	0.84314	0.14510
0.98039	0.85490	0.14118
0.99216	0.86275	0.13333
1.00000	0.87451	0.12549
1.00000	0.89020	0.11373
1.00000	0.90196	0.10196
1.00000	0.91765	0.08627
0.98039	0.85490	0.18039
0.98039	0.85490	0.18039
0.98039	0.85882	0.18039
0.98431	0.85882	0.17647
0.98824	0.86275	0.17647
0.99216	0.86275	0.17647
0.99608	0.87059	0.17255
1.00000	0.87451	0.16863
1.00000	0.87843	0.16863
1.00000	0.88627	0.16471
1.00000	0.89412	0.15686
1.00000	0.90196	0.15294
1.00000	0.91373	0.14510
1.00000	0.92549	0.14118
1.00000	0.93725	0.12941
1.00000	0.94902	0.12157
1.00000	0.96078	0.10588
0.00000	0.01569	0.12549
0.00000	0.03137	0.12549
0.00784	0.05490	0.12549
0.06275	0.08235	0.12157
0.11373	0.11373	0.12157
0.15686	0.14510	0.11765
0.19608	0.17647	0.11373
0.23922	0.20784	0.10980
0.27843	0.24314	0.10588
0.31373	0.27451	0.09804
0.35294	0.30588	0.09020
0.39216	0.33725	0.08235
0.43137	0.37255	0.07059
0.47059	0.40392	0.05490
0.50980	0.43922	0.03529
0.54902	0.47059	0.00784
0.58824	0.50196	0.00000
0.01569	0.05882	0.12549
0.03529	0.07059	0.12549
0.06667	0.08627	0.12549
0.10196	0.10588	0.12157
0.13725	0.13333	0.12157
0.17647	0.16078	0.11765
0.21176	0.18824	0.11373
0.25098	0.21961	0.10980
0.28627	0.25098	0.10588
0.32549	0.28235	0.10196
0.36078	0.31373	0.09412
0.40000	0.34510	0.08235
0.43922	0.37647	0.07059
0.47843	0.40784	0.05490
0.51373	0.44314	0.03529
0.55294	0.47451	0.00784
0.59216	0.50588	0.00000
0.09804	0.10980	0.12549
0.10980	0.11373	0.12549
0.12549	0.12549	0.12549
0.14902	0.14118	0.12549
0.17647	0.16078	0.12157
0.20392	0.18431	0.12157
0.23922	0.21176	0.11765
0.27059	0.23922	0.11373
0.30588	0.26667	0.10588
0.34118	0.29412	0.10196
0.37647	0.32549	0.09412
0.41176	0.35686	0.08627
0.45098	0.38824	0.07451
0.48627	0.41961	0.05882
0.52549	0.45098	0.03922
0.56078	0.48235	0.01176
0.60000	0.51373	0.00000
0.16863	0.16078	0.12941
0.17647	0.16471	0.12941
0.18431	0.17255	0.12549
0.20000	0.18431	0.12549
0.21961	0.20000	0.12549
0.24706	0.21961	0.12157
0.27451	0.23922	0.11765
0.30196	0.26275	0.11373
0.33333	0.29020	0.10980
0.36471	0.31765	0.10196
0.39608	0.34510	0.09804
0.43137	0.37255	0.08627
0.46667	0.40392	0.07451
0.50196	0.43137	0.06275
0.53725	0.46275	0.04314
0.57647	0.49412	0.01569
0.61176	0.52549	0.00000
0.23529	0.21176	0.12941
0.23922	0.21569	0.12941
0.24706	0.22353	0.12941
0.25882	0.23137	0.12941
0.27451	0.24314	0.12549
0.29412	0.25882	0.12549
0.31765	0.27843	0.12157
0.34118	0.29804	0.11765
0.36863	0.32157	0.11373
0.39608	0.34510	0.10588
0.42745	0.36863	0.09804
0.45882	0.39608	0.09020
0.49020	0.42353	0.07843
0.52549	0.45098	0.06667
0.56078	0.48235	0.04706
0.59216	0.50980	0.02353
0.62745	0.54118	0.00000
0.29804	0.26667	0.13333
0.30196	0.26667	0.13333
0.30980	0.27451	0.13333
0.31765	0.27843	0.13333
0.32941	0.29020	0.12941
0.34510	0.30196	0.12941
0.36471	0.31765	0.12549
0.38431	0.33725	0.12157
0.40784	0.35686	0.11373
0.43529	0.37647	0.10980
0.46275	0.40000	0.10196
0.49020	0.42353	0.09412
0.52157	0.45098	0.08627
0.55294	0.47451	0.07059
0.58431	0.50196	0.05490
0.61569	0.52941	0.03137
0.65098	0.56078	0.00000
0.36078	0.31765	0.13725
0.36471	0.32157	0.13725
0.36863	0.32549	0.13725
0.37647	0.32941	0.13725
0.38824	0.33725	0.13333
0.40000	0.34902	0.13333
0.41569	0.36471	0.12941
0.43529	0.37647	0.12549
0.45490	0.39608	0.12157
0.47451	0.41176	0.11373
0.50196	0.43529	0.10980
0.52549	0.45490	0.10196
0.55686	0.47843	0.09020
0.58431	0.50588	0.07843
0.61569	0.52941	0.06275
0.64706	0.55686	0.04314
0.67843	0.58431	0.01176
0.42353	0.37255	0.14118
0.42745	0.37647	0.14118
0.43137	0.37647	0.14118
0.43529	0.38431	0.14118
0.44706	0.38824	0.13725
0.45490	0.40000	0.13725
0.47059	0.41176	0.13333
0.48627	0.42353	0.12941
0.50588	0.43922	0.12549
0.52157	0.45490	0.12157
0.54510	0.47451	0.11373
0.56863	0.49412	0.10588
0.59216	0.51373	0.09804
0.61961	0.53725	0.08627
0.64706	0.56078	0.07059
0.67843	0.58431	0.05098
0.70980	0.61176	0.02745
0.48627	0.42745	0.14902
0.49020	0.42745	0.14902
0.49412	0.43137	0.14510
0.49804	0.43529	0.14510
0.50588	0.44314	0.14510
0.51373	0.45098	0.14118
0.52549	0.45882	0.13725
0.54118	0.47059	0.13725
0.55686	0.48235	0.13333
0.57255	0.49804	0.12549
0.59216	0.51373	0.12157
0.61176	0.53333	0.11373
0.63529	0.55294	0.10588
0.66275	0.57255	0.09412
0.68627	0.59608	0.08235
0.71373	0.61569	0.06275
0.74118	0.63922	0.04314
0.54510	0.47843	0.15294
0.54902	0.47843	0.15294
0.54902	0.48235	0.15294
0.55294	0.48627	0.14902
0.56078	0.49020	0.14902
0.56863	0.49804	0.14902
0.58039	0.50588	0.14510
0.59216	0.51765	0.14118
0.60392	0.52941	0.13725
0.61961	0.54118	0.13333
0.63922	0.55686	0.12549
0.65882	0.57255	0.12157
0.67843	0.58824	0.11373
0.70196	0.60784	0.10196
0.72549	0.62745	0.09020
0.75294	0.65098	0.07451
0.77647	0.67059	0.05490
0.60784	0.53333	0.16078
0.60784	0.53333	0.16078
0.61176	0.53333	0.16078
0.61569	0.53725	0.15686
0.61961	0.54118	0.15686
0.62745	0.54902	0.15294
0.63529	0.55686	0.15294
0.64706	0.56471	0.14902
0.65882	0.57647	0.14510
0.67451	0.58824	0.14118
0.69020	0.60000	0.13725
0.70980	0.61569	0.12941
0.72941	0.63137	0.12157
0.74902	0.65098	0.11373
0.76863	0.66667	0.10196
0.79608	0.68627	0.08627
0.81961	0.70980	0.07059
0.67059	0.58431	0.16863
0.67059	0.58824	0.16863
0.67451	0.58824	0.16471
0.67451	0.59216	0.16471
0.68235	0.59608	0.16471
0.68627	0.60000	0.16078
0.69412	0.60784	0.16078
0.70588	0.61569	0.15686
0.71765	0.62353	0.15294
0.72941	0.63529	0.14902
0.74510	0.64706	0.14510
0.76078	0.66275	0.13725
0.77647	0.67451	0.12941
0.79608	0.69020	0.12157
0.81569	0.70980	0.11373
0.83922	0.72941	0.10196
0.86275	0.74902	0.08627
0.72941	0.63922	0.17647
0.73333	0.63922	0.17255
0.73333	0.64314	0.17255
0.73725	0.64314	0.17255
0.74118	0.64706	0.17255
0.74902	0.65490	0.16863
0.75294	0.65882	0.16863
0.76471	0.66667	0.16471
0.77255	0.67451	0.16078
0.78431	0.68235	0.15686
0.80000	0.69412	0.15294
0.81176	0.70980	0.14902
0.82745	0.72157	0.14118
0.84706	0.73725	0.13333
0.86667	0.75294	0.12157
0.88627	0.76863	0.11373
0.90588	0.78824	0.09804
0.79216	0.69412	0.18431
0.79216	0.69412	0.18431
0.79608	0.69412	0.18039
0.80000	0.69804	0.18039
0.80392	0.70196	0.18039
0.80784	0.70588	0.17647
0.81569	0.70980	0.17647
0.82353	0.71765	0.17255
0.83137	0.72549	0.17255
0.84314	0.73333	0.16471
0.85490	0.74510	0.16078
0.86667	0.75686	0.15686
0.88235	0.76863	0.14902
0.89804	0.78039	0.14510
0.91765	0.79608	0.13333
0.93333	0.81176	0.12549
0.95294	0.82745	0.11373
0.85490	0.74902	0.19216
0.85490	0.74902	0.19216
0.85882	0.74902	0.19216
0.85882	0.75294	0.19216
0.86275	0.75294	0.18824
0.86667	0.76078	0.18824
0.87451	0.76471	0.18431
0.88235	0.76863	0.18431
0.89020	0.77647	0.18039
0.89804	0.78431	0.17647
0.90980	0.79216	0.17255
0.92157	0.80392	0.16863
0.93725	0.81569	0.16078
0.95294	0.82745	0.15294
0.96863	0.84314	0.14510
0.98431	0.85882	0.13725
1.00000	0.87451	0.12549
0.91765	0.80000	0.20000
0.91765	0.80392	0.20000
0.91765	0.80392	0.20000
0.92157	0.80392	0.20000
0.92549	0.80784	0.20000
0.92941	0.81176	0.19608
0.93333	0.81569	0.19608
0.94118	0.82353	0.19216
0.94902	0.82745	0.18824
0.95686	0.83529	0.18824
0.96863	0.84314	0.18039
0.98039	0.85490	0.17647
0.99216	0.86275	0.17255
1.00000	0.87451	0.16471
1.00000	0.89020	0.15686
1.00000	0.90196	0.14902
1.00000	0.91765	0.14118
0.98039	0.85490	0.21176
0.98039	0.85490	0.20784
0.98039	0.85882	0.20784
0.98039	0.85882	0.20784
0.98431	0.86275	0.20784
0.98824	0.86667	0.20784
0.99608	0.87059	0.20392
1.00000	0.87451	0.20000
1.00000	0.88235	0.20000
1.00000	0.88627	0.19608
1.00000	0.89412	0.19216
1.00000	0.90196	0.18824
1.00000	0.91373	0.18431
1.00000	0.92549	0.17647
1.00000	0.93725	0.16863
1.00000	0.94902	0.16078
1.00000	0.96471	0.15294
0.00000	0.03137	0.18824
0.00000	0.04706	0.18824
0.00000	0.06667	0.18824
0.01569	0.09020	0.18431
0.08627	0.12157	0.18431
0.13725	0.14902	0.18431
0.18431	0.18039	0.18039
0.22745	0.21176	0.18039
0.27059	0.24706	0.17647
0.30588	0.27451	0.17255
0.34902	0.30980	0.16863
0.38824	0.34118	0.16078
0.42745	0.37255	0.15686
0.46667	0.40784	0.14902
0.50588	0.43922	0.14118
0.54510	0.47059	0.13333
0.58431	0.50588	0.12157
0.00000	0.07059	0.18824
0.00000	0.07843	0.18824
0.01961	0.09412	0.18824
0.07059	0.11373	0.18824
0.11765	0.14118	0.18431
0.16078	0.16471	0.18431
0.20000	0.19608	0.18039
0.23922	0.22353	0.18039
0.27843	0.25490	0.17647
0.31765	0.28235	0.17255
0.35686	0.31373	0.16863
0.39608	0.34510	0.16078
0.43529	0.38039	0.15686
0.47059	0.41176	0.14902
0.50980	0.44314	0.14118
0.54902	0.47451	0.13333
