LUTGenerator/TEST/CUBE/ChannelMixing/BlueYellow_MixedThenABlanked_sRGB.cube
TITLE BlueYellow_MixedThenABlanked_sRGB.cube
LUT_3D_SIZE 9
DOMAIN_MIN 0.0 0.0 0.0
DOMAIN_MAX 1.0 1.0 1.0
0.00000	0.00000	0.00000
0.07451	0.05882	0.00000
0.14510	0.11765	0.00000
0.21176	0.18039	0.00000
0.28235	0.23922	0.00392
0.34902	0.29804	0.00392
0.41961	0.36078	0.00784
0.48627	0.41961	0.01176
0.55686	0.47843	0.01569
0.07451	0.05882	0.00000
0.14510	0.11765	0.00000
0.21176	0.18039	0.00000
0.28235	0.23922	0.00392
0.35294	0.30196	0.00784
0.41961	0.36078	0.00784
0.48627	0.41961	0.01176
0.55686	0.47843	0.01569
0.62745	0.54118	0.02353
0.14510	0.11765	0.00000
0.21176	0.18039	0.00000
0.28235	0.23922	0.00392
0.35294	0.30196	0.00784
0.41961	0.36078	0.00784
0.48627	0.41961	0.01176
0.55686	0.48235	0.01569
0.62745	0.54118	0.01961
0.69412	0.60000	0.02745
0.21176	0.18039	0.00000
0.28235	0.23922	0.00392
0.35294	0.30196	0.00784
0.41961	0.36078	0.00784
0.49020	0.42353	0.01176
0.55686	0.48235	0.01569
0.62745	0.54118	0.02353
0.69412	0.60000	0.02745
0.76471	0.66275	0.03529
0.28235	0.23922	0.00392
0.35294	0.30196	0.00784
0.41961	0.36078	0.00784
0.49020	0.42353	0.01176
0.56078	0.48235	0.01569
0.62745	0.54118	0.02353
0.69412	0.60000	0.02745
0.76471	0.66275	0.03529
0.83529	0.72157	0.03922
0.34902	0.29804	0.00784
0.41961	0.36078	0.00784
0.48627	0.41961	0.01176
0.55686	0.48235	0.01569
0.62745	0.54118	0.01961
0.69412	0.60000	0.02745
0.76078	0.65882	0.03529
0.83137	0.72157	0.03922
0.90196	0.78039	0.04706
0.41961	0.36078	0.00784
0.48627	0.41961	0.01176
0.55686	0.48235	0.01569
0.62745	0.54118	0.02353
0.69412	0.60000	0.02745
0.76078	0.65882	0.03529
0.83137	0.72157	0.03922
0.90196	0.78039	0.04706
0.96863	0.84314	0.05490
0.48627	0.41961	0.01176
0.55686	0.47843	0.01569
0.62745	0.54118	0.02353
0.69412	0.60000	0.02745
0.76471	0.66275	0.03529
0.83137	0.72157	0.03922
0.90196	0.78039	0.04706
0.96863	0.84314	0.05490
1.00000	0.90196	0.06275
0.55686	0.47843	0.01569
0.62745	0.54118	0.02353
0.69412	0.60000	0.02745
0.76471	0.66275	0.03529
0.83529	0.72157	0.04314
0.90196	0.78039	0.04706
0.96863	0.84314	0.05490
1.00000	0.90196	0.06275
1.00000	0.96471	0.07059
0.00000	0.01569	0.12549
0.03529	0.07059	0.12549
0.12549	0.12549	0.12549
0.20000	0.18431	0.12549
0.27451	0.24314	0.12549
0.34118	0.30196	0.12549
0.41176	0.36078	0.12941
0.48235	0.42353	0.12941
0.55294	0.48235	0.13333
0.03529	0.07059	0.12549
0.12549	0.12549	0.12549
0.20000	0.18431	0.12549
0.27451	0.24314	0.12549
0.34510	0.30196	0.12549
0.41176	0.36078	0.12941
0.48235	0.41961	0.12941
0.55294	0.48235	0.12941
0.62353	0.54118	0.13333
0.12549	0.12549	0.12549
0.20000	0.18431	0.12549
0.27451	0.24314	0.12549
0.34510	0.30196	0.12941
0.41569	0.36471	0.12941
0.48235	0.42353	0.12941
0.55294	0.48235	0.13333
0.62353	0.54118	0.13333
0.69412	0.60392	0.13725
0.20000	0.18431	0.12549
0.27451	0.24314	0.12549
0.34510	0.30196	0.12549
0.41569	0.36471	0.12941
0.48627	0.42353	0.12941
0.55294	0.48235	0.13333
0.62353	0.54118	0.13333
0.69412	0.60392	0.13725
0.76078	0.66275	0.13725
0.27451	0.24314	0.12549
0.34510	0.30196	0.12941
0.41569	0.36471	0.12941
0.48627	0.42353	0.12941
0.55686	0.48235	0.13333
0.62353	0.54118	0.13333
0.69412	0.60392	0.13725
0.76078	0.66275	0.13725
0.83137	0.72157	0.14118
0.34118	0.30196	0.12941
0.41176	0.36078	0.12941
0.48235	0.42353	0.12941
0.55294	0.48235	0.13333
0.62353	0.54118	0.13333
0.69020	0.60000	0.13725
0.76078	0.66275	0.13725
0.83137	0.72157	0.14118
0.89804	0.78039	0.14510
0.41176	0.36078	0.12941
0.48235	0.41961	0.12941
0.55294	0.48235	0.13333
0.62353	0.54118	0.13333
0.69412	0.60392	0.13725
0.76078	0.66275	0.13725
0.82745	0.72157	0.14118
0.89804	0.78039	0.14510
0.96863	0.84314	0.14510
0.48235	0.41961	0.12941
0.55294	0.48235	0.13333
0.62353	0.54118	0.13333
0.69412	0.60392	0.13725
0.76078	0.66275	0.13725
0.82745	0.72157	0.14118
0.89804	0.78431	0.14510
0.96863	0.84314	0.14510
1.00000	0.90196	0.14902
0.55294	0.48235	0.13333
0.62353	0.54118	0.13333
0.69412	0.60392	0.13725
0.76078	0.66275	0.13725
0.83137	0.72157	0.14118
0.89804	0.78039	0.14510
0.96863	0.84314	0.14510
1.00000	0.90196	0.14902
1.00000	0.96471	0.15294
0.00000	0.05490	0.25098
0.00000	0.09412	0.25098
0.05882	0.14118	0.25098
0.16863	0.19216	0.25098
0.25098	0.25098	0.25098
0.32549	0.30588	0.25098
0.40000	0.36471	0.25098
0.47059	0.42745	0.25098
0.54510	0.48627	0.25490
0.00000	0.09412	0.25098
0.05882	0.14118	0.25098
0.16863	0.19608	0.25098
0.25098	0.25098	0.25098
0.32941	0.30980	0.25098
0.40000	0.36471	0.25098
0.47059	0.42745	0.25098
0.54510	0.48627	0.25490
0.61569	0.54510	0.25490
0.05882	0.14118	0.25098
0.16863	0.19608	0.25098
0.25098	0.25098	0.25098
0.32941	0.30980	0.25098
0.40000	0.36863	0.25098
0.47059	0.42745	0.25098
0.54510	0.48627	0.25490
0.61569	0.54510	0.25490
0.68627	0.60392	0.25490
0.16863	0.19608	0.25098
0.25098	0.25098	0.25098
0.32941	0.30980	0.25098
0.40000	0.36863	0.25098
0.47451	0.42745	0.25098
0.54510	0.48627	0.25490
0.61569	0.54510	0.25490
0.68627	0.60392	0.25490
0.75686	0.66667	0.25490
0.25098	0.25098	0.25098
0.32941	0.30980	0.25098
0.40000	0.36863	0.25098
0.47451	0.42745	0.25098
0.54510	0.48627	0.25490
0.61569	0.54510	0.25490
0.68627	0.60392	0.25490
0.75686	0.66667	0.25490
0.82745	0.72549	0.25882
0.32549	0.30588	0.25098
0.40000	0.36471	0.25098
0.47451	0.42745	0.25098
0.54510	0.48627	0.25490
0.61569	0.54510	0.25490
0.68235	0.60392	0.25490
0.75294	0.66275	0.25490
0.82353	0.72157	0.25882
0.89412	0.78431	0.25882
0.40000	0.36471	0.25098
0.47059	0.42353	0.25098
0.54510	0.48627	0.25490
0.61569	0.54510	0.25490
0.68627	0.60392	0.25490
0.75294	0.66275	0.25490
0.82353	0.72549	0.25882
0.89412	0.78431	0.25882
0.96471	0.84314	0.26275
0.47451	0.42745	0.25098
0.54510	0.48627	0.25490
0.61569	0.54510	0.25490
0.68627	0.60392	0.25490
0.75686	0.66667	0.25490
0.82353	0.72549	0.25882
0.89412	0.78431	0.25882
0.96471	0.84314	0.26275
1.00000	0.90588	0.26275
0.54510	0.48627	0.25490
0.61569	0.54510	0.25490
0.68627	0.60392	0.25490
0.75686	0.66667	0.25490
0.82745	0.72549	0.25882
0.89412	0.78431	0.25882
0.96471	0.84314	0.26275
1.00000	0.90588	0.26275
1.00000	0.96471	0.26667
0.00000	0.09804	0.37647
0.00000	0.12549	0.37647
0.00000	0.16471	0.37647
0.07451	0.21176	0.37647
0.20392	0.26275	0.37647
0.29020	0.31765	0.37647
0.37255	0.37647	0.37647
0.45098	0.43137	0.37647
0.52549	0.49020	0.37647
0.00000	0.12549	0.37647
0.00000	0.16471	0.37647
0.07451	0.21176	0.37647
0.20392	0.26275	0.37647
0.29412	0.32157	0.37647
0.37255	0.37647	0.37647
0.45098	0.43137	0.37647
0.52549	0.49020	0.37647
0.60000	0.54902	0.37647
0.00000	0.16471	0.37647
0.07451	0.21176	0.37647
0.20392	0.26275	0.37647
0.29412	0.32157	0.37647
0.37647	0.37647	0.37647
0.45098	0.43137	0.37647
0.52549	0.49020	0.37647
0.60000	0.54902	0.37647
0.67451	0.60784	0.38039
0.07451	0.21176	0.37647
0.20392	0.26275	0.37647
0.29412	0.31765	0.37647
0.37647	0.37647	0.37647
0.45490	0.43529	0.37647
0.52549	0.49020	0.37647
0.60000	0.54902	0.37647
0.67451	0.60784	0.38039
0.74510	0.67059	0.38039
0.20392	0.26275	0.37647
0.29412	0.31765	0.37647
0.37647	0.37647	0.37647
0.45490	0.43529	0.37647
0.52941	0.49412	0.37647
0.60000	0.54902	0.37647
0.67451	0.60784	0.38039
0.74510	0.67059	0.38039
0.81569	0.72941	0.38039
0.29020	0.31765	0.37647
0.37255	0.37647	0.37647
0.45098	0.43137	0.37647
0.52549	0.49020	0.37647
0.60000	0.54902	0.37647
0.67059	0.60784	0.38039
0.74118	0.66667	0.38039
0.81569	0.72549	0.38039
0.88627	0.78824	0.38039
0.37255	0.37255	0.37647
0.45098	0.43137	0.37647
0.52549	0.49020	0.37647
0.60000	0.54902	0.37647
0.67451	0.61176	0.38039
0.74118	0.66667	0.38039
0.81569	0.72549	0.38039
0.88627	0.78824	0.38039
0.95686	0.84706	0.38039
0.45098	0.43137	0.37647
0.52549	0.49020	0.37647
0.60000	0.54902	0.37647
0.67451	0.61176	0.38039
0.74510	0.67059	0.38039
0.81569	0.72549	0.38039
0.88627	0.78824	0.38039
0.95686	0.84706	0.38431
1.00000	0.90588	0.38431
0.52549	0.49020	0.37647
0.60000	0.54902	0.37647
0.67059	0.60784	0.37647
0.74510	0.67059	0.38039
0.81569	0.72941	0.38039
0.88627	0.78824	0.38039
0.95686	0.84706	0.38431
1.00000	0.90588	0.38431
1.00000	0.96863	0.38431
0.00000	0.14118	0.50196
0.00000	0.16078	0.50196
0.00000	0.19216	0.50196
0.00000	0.23529	0.50196
0.08235	0.28235	0.50196
0.23137	0.33333	0.50196
0.32941	0.38824	0.50196
0.41961	0.44314	0.50196
0.49804	0.49804	0.50196
0.00000	0.16078	0.50196
0.00000	0.19216	0.50196
0.00000	0.23529	0.50196
0.08235	0.28235	0.50196
0.23137	0.33333	0.50196
0.32941	0.38824	0.50196
0.41961	0.44314	0.50196
0.49804	0.50196	0.50196
0.57647	0.55686	0.50196
0.00000	0.19216	0.50196
0.00000	0.23529	0.50196
0.08627	0.28235	0.50196
0.23137	0.33333	0.50196
0.33333	0.38824	0.50196
0.41961	0.44314	0.50196
0.49804	0.50196	0.50196
0.57647	0.55686	0.50196
0.65490	0.61569	0.50196
0.00000	0.23529	0.50196
0.08235	0.28235	0.50196
0.23137	0.33333	0.50196
0.33333	0.38824	0.50196
0.41961	0.44314	0.50196
0.49804	0.50196	0.50196
0.57647	0.55686	0.50196
0.65490	0.61569	0.50196
0.72941	0.67451	0.50196
0.08627	0.28235	0.50196
0.23137	0.33333	0.50196
0.33333	0.38824	0.50196
0.41961	0.44314	0.50196
0.50196	0.50196	0.50196
0.57647	0.55686	0.50196
0.65490	0.61569	0.50196
0.72941	0.67451	0.50196
0.80000	0.73333	0.50588
0.23137	0.33333	0.50196
0.32941	0.38824	0.50196
0.41961	0.44314	0.50196
0.49804	0.50196	0.50196
0.57647	0.55686	0.50196
0.65098	0.61569	0.50196
0.72549	0.67451	0.50196
0.80000	0.73333	0.50196
0.87059	0.79216	0.50588
0.32941	0.38824	0.50196
0.41961	0.44314	0.50196
0.49804	0.50196	0.50196
0.57647	0.55686	0.50196
0.65490	0.61569	0.50196
0.72549	0.67451	0.50196
0.80000	0.73333	0.50196
0.87059	0.79216	0.50588
0.94510	0.85098	0.50588
0.41961	0.44314	0.50196
0.49804	0.50196	0.50196
0.57647	0.55686	0.50196
0.65490	0.61569	0.50196
0.72941	0.67451	0.50196
0.80000	0.73333	0.50196
0.87059	0.79216	0.50588
0.94510	0.85098	0.50588
1.00000	0.90980	0.50588
0.49804	0.50196	0.50196
0.57647	0.55686	0.50196
0.65490	0.61569	0.50196
0.72549	0.67451	0.50196
0.80000	0.73333	0.50196
0.87059	0.79216	0.50588
0.94510	0.85098	0.50588
1.00000	0.90980	0.50588
1.00000	0.97255	0.50588
0.00000	0.18431	0.62353
0.00000	0.20000	0.62353
0.00000	0.22745	0.62353
0.00000	0.26275	0.62353
0.00000	0.30588	0.62353
0.09020	0.34902	0.62353
0.25882	0.40392	0.62353
0.36863	0.45490	0.62353
0.45882	0.51373	0.62353
0.00000	0.20000	0.61961
0.00000	0.22745	0.62353
0.00000	0.26275	0.62353
0.00000	0.30588	0.62353
0.09804	0.35294	0.62353
0.25882	0.40392	0.62353
0.36863	0.45490	0.62353
0.45882	0.50980	0.62353
0.54510	0.56863	0.62353
0.00000	0.22745	0.62353
0.00000	0.26275	0.62353
0.00000	0.30588	0.62353
0.09804	0.35294	0.62353
0.26275	0.40392	0.62353
0.36863	0.45490	0.62353
0.45882	0.50980	0.62353
0.54510	0.56863	0.62353
0.62745	0.62745	0.62353
0.00000	0.26275	0.62353
0.00000	0.30588	0.62353
0.09804	0.35294	0.62353
0.26275	0.40392	0.62353
0.36863	0.45882	0.62353
0.45882	0.50980	0.62353
0.54510	0.56863	0.62353
0.62745	0.62745	0.62353
0.70588	0.68235	0.62353
0.00000	0.30588	0.62353
0.09804	0.35294	0.62353
0.26275	0.40392	0.62353
0.37255	0.45882	0.62353
0.46275	0.51373	0.62353
0.54510	0.56863	0.62353
0.62745	0.62745	0.62353
0.70588	0.68235	0.62353
0.78039	0.74118	0.62353
0.09020	0.35294	0.62353
0.25882	0.40392	0.62353
0.36863	0.45490	0.62353
0.45882	0.51373	0.62353
0.54510	0.56863	0.62353
0.62353	0.62353	0.62353
0.70196	0.68235	0.62353
0.77647	0.74118	0.62353
0.85098	0.80000	0.62353
0.25882	0.40392	0.62353
0.36863	0.45490	0.62353
0.45882	0.51373	0.62353
0.54510	0.56863	0.62353
0.62745	0.62353	0.62353
0.70196	0.68235	0.62353
0.77647	0.74118	0.62353
0.85098	0.80000	0.62353
0.92549	0.85882	0.62353
0.36863	0.45490	0.62353
0.45882	0.50980	0.62353
0.54510	0.56863	0.62353
0.62745	0.62353	0.62353
0.70588	0.68235	0.62353
0.77647	0.74118	0.62353
0.85098	0.80000	0.62353
0.92549	0.85882	0.62353
1.00000	0.91765	0.62745
0.45882	0.50980	0.62353
0.54510	0.56863	0.62353
0.62745	0.62353	0.62353
0.70196	0.68235	0.62353
0.78039	0.74118	0.62353
0.85098	0.80000	0.62353
0.92549	0.85882	0.62745
1.00000	0.91765	0.62745
1.00000	0.97647	0.62745
0.00000	0.23137	0.74510
0.00000	0.24314	0.74902
0.00000	0.26275	0.74902
0.00000	0.29412	0.74902
0.00000	0.33333	0.74510
0.00000	0.37647	0.74902
0.09020	0.42353	0.74902
0.28235	0.47451	0.74902
0.40000	0.52549	0.74902
0.00000	0.24314	0.74902
0.00000	0.26275	0.74510
0.00000	0.29412	0.74510
0.00000	0.33333	0.74902
0.00000	0.37647	0.74902
0.09020	0.42353	0.74902
0.28235	0.47451	0.74902
0.40000	0.52549	0.74902
0.49804	0.58039	0.74902
0.00000	0.26275	0.74510
0.00000	0.29412	0.74902
0.00000	0.33333	0.74902
0.00000	0.37647	0.74902
0.10196	0.42353	0.74902
0.28235	0.47451	0.74902
0.40000	0.52549	0.74902
0.49804	0.58039	0.74902
0.58824	0.63529	0.74902
0.00000	0.29412	0.74902
0.00000	0.33333	0.74510
0.00000	0.37647	0.74510
0.10196	0.42353	0.74902
0.28627	0.47451	0.74902
0.40000	0.52549	0.74902
0.49804	0.58039	0.74902
0.58824	0.63529	0.74902
0.67059	0.69412	0.74902
0.00000	0.33333	0.74902
0.00000	0.37647	0.74902
0.10196	0.42353	0.74902
0.28627	0.47451	0.74902
0.40392	0.52941	0.74902
0.49804	0.58039	0.74902
0.58824	0.63529	0.74902
0.67059	0.69412	0.74902
0.75294	0.74902	0.74902
0.00000	0.37255	0.74902
0.09020	0.42353	0.74902
0.28235	0.47451	0.74902
0.40000	0.52549	0.74902
0.49804	0.58039	0.74902
0.58431	0.63529	0.74902
0.66667	0.69020	0.74902
0.74902	0.74902	0.74902
0.82745	0.80784	0.74902
0.09020	0.42353	0.74902
0.28235	0.47451	0.74902
0.40000	0.52549	0.74902
0.49804	0.58039	0.74902
0.58824	0.63529	0.74902
0.66667	0.69020	0.74902
0.74902	0.74902	0.74902
0.82745	0.80784	0.74902
0.90588	0.86667	0.74902
0.28235	0.47451	0.74902
0.40000	0.52549	0.74902
0.49804	0.58039	0.74902
0.58824	0.63529	0.74902
0.67059	0.69412	0.74902
0.74902	0.74902	0.74902
0.82745	0.80784	0.74902
0.90196	0.86667	0.74902
0.98039	0.92549	0.74902
0.40000	0.52549	0.74902
0.49804	0.58039	0.74902
0.58824	0.63529	0.74902
0.67059	0.69412	0.74902
0.75294	0.75294	0.74902
0.82745	0.80784	0.74902
0.90588	0.86667	0.74902
0.98039	0.92157	0.74902
1.00000	0.98039	0.74902
0.00000	0.27451	0.87059
0.00000	0.28235	0.87059
0.00000	0.30196	0.87059
0.00000	0.32941	0.87059
0.00000	0.36078	0.87059
0.00000	0.40000	0.87451
0.00000	0.44706	0.87451
0.08627	0.49412	0.87451
0.30588	0.54510	0.87451
0.00000	0.28235	0.87059
0.00000	0.30196	0.87059
0.00000	0.32941	0.87059
0.00000	0.36078	0.87059
0.00000	0.40392	0.87059
0.00000	0.44706	0.87059
0.08627	0.49412	0.87059
0.30588	0.54510	0.87451
0.43137	0.59608	0.87451
0.00000	0.30196	0.87059
0.00000	0.32941	0.87059
0.00000	0.36078	0.87059
0.00000	0.40000	0.87059
0.00000	0.44706	0.87059
0.08627	0.49412	0.87451
0.30588	0.54510	0.87451
0.43137	0.59608	0.87451
0.53333	0.65098	0.87451
0.00000	0.32941	0.87059
0.00000	0.36078	0.87059
0.00000	0.40392	0.87059
0.00000	0.44706	0.87059
0.09804	0.49412	0.87059
0.30588	0.54510	0.87451
0.43137	0.59608	0.87451
0.53333	0.65098	0.87451
0.62745	0.70588	0.87451
0.00000	0.36078	0.87059
0.00000	0.40392	0.87059
0.00000	0.44706	0.87059
0.09804	0.49412	0.87059
0.30980	0.54510	0.87451
0.43137	0.59608	0.87451
0.53333	0.65098	0.87451
0.62745	0.70588	0.87451
0.71373	0.76078	0.87451
0.00000	0.40000	0.87059
0.00000	0.44706	0.87451
0.08627	0.49412	0.87059
0.30588	0.54510	0.87451
0.43137	0.59608	0.87451
0.52941	0.65098	0.87451
0.62353	0.70588	0.87451
0.70980	0.76078	0.87451
0.79608	0.81569	0.87451
0.00000	0.44706	0.87059
0.08627	0.49412	0.87451
0.30588	0.54510	0.87451
0.43137	0.59608	0.87451
0.53333	0.65098	0.87451
0.62353	0.70588	0.87451
0.70980	0.76078	0.87451
0.79216	0.81569	0.87451
0.87451	0.87451	0.87451
0.08627	0.49412	0.87451
0.30588	0.54510	0.87451
0.43137	0.59608	0.87451
0.53333	0.65098	0.87451
0.62745	0.70588	0.87451
0.70980	0.76078	0.87451
0.79608	0.81569	0.87451
0.87451	0.87451	0.87451
0.95294	0.93333	0.87451
0.30588	0.54510	0.87451
0.43137	0.59608	0.87451
0.53333	0.65098	0.87451
0.62745	0.70588	0.87451
0.71373	0.76078	0.87451
0.79216	0.81569	0.87451
0.87451	0.87451	0.87451
0.95294	0.93333	0.87451
1.00000	0.99216	0.87451
0.00000	0.31765	1.00000
0.00000	0.32549	1.00000
0.00000	0.34118	1.00000
0.00000	0.36471	1.00000
0.00000	0.39608	1.00000
0.00000	0.43137	1.00000
0.00000	0.47059	1.00000
0.00000	0.51765	1.00000
0.07451	0.56471	1.00000
0.00000	0.32549	1.00000
0.00000	0.34118	1.00000
0.00000	0.36471	1.00000
0.00000	0.39608	1.00000
0.00000	0.43137	1.00000
0.00000	0.47059	1.00000
0.00000	0.51765	1.00000
0.07451	0.56471	1.00000
0.32549	0.61569	1.00000
0.00000	0.34118	1.00000
0.00000	0.36471	1.00000
0.00000	0.39608	1.00000
0.00000	0.43137	1.00000
0.00000	0.47451	1.00000
0.00000	0.51765	1.00000
0.07451	0.56471	1.00000
0.32549	0.61569	1.00000
0.45882	0.66667	1.00000
0.00000	0.36471	1.00000
0.00000	0.39608	1.00000
0.00000	0.43137	1.00000
0.00000	0.47451	1.00000
0.00000	0.51765	1.00000
0.07451	0.56471	1.00000
0.32549	0.61569	1.00000
0.45882	0.66667	1.00000
0.56863	0.72157	1.00000
0.00000	0.39608	1.00000
0.00000	0.43137	1.00000
0.00000	0.47451	1.00000
0.00000	0.51765	1.00000
0.09020	0.56471	1.00000
0.32549	0.61569	1.00000
0.45882	0.66667	1.00000
0.56863	0.72157	1.00000
0.66275	0.77647	1.00000
0.00000	0.43137	1.00000
0.00000	0.47059	1.00000
0.00000	0.51765	1.00000
0.07451	0.56471	1.00000
0.32549	0.61569	1.00000
0.45490	0.66667	1.00000
0.56471	0.71765	1.00000
0.66275	0.77255	1.00000
0.75294	0.82745	1.00000
0.00000	0.47059	1.00000
0.00000	0.51765	1.00000
0.07451	0.56471	1.00000
0.32549	0.61569	1.00000
0.45882	0.66667	1.00000
0.56471	0.71765	1.00000
0.66275	0.77255	1.00000
0.75294	0.82745	1.00000
0.83529	0.88627	1.00000
0.00000	0.51765	1.00000
0.07451	0.56471	1.00000
0.32549	0.61569	1.00000
0.45882	0.66667	1.00000
0.56863	0.72157	1.00000
0.66275	0.77255	1.00000
0.75294	0.83137	1.00000
0.83529	0.88627	1.00000
0.91765	0.94118	1.00000
0.07451	0.56471	1.00000
0.32549	0.61569	1.00000
0.45882	0.66667	1.00000
0.56863	0.72157	1.00000
0.66275	0.77647	1.00000
0.75294	0.83137	1.00000
0.83529	0.88627	1.00000
0.92157	0.94118	1.00000
1.00000	1.00000	1.00000
