LUTGenerator/TEST/CUBE/ChannelMixing/BlueYellow_aBlanked_sRGB.cube
TITLE test.cube
LUT_3D_SIZE 9
DOMAIN_MIN 0.0 0.0 0.0
DOMAIN_MAX 1.0 1.0 1.0
0.00000	0.00000	0.00000
0.05490	0.03922	0.00000
0.13333	0.10588	0.00000
0.20784	0.17255	0.00000
0.28627	0.23922	0.00000
0.36078	0.30196	0.00000
0.43922	0.36863	0.00000
0.51373	0.43529	0.00000
0.59216	0.50196	0.00000
0.12157	0.10196	0.00392
0.14510	0.11765	0.00000
0.18824	0.15686	0.00000
0.24706	0.20784	0.00000
0.31373	0.26275	0.00000
0.38039	0.32157	0.00000
0.45490	0.38431	0.00000
0.52941	0.44706	0.00000
0.60392	0.51373	0.00000
0.24706	0.20784	0.01569
0.25490	0.21961	0.01176
0.28235	0.23922	0.00392
0.32157	0.27451	0.00000
0.37255	0.31765	0.00000
0.43137	0.36471	0.00000
0.49412	0.42353	0.00000
0.56078	0.47843	0.00000
0.63137	0.54118	0.00000
0.36863	0.31765	0.03137
0.37647	0.32157	0.03137
0.39216	0.33725	0.02353
0.41961	0.36078	0.00784
0.45882	0.39216	0.00000
0.50588	0.43137	0.00000
0.56078	0.47843	0.00000
0.61569	0.52941	0.00000
0.67843	0.58039	0.00000
0.49020	0.42745	0.05882
0.49804	0.43137	0.05490
0.50980	0.43922	0.05098
0.52941	0.45882	0.03529
0.56078	0.48235	0.01569
0.59608	0.51373	0.00000
0.63922	0.54902	0.00000
0.69020	0.59216	0.00000
0.74510	0.63922	0.00000
0.61176	0.52941	0.08235
0.61569	0.53333	0.08235
0.62353	0.54118	0.07843
0.63922	0.55686	0.06667
0.66275	0.57647	0.05098
0.69412	0.60000	0.02745
0.72941	0.63137	0.00000
0.77255	0.66667	0.00000
0.81961	0.70980	0.00000
0.73333	0.63922	0.10980
0.73725	0.64314	0.10588
0.74510	0.64706	0.10588
0.75686	0.65882	0.09804
0.77647	0.67451	0.08627
0.80000	0.69412	0.07059
0.83137	0.72157	0.03922
0.86667	0.75294	0.00000
0.90980	0.78824	0.00000
0.85882	0.74902	0.13333
0.85882	0.74902	0.13333
0.86667	0.75294	0.12941
0.87451	0.76471	0.12549
0.89020	0.77647	0.11765
0.91373	0.79216	0.10588
0.93725	0.81569	0.08627
0.96863	0.84314	0.05490
1.00000	0.87059	0.00392
0.98039	0.85490	0.16078
0.98039	0.85490	0.15686
0.98824	0.86275	0.15686
0.99608	0.87059	0.15294
1.00000	0.87843	0.14510
1.00000	0.89412	0.13725
1.00000	0.91373	0.12157
1.00000	0.93725	0.10196
1.00000	0.96471	0.07059
0.00000	0.01569	0.12549
0.00784	0.05490	0.12549
0.11373	0.11373	0.12157
0.19608	0.17647	0.11373
0.27843	0.24314	0.10588
0.35294	0.30588	0.09020
0.43137	0.37255	0.07059
0.50980	0.43922	0.03529
0.58824	0.50196	0.00000
0.09804	0.10980	0.12549
0.12549	0.12549	0.12549
0.17647	0.16078	0.12157
0.23922	0.21176	0.11765
0.30588	0.26667	0.10588
0.37647	0.32549	0.09412
0.45098	0.38824	0.07451
0.52549	0.45098	0.03922
0.60000	0.51373	0.00000
0.23529	0.21176	0.12941
0.24706	0.22353	0.12941
0.27451	0.24314	0.12549
0.31765	0.27843	0.12157
0.36863	0.32157	0.11373
0.42745	0.36863	0.09804
0.49020	0.42353	0.07843
0.56078	0.48235	0.04706
0.62745	0.54118	0.00000
0.36078	0.31765	0.13725
0.36863	0.32549	0.13725
0.38824	0.33725	0.13333
0.41569	0.36471	0.12941
0.45490	0.39608	0.12157
0.50196	0.43529	0.10980
0.55686	0.47843	0.09020
0.61569	0.52941	0.06275
0.67843	0.58431	0.01176
0.48627	0.42745	0.14902
0.49412	0.43137	0.14510
0.50588	0.44314	0.14510
0.52549	0.45882	0.13725
0.55686	0.48235	0.13333
0.59216	0.51373	0.12157
0.63529	0.55294	0.10588
0.68627	0.59608	0.08235
0.74118	0.63922	0.04314
0.60784	0.53333	0.16078
0.61176	0.53333	0.16078
0.61961	0.54118	0.15686
0.63529	0.55686	0.15294
0.65882	0.57647	0.14510
0.69020	0.60000	0.13725
0.72941	0.63137	0.12157
0.76863	0.66667	0.10196
0.81961	0.70980	0.07059
0.72941	0.63922	0.17647
0.73333	0.64314	0.17255
0.74118	0.64706	0.17255
0.75294	0.65882	0.16863
0.77255	0.67451	0.16078
0.80000	0.69412	0.15294
0.82745	0.72157	0.14118
0.86667	0.75294	0.12157
0.90588	0.78824	0.09804
0.85490	0.74902	0.19216
0.85882	0.74902	0.19216
0.86275	0.75294	0.18824
0.87451	0.76471	0.18431
0.89020	0.77647	0.18039
0.90980	0.79216	0.17255
0.93725	0.81569	0.16078
0.96863	0.84314	0.14510
1.00000	0.87451	0.12549
0.98039	0.85490	0.21176
0.98039	0.85882	0.20784
0.98431	0.86275	0.20784
0.99608	0.87059	0.20392
1.00000	0.88235	0.20000
1.00000	0.89412	0.19216
1.00000	0.91373	0.18431
1.00000	0.93725	0.16863
1.00000	0.96471	0.15294
0.00000	0.05490	0.25098
0.00000	0.08235	0.25098
0.02745	0.12941	0.24706
0.16078	0.18824	0.24706
0.25490	0.25098	0.24314
0.33725	0.31373	0.23529
0.41961	0.37647	0.22745
0.49804	0.44314	0.21961
0.58039	0.50588	0.20784
0.00392	0.12549	0.25098
0.05882	0.14118	0.25098
0.13333	0.17255	0.24706
0.20784	0.21961	0.24706
0.28627	0.27451	0.24314
0.36078	0.32941	0.23529
0.43922	0.39216	0.23137
0.51373	0.45490	0.21961
0.59216	0.51765	0.20784
0.20784	0.21961	0.25098
0.21961	0.23137	0.25098
0.25098	0.25098	0.25098
0.29804	0.28235	0.24706
0.35294	0.32549	0.24314
0.41176	0.37255	0.23922
0.47843	0.42745	0.23137
0.54902	0.48235	0.22353
0.61961	0.54118	0.20784
0.34510	0.32549	0.25490
0.35294	0.32941	0.25490
0.37255	0.34510	0.25490
0.40392	0.36863	0.25098
0.44314	0.40000	0.24706
0.49020	0.43922	0.24314
0.54510	0.48235	0.23529
0.60392	0.53333	0.22745
0.67059	0.58431	0.21569
0.47451	0.43137	0.26275
0.48235	0.43529	0.26275
0.49412	0.44706	0.25882
0.51373	0.46275	0.25882
0.54510	0.48627	0.25490
0.58431	0.51765	0.24706
0.62745	0.55686	0.24314
0.68235	0.59608	0.23137
0.73725	0.64314	0.21961
0.60000	0.53333	0.26667
0.60392	0.53725	0.26667
0.61176	0.54510	0.26667
0.62745	0.56078	0.26275
0.65490	0.58039	0.25882
0.68235	0.60392	0.25490
0.72157	0.63529	0.24706
0.76471	0.67059	0.23922
0.81176	0.70980	0.22745
0.72549	0.64314	0.27843
0.72941	0.64314	0.27843
0.73725	0.65098	0.27451
0.74902	0.66275	0.27451
0.76863	0.67843	0.27059
0.79216	0.69804	0.26275
0.82353	0.72549	0.25882
0.85882	0.75294	0.25098
0.90196	0.78824	0.23922
0.85098	0.74902	0.28627
0.85098	0.75294	0.28627
0.85882	0.75686	0.28627
0.87059	0.76471	0.28235
0.88627	0.78039	0.28235
0.90588	0.79608	0.27451
0.93333	0.81961	0.27059
0.96471	0.84314	0.26275
1.00000	0.87451	0.25098
0.97255	0.85882	0.29804
0.97647	0.85882	0.29804
0.98039	0.86275	0.29804
0.98824	0.87059	0.29412
1.00000	0.88235	0.29412
1.00000	0.89804	0.28627
1.00000	0.91373	0.28235
1.00000	0.93725	0.27451
1.00000	0.96471	0.26667
0.00000	0.09804	0.37647
0.00000	0.11765	0.37647
0.00000	0.15294	0.37255
0.06275	0.20392	0.37255
0.20784	0.26275	0.36863
0.30588	0.32157	0.36863
0.39608	0.38431	0.36078
0.47843	0.44706	0.35686
0.56078	0.51373	0.34902
0.00000	0.15294	0.37647
0.00000	0.16471	0.37647
0.00000	0.19216	0.37647
0.14510	0.23529	0.37255
0.24706	0.28627	0.37255
0.32941	0.34118	0.36863
0.41569	0.40000	0.36471
0.49412	0.45882	0.35686
0.57647	0.52157	0.34902
0.14510	0.23529	0.37647
0.16078	0.24314	0.37647
0.20392	0.26275	0.37647
0.25882	0.29412	0.37255
0.32157	0.33725	0.37255
0.38824	0.38039	0.36863
0.45882	0.43529	0.36471
0.53333	0.49020	0.35686
0.60784	0.54902	0.35294
0.31373	0.33333	0.38039
0.32157	0.34118	0.38039
0.34510	0.35294	0.37647
0.37647	0.37647	0.37647
0.41961	0.40784	0.37255
0.47059	0.44314	0.37255
0.52941	0.49020	0.36471
0.59216	0.53725	0.36078
0.65490	0.59216	0.35294
0.45490	0.43922	0.38431
0.46275	0.44314	0.38039
0.47451	0.45098	0.38039
0.49804	0.47059	0.38039
0.52941	0.49412	0.37647
0.56863	0.52157	0.37255
0.61569	0.56078	0.36863
0.66667	0.60000	0.36471
0.72549	0.64706	0.35686
0.58431	0.54118	0.38824
0.58824	0.54118	0.38824
0.59608	0.54902	0.38431
0.61569	0.56471	0.38431
0.63922	0.58431	0.38039
0.67059	0.60784	0.38039
0.70980	0.63922	0.37647
0.75294	0.67451	0.36863
0.80392	0.71373	0.36078
0.71373	0.64706	0.39216
0.71373	0.64706	0.39216
0.72549	0.65490	0.39216
0.73725	0.66667	0.38824
0.75686	0.68235	0.38824
0.78431	0.70196	0.38431
0.81569	0.72549	0.38039
0.85098	0.75686	0.37647
0.89412	0.79216	0.36863
0.83922	0.75294	0.40000
0.84314	0.75686	0.40000
0.85098	0.76078	0.40000
0.85882	0.76863	0.39608
0.87451	0.78039	0.39608
0.89804	0.80000	0.39216
0.92549	0.81961	0.38824
0.95686	0.84706	0.38431
0.99216	0.87843	0.37647
0.96471	0.85882	0.40784
0.96863	0.86275	0.40784
0.97255	0.86667	0.40784
0.98431	0.87451	0.40392
0.99608	0.88627	0.40392
1.00000	0.89804	0.40000
1.00000	0.91765	0.39608
1.00000	0.94118	0.39216
1.00000	0.96863	0.38431
0.00000	0.14118	0.50196
0.00000	0.15686	0.50196
0.00000	0.18431	0.49804
0.00000	0.22745	0.49804
0.09412	0.28235	0.49804
0.24706	0.33725	0.49412
0.35294	0.39608	0.49020
0.45098	0.45882	0.48627
0.53725	0.52157	0.48235
0.00000	0.18431	0.50196
0.00000	0.19216	0.50196
0.00000	0.21961	0.49804
0.00000	0.25490	0.49804
0.16471	0.30196	0.49804
0.27843	0.35294	0.49412
0.37647	0.41176	0.49020
0.46667	0.47059	0.49020
0.55294	0.53333	0.48235
0.00000	0.25882	0.50196
0.00000	0.26667	0.50196
0.08235	0.28235	0.50196
0.18431	0.30980	0.49804
0.26667	0.34902	0.49804
0.34902	0.39216	0.49412
0.42745	0.44314	0.49412
0.50588	0.49804	0.49020
0.58431	0.55686	0.48235
0.25882	0.34902	0.50196
0.27059	0.35294	0.50196
0.29412	0.36863	0.50196
0.33333	0.38824	0.50196
0.38431	0.41961	0.49804
0.43922	0.45490	0.49804
0.50196	0.49804	0.49412
0.56863	0.54510	0.49020
0.63529	0.59608	0.48627
0.42353	0.44706	0.50588
0.42745	0.45098	0.50588
0.44314	0.46275	0.50588
0.46667	0.47843	0.50196
0.50196	0.50196	0.50196
0.54118	0.52941	0.49804
0.59216	0.56863	0.49804
0.64706	0.60784	0.49412
0.70588	0.65490	0.49020
0.56078	0.54902	0.50980
0.56471	0.54902	0.50980
0.57255	0.55686	0.50588
0.59216	0.57255	0.50588
0.61961	0.59216	0.50588
0.65098	0.61569	0.50196
0.69020	0.64314	0.49804
0.73725	0.67843	0.49412
0.78824	0.72157	0.49020
0.69412	0.65098	0.51373
0.69804	0.65490	0.51373
0.70588	0.66275	0.50980
0.72157	0.67059	0.50980
0.74118	0.68627	0.50980
0.76471	0.70588	0.50588
0.80000	0.73333	0.50588
0.83529	0.76471	0.50196
0.88235	0.79608	0.49412
0.82353	0.75686	0.51765
0.82745	0.76078	0.51765
0.83529	0.76471	0.51765
0.84706	0.77255	0.51765
0.86275	0.78824	0.51373
0.88235	0.80392	0.50980
0.90980	0.82745	0.50980
0.94510	0.85098	0.50588
0.98039	0.88235	0.50196
0.95294	0.86275	0.52157
0.95686	0.86667	0.52157
0.96078	0.87059	0.52157
0.97255	0.87843	0.52157
0.98431	0.89020	0.52157
1.00000	0.90196	0.51765
1.00000	0.92157	0.51373
1.00000	0.94510	0.50980
1.00000	0.97255	0.50588
0.00000	0.18431	0.62353
0.00000	0.19608	0.61961
0.00000	0.21961	0.61961
0.00000	0.25882	0.61961
0.00000	0.30588	0.61961
0.12941	0.35686	0.61569
0.29020	0.41176	0.61569
0.40392	0.47059	0.61176
0.50196	0.53333	0.60784
0.00000	0.21569	0.62353
0.00000	0.22745	0.62353
0.00000	0.24706	0.61961
0.00000	0.28235	0.61961
0.00000	0.32549	0.61961
0.18431	0.37255	0.61569
0.31765	0.42745	0.61569
0.42353	0.48235	0.61176
0.51765	0.54118	0.60784
0.00000	0.28235	0.62353
0.00000	0.29020	0.62353
0.00000	0.30588	0.62353
0.00000	0.33333	0.61961
0.16863	0.36863	0.61961
0.28235	0.40784	0.61961
0.37647	0.45882	0.61569
0.46667	0.50980	0.61176
0.55294	0.56471	0.60784
0.15294	0.36863	0.62353
0.17255	0.37255	0.62353
0.20784	0.38431	0.62353
0.26275	0.40392	0.62353
0.32549	0.43529	0.61961
0.39216	0.46667	0.61961
0.46275	0.50980	0.61569
0.53333	0.55686	0.61569
0.60784	0.60784	0.61176
0.37255	0.46275	0.62745
0.38039	0.46667	0.62353
0.39608	0.47451	0.62353
0.42353	0.49020	0.62353
0.46275	0.51373	0.62353
0.50980	0.54118	0.61961
0.56078	0.57647	0.61961
0.61961	0.61961	0.61569
0.68235	0.66275	0.61176
0.52549	0.55686	0.62745
0.52941	0.56078	0.62745
0.54118	0.56863	0.62745
0.56078	0.58039	0.62745
0.58824	0.60000	0.62353
0.62353	0.62353	0.62353
0.66667	0.65490	0.61961
0.71373	0.68627	0.61961
0.76471	0.72941	0.61569
0.67059	0.66275	0.63137
0.67451	0.66275	0.63137
0.68235	0.67059	0.63137
0.69412	0.67843	0.63137
0.71765	0.69412	0.62745
0.74510	0.71373	0.62745
0.77647	0.74118	0.62353
0.81569	0.76863	0.62353
0.86275	0.80392	0.61961
0.80392	0.76471	0.63529
0.80784	0.76863	0.63529
0.81569	0.77255	0.63529
0.82745	0.78039	0.63529
0.84314	0.79216	0.63137
0.86667	0.80784	0.63137
0.89412	0.83137	0.62745
0.92549	0.85882	0.62353
0.96471	0.88627	0.62353
0.93725	0.87059	0.63922
0.94118	0.87059	0.63922
0.94510	0.87451	0.63922
0.95294	0.88235	0.63922
0.96863	0.89412	0.63529
0.98824	0.90980	0.63529
1.00000	0.92549	0.63137
1.00000	0.94902	0.63137
1.00000	0.97647	0.62745
0.00000	0.23137	0.74510
0.00000	0.23922	0.74510
0.00000	0.25882	0.74510
0.00000	0.29020	0.74510
0.00000	0.32941	0.74510
0.00000	0.37647	0.74510
0.16078	0.43137	0.74118
0.32941	0.48627	0.74118
0.45098	0.54510	0.73725
0.00000	0.25490	0.74510
0.00000	0.26275	0.74510
0.00000	0.28235	0.74510
0.00000	0.30980	0.74510
0.00000	0.34902	0.74510
0.00000	0.39216	0.74510
0.21176	0.44314	0.74118
0.35294	0.49804	0.74118
0.46667	0.55686	0.73725
0.00000	0.30980	0.74902
0.00000	0.31765	0.74902
0.00000	0.33333	0.74510
0.00000	0.35686	0.74510
0.00000	0.38824	0.74510
0.14510	0.42745	0.74510
0.29804	0.47451	0.74118
0.40784	0.52549	0.74118
0.50588	0.58039	0.73725
0.00000	0.38824	0.74902
0.00000	0.39216	0.74902
0.00000	0.40392	0.74902
0.10196	0.42353	0.74902
0.22353	0.45098	0.74510
0.31373	0.48627	0.74510
0.40392	0.52549	0.74510
0.48627	0.56863	0.74118
0.56863	0.61961	0.73725
0.29020	0.47843	0.74902
0.29804	0.48235	0.74902
0.32157	0.49020	0.74902
0.35686	0.50588	0.74902
0.40392	0.52941	0.74902
0.45490	0.55686	0.74510
0.51765	0.58824	0.74510
0.58039	0.62745	0.74118
0.64706	0.67451	0.74118
0.47843	0.57255	0.75294
0.48235	0.57255	0.75294
0.49412	0.58039	0.75294
0.51765	0.59216	0.74902
0.54902	0.61176	0.74902
0.58431	0.63529	0.74902
0.63137	0.66275	0.74510
0.68235	0.69804	0.74510
0.73725	0.73725	0.74118
0.63529	0.67059	0.75294
0.63922	0.67451	0.75294
0.64706	0.67843	0.75294
0.66275	0.69020	0.75294
0.68627	0.70588	0.75294
0.71373	0.72549	0.74902
0.74902	0.74902	0.74902
0.79216	0.78039	0.74902
0.83529	0.81176	0.74510
0.77647	0.77255	0.75686
0.78039	0.77647	0.75686
0.78824	0.78039	0.75686
0.80000	0.78824	0.75686
0.81569	0.80392	0.75686
0.83922	0.81961	0.75294
0.87059	0.83922	0.75294
0.90196	0.86667	0.74902
0.94510	0.89412	0.74510
0.91373	0.87843	0.76078
0.91765	0.87843	0.76078
0.92157	0.88235	0.76078
0.93333	0.89020	0.76078
0.94902	0.90196	0.75686
0.96471	0.91765	0.75686
0.99216	0.93333	0.75686
1.00000	0.95686	0.75294
1.00000	0.98431	0.74902
0.00000	0.27451	0.87059
0.00000	0.28235	0.87059
0.00000	0.29804	0.87059
0.00000	0.32549	0.87059
0.00000	0.36078	0.87059
0.00000	0.40392	0.87059
0.00000	0.45490	0.86667
0.19608	0.50588	0.86667
0.36863	0.56471	0.86275
0.00000	0.29412	0.87059
0.00000	0.30196	0.87059
0.00000	0.31765	0.87059
0.00000	0.34118	0.87059
0.00000	0.37647	0.87059
0.00000	0.41961	0.87059
0.00000	0.46667	0.86667
0.23529	0.51765	0.86667
0.39216	0.57255	0.86275
0.00000	0.34510	0.87451
0.00000	0.34902	0.87451
0.00000	0.36078	0.87059
0.00000	0.38431	0.87059
0.00000	0.41569	0.87059
0.00000	0.45098	0.87059
0.12549	0.49412	0.86667
0.31373	0.54510	0.86667
0.43922	0.59608	0.86275
0.00000	0.41569	0.87451
0.00000	0.41961	0.87451
0.00000	0.42745	0.87451
0.00000	0.44706	0.87451
0.00000	0.47059	0.87059
0.16863	0.50588	0.87059
0.30980	0.54118	0.87059
0.41569	0.58431	0.86667
0.50980	0.63529	0.86667
0.10980	0.49804	0.87451
0.13333	0.50196	0.87451
0.18039	0.50980	0.87451
0.23922	0.52549	0.87451
0.30980	0.54510	0.87451
0.37647	0.57255	0.87059
0.45098	0.60392	0.87059
0.52549	0.64314	0.86667
0.60000	0.68627	0.86667
0.40392	0.58824	0.87451
0.41176	0.58824	0.87451
0.42745	0.59608	0.87451
0.45098	0.60784	0.87451
0.48627	0.62745	0.87451
0.52941	0.65098	0.87451
0.58039	0.67843	0.87059
0.63529	0.70980	0.87059
0.69804	0.74902	0.86667
0.58824	0.68627	0.87843
0.59216	0.68627	0.87843
0.60000	0.69412	0.87843
0.61569	0.70196	0.87843
0.64314	0.71765	0.87843
0.67451	0.73725	0.87451
0.70980	0.76078	0.87451
0.75686	0.78824	0.87059
0.80392	0.82353	0.87059
0.74118	0.78431	0.88235
0.74510	0.78824	0.87843
0.75294	0.79216	0.87843
0.76471	0.80000	0.87843
0.78431	0.81176	0.87843
0.80784	0.82745	0.87843
0.83922	0.85098	0.87843
0.87451	0.87451	0.87451
0.91765	0.90196	0.87059
0.88627	0.88627	0.88235
0.88627	0.89020	0.88235
0.89412	0.89412	0.88235
0.90588	0.89804	0.88235
0.92157	0.90980	0.88235
0.94118	0.92549	0.88235
0.96471	0.94118	0.87843
0.99608	0.96471	0.87843
1.00000	0.98824	0.87451
0.00000	0.31765	1.00000
0.00000	0.32549	0.99608
0.00000	0.33725	0.99608
0.00000	0.36078	0.99608
0.00000	0.39608	0.99608
0.00000	0.43529	0.99608
0.00000	0.47843	0.99216
0.00000	0.52941	0.99216
0.23137	0.58431	0.98824
0.00000	0.33725	1.00000
0.00000	0.34118	1.00000
0.00000	0.35686	1.00000
0.00000	0.37647	0.99608
0.00000	0.40784	0.99608
0.00000	0.44706	0.99608
0.00000	0.49020	0.99216
0.00000	0.54118	0.99216
0.26667	0.59216	0.99216
0.00000	0.38039	1.00000
0.00000	0.38431	1.00000
0.00000	0.39608	1.00000
0.00000	0.41569	1.00000
0.00000	0.44314	0.99608
0.00000	0.47843	0.99608
0.00000	0.51765	0.99608
0.10980	0.56471	0.99216
0.33725	0.61176	0.99216
0.00000	0.44314	1.00000
0.00000	0.44706	1.00000
0.00000	0.45490	1.00000
0.00000	0.47451	1.00000
0.00000	0.49804	1.00000
0.00000	0.52549	0.99608
0.08627	0.56471	0.99608
0.30196	0.60392	0.99216
0.43137	0.65098	0.99216
0.00000	0.52157	1.00000
0.00000	0.52549	1.00000
0.00000	0.53333	1.00000
0.00000	0.54510	1.00000
0.09020	0.56471	1.00000
0.24706	0.59216	1.00000
0.35294	0.62353	0.99608
0.44706	0.65882	0.99608
0.53725	0.70196	0.99216
0.28627	0.60392	1.00000
0.29804	0.60784	1.00000
0.31765	0.61569	1.00000
0.35686	0.62745	1.00000
0.40000	0.64314	1.00000
0.45490	0.66667	1.00000
0.51373	0.69412	0.99608
0.58039	0.72549	0.99608
0.64706	0.76078	0.99216
0.52157	0.70196	1.00000
0.52549	0.70196	1.00000
0.53725	0.70588	1.00000
0.55686	0.71765	1.00000
0.58431	0.73333	1.00000
0.61961	0.74902	1.00000
0.66275	0.77255	1.00000
0.70980	0.80000	1.00000
0.76078	0.83529	0.99608
0.69412	0.79608	1.00000
0.69804	0.80000	1.00000
0.70588	0.80392	1.00000
0.72157	0.81176	1.00000
0.74118	0.82353	1.00000
0.76471	0.83922	1.00000
0.80000	0.86275	1.00000
0.83529	0.88627	1.00000
0.88235	0.91373	1.00000
0.85098	0.89804	1.00000
0.85098	0.89804	1.00000
0.85882	0.90196	1.00000
0.87059	0.90980	1.00000
0.88627	0.92157	1.00000
0.90588	0.93333	1.00000
0.93333	0.95294	1.00000
0.96471	0.97255	1.00000
1.00000	1.00000	1.00000
