LUTGenerator/TEST/CUBE/ChannelMixing/BlueYellow_aBlanked_sRGB.cube
TITLE test.cube
LUT_3D_SIZE 5
DOMAIN_MIN 0.0 0.0 0.0
DOMAIN_MAX 1.0 1.0 1.0
0.00000	0.00000	0.00000
0.13333	0.10588	0.00000
0.28627	0.23922	0.00000
0.43922	0.36863	0.00000
0.59216	0.50196	0.00000
0.24706	0.20784	0.01569
0.28235	0.23922	0.00392
0.37255	0.31765	0.00000
0.49412	0.42353	0.00000
0.63137	0.54118	0.00000
0.49020	0.42745	0.05882
0.50980	0.43922	0.05098
0.56078	0.48235	0.01569
0.63922	0.54902	0.00000
0.74510	0.63922	0.00000
0.73333	0.63922	0.10980
0.74510	0.64706	0.10588
0.77647	0.67451	0.08627
0.83137	0.72157	0.03922
0.90980	0.78824	0.00000
0.98039	0.85490	0.16078
0.98824	0.86275	0.15686
1.00000	0.87843	0.14510
1.00000	0.91373	0.12157
1.00000	0.96471	0.07059
0.00000	0.05490	0.25098
0.02745	0.12941	0.24706
0.25490	0.25098	0.24314
0.41961	0.37647	0.22745
0.58039	0.50588	0.20784
0.20784	0.21961	0.25098
0.25098	0.25098	0.25098
0.35294	0.32549	0.24314
0.47843	0.42745	0.23137
0.61961	0.54118	0.20784
0.47451	0.43137	0.26275
0.49412	0.44706	0.25882
0.54510	0.48627	0.25490
0.62745	0.55686	0.24314
0.73725	0.64314	0.21961
0.72549	0.64314	0.27843
0.73725	0.65098	0.27451
0.76863	0.67843	0.27059
0.82353	0.72549	0.25882
0.90196	0.78824	0.23922
0.97255	0.85882	0.29804
0.98039	0.86275	0.29804
1.00000	0.88235	0.29412
1.00000	0.91373	0.28235
1.00000	0.96471	0.26667
0.00000	0.14118	0.50196
0.00000	0.18431	0.49804
0.09412	0.28235	0.49804
0.35294	0.39608	0.49020
0.53725	0.52157	0.48235
0.00000	0.25882	0.50196
0.08235	0.28235	0.50196
0.26667	0.34902	0.49804
0.42745	0.44314	0.49412
0.58431	0.55686	0.48235
0.42353	0.44706	0.50588
0.44314	0.46275	0.50588
0.50196	0.50196	0.50196
0.59216	0.56863	0.49804
0.70588	0.65490	0.49020
0.69412	0.65098	0.51373
0.70588	0.66275	0.50980
0.74118	0.68627	0.50980
0.80000	0.73333	0.50588
0.88235	0.79608	0.49412
0.95294	0.86275	0.52157
0.96078	0.87059	0.52157
0.98431	0.89020	0.52157
1.00000	0.92157	0.51373
1.00000	0.97255	0.50588
0.00000	0.23137	0.74510
0.00000	0.25882	0.74510
0.00000	0.32941	0.74510
0.16078	0.43137	0.74118
0.45098	0.54510	0.73725
0.00000	0.30980	0.74902
0.00000	0.33333	0.74510
0.00000	0.38824	0.74510
0.29804	0.47451	0.74118
0.50588	0.58039	0.73725
0.29020	0.47843	0.74902
0.32157	0.49020	0.74902
0.40392	0.52941	0.74902
0.51765	0.58824	0.74510
0.64706	0.67451	0.74118
0.63529	0.67059	0.75294
0.64706	0.67843	0.75294
0.68627	0.70588	0.75294
0.74902	0.74902	0.74902
0.83529	0.81176	0.74510
0.91373	0.87843	0.76078
0.92157	0.88235	0.76078
0.94902	0.90196	0.75686
0.99216	0.93333	0.75686
1.00000	0.98431	0.74902
0.00000	0.31765	1.00000
0.00000	0.33725	0.99608
0.00000	0.39608	0.99608
0.00000	0.47843	0.99216
0.23137	0.58431	0.98824
0.00000	0.38039	1.00000
0.00000	0.39608	1.00000
0.00000	0.44314	0.99608
0.00000	0.51765	0.99608
0.33725	0.61176	0.99216
0.00000	0.52157	1.00000
0.00000	0.53333	1.00000
0.09020	0.56471	1.00000
0.35294	0.62353	0.99608
0.53725	0.70196	0.99216
0.52157	0.70196	1.00000
0.53725	0.70588	1.00000
0.58431	0.73333	1.00000
0.66275	0.77255	1.00000
0.76078	0.83529	0.99608
0.85098	0.89804	1.00000
0.85882	0.90196	1.00000
0.88627	0.92157	1.00000
0.93333	0.95294	1.00000
1.00000	1.00000	1.00000
