LUTGenerator/TEST/CUBE/ChannelMixing/BlueYellow_MixedThenABlanked_sRGB.cube
TITLE BlueYellow_MixedThenABlanked_sRGB.cube
LUT_3D_SIZE 17
DOMAIN_MIN 0.0 0.0 0.0
DOMAIN_MAX 1.0 1.0 1.0
0.00000	0.00000	0.00000
0.03922	0.02745	0.00000
0.07451	0.05882	0.00000
0.10980	0.09020	0.00000
0.14510	0.11765	0.00000
0.17647	0.14902	0.00000
0.21176	0.18039	0.00000
0.24706	0.21176	0.00392
0.28235	0.23922	0.00392
0.31373	0.26667	0.00392
0.34902	0.29804	0.00392
0.38431	0.32941	0.00784
0.41961	0.36078	0.00784
0.45098	0.38824	0.01176
0.48627	0.41961	0.01176
0.52157	0.45098	0.01569
0.55686	0.47843	0.01569
0.03922	0.02745	0.00000
0.07451	0.05882	0.00000
0.10980	0.09020	0.00000
0.14510	0.11765	0.00000
0.17647	0.14902	0.00000
0.21176	0.18039	0.00000
0.24706	0.20784	0.00392
0.28235	0.23922	0.00392
0.31765	0.27059	0.00392
0.34902	0.29804	0.00784
0.38431	0.32941	0.00784
0.41961	0.36078	0.00784
0.45490	0.38824	0.01176
0.48627	0.41961	0.01176
0.52157	0.45098	0.01569
0.55686	0.47843	0.01569
0.59216	0.50980	0.01961
0.07451	0.05882	0.00000
0.10980	0.09020	0.00000
0.14510	0.11765	0.00000
0.18039	0.14902	0.00000
0.21176	0.18039	0.00000
0.24706	0.21176	0.00392
0.28235	0.23922	0.00392
0.31765	0.27059	0.00392
0.35294	0.30196	0.00784
0.38431	0.32941	0.00784
0.41961	0.36078	0.00784
0.45490	0.38824	0.01176
0.48627	0.41961	0.01176
0.52157	0.45098	0.01569
0.55686	0.47843	0.01569
0.59216	0.50980	0.01961
0.62745	0.54118	0.02353
0.10980	0.09020	0.00000
0.14510	0.11765	0.00000
0.18039	0.14902	0.00000
0.21176	0.18039	0.00000
0.24706	0.20784	0.00392
0.28235	0.23922	0.00392
0.31765	0.27059	0.00392
0.35294	0.30196	0.00784
0.38431	0.32941	0.00784
0.41961	0.36078	0.00784
0.45490	0.38824	0.01176
0.48627	0.41961	0.01176
0.52157	0.45098	0.01569
0.55686	0.48235	0.01569
0.59216	0.50980	0.01961
0.62745	0.54118	0.02353
0.65882	0.57255	0.02353
0.14510	0.11765	0.00000
0.17647	0.14902	0.00000
0.21176	0.18039	0.00000
0.24706	0.21176	0.00392
0.28235	0.23922	0.00392
0.31765	0.27059	0.00392
0.35294	0.30196	0.00784
0.38824	0.32941	0.00784
0.41961	0.36078	0.00784
0.45098	0.38824	0.01176
0.48627	0.41961	0.01176
0.52157	0.45098	0.01569
0.55686	0.48235	0.01569
0.59216	0.50980	0.01961
0.62745	0.54118	0.01961
0.66275	0.57255	0.02353
0.69412	0.60000	0.02745
0.17647	0.14902	0.00000
0.21176	0.18039	0.00000
0.24706	0.21176	0.00392
0.28235	0.23922	0.00392
0.31765	0.27059	0.00392
0.35294	0.30196	0.00392
0.38431	0.32941	0.00784
0.41961	0.36078	0.00784
0.45490	0.39216	0.01176
0.48627	0.41961	0.01176
0.52157	0.45098	0.01569
0.55686	0.47843	0.01569
0.59216	0.50980	0.01961
0.62745	0.54118	0.02353
0.66275	0.57255	0.02353
0.69412	0.60000	0.02745
0.72941	0.63137	0.03137
0.21176	0.18039	0.00000
0.24706	0.21176	0.00392
0.28235	0.23922	0.00392
0.31765	0.27059	0.00392
0.35294	0.30196	0.00784
0.38431	0.32941	0.00784
0.41961	0.36078	0.00784
0.45490	0.39216	0.01176
0.49020	0.42353	0.01176
0.52157	0.45098	0.01569
0.55686	0.48235	0.01569
0.59216	0.50980	0.01961
0.62745	0.54118	0.02353
0.65882	0.57255	0.02353
0.69412	0.60000	0.02745
0.72941	0.63137	0.03137
0.76471	0.66275	0.03529
0.24706	0.21176	0.00392
0.28235	0.23922	0.00392
0.31765	0.27059	0.00392
0.35294	0.30196	0.00784
0.38431	0.32941	0.00784
0.41961	0.36078	0.00784
0.45490	0.39216	0.01176
0.49020	0.42353	0.01176
0.52549	0.45098	0.01569
0.55686	0.48235	0.01569
0.59216	0.50980	0.01961
0.62745	0.54118	0.02353
0.65882	0.57255	0.02353
0.69412	0.60000	0.02745
0.72941	0.63137	0.03137
0.76471	0.66275	0.03529
0.80000	0.69412	0.03922
0.28235	0.23922	0.00392
0.31765	0.27059	0.00392
0.35294	0.30196	0.00784
0.38431	0.32941	0.00784
0.41961	0.36078	0.00784
0.45490	0.39216	0.01176
0.49020	0.42353	0.01176
0.52549	0.45098	0.01569
0.56078	0.48235	0.01569
0.59216	0.50980	0.01961
0.62745	0.54118	0.02353
0.65882	0.57255	0.02353
0.69412	0.60000	0.02745
0.72941	0.63137	0.03137
0.76471	0.66275	0.03529
0.80000	0.69412	0.03922
0.83529	0.72157	0.03922
0.31373	0.26667	0.00392
0.34902	0.29804	0.00392
0.38431	0.32941	0.00784
0.41961	0.36078	0.00784
0.45490	0.38824	0.01176
0.48627	0.41961	0.01176
0.52157	0.45098	0.01569
0.55686	0.48235	0.01569
0.59216	0.50980	0.01961
0.62353	0.53725	0.01961
0.65882	0.56863	0.02353
0.69412	0.60000	0.02745
0.72941	0.63137	0.03137
0.76471	0.65882	0.03529
0.79608	0.69020	0.03922
0.83137	0.72157	0.03922
0.86667	0.74902	0.04314
0.34902	0.29804	0.00784
0.38431	0.32941	0.00784
0.41961	0.36078	0.00784
0.45490	0.38824	0.01176
0.48627	0.41961	0.01176
0.52157	0.45098	0.01569
0.55686	0.48235	0.01569
0.59216	0.50980	0.01961
0.62745	0.54118	0.01961
0.65882	0.56863	0.02353
0.69412	0.60000	0.02745
0.72941	0.63137	0.03137
0.76078	0.65882	0.03529
0.79608	0.69020	0.03922
0.83137	0.72157	0.03922
0.86667	0.75294	0.04314
0.90196	0.78039	0.04706
0.38431	0.32941	0.00784
0.41961	0.36078	0.00784
0.45490	0.38824	0.01176
0.48627	0.41961	0.01176
0.52157	0.45098	0.01569
0.55686	0.47843	0.01569
0.59216	0.50980	0.01961
0.62745	0.54118	0.01961
0.66275	0.57255	0.02353
0.69412	0.60000	0.02745
0.72941	0.63137	0.03137
0.76078	0.65882	0.03529
0.79608	0.69020	0.03529
0.83137	0.72157	0.03922
0.86667	0.75294	0.04314
0.90196	0.78039	0.04706
0.93725	0.81176	0.05098
0.41961	0.36078	0.00784
0.45490	0.38824	0.01176
0.48627	0.41961	0.01176
0.52157	0.45098	0.01569
0.55686	0.48235	0.01569
0.59216	0.50980	0.01961
0.62745	0.54118	0.02353
0.65882	0.57255	0.02353
0.69412	0.60000	0.02745
0.72941	0.63137	0.03137
0.76078	0.65882	0.03529
0.79608	0.69020	0.03529
0.83137	0.72157	0.03922
0.86667	0.75294	0.04314
0.90196	0.78039	0.04706
0.93333	0.81176	0.05098
0.96863	0.84314	0.05490
0.45490	0.38824	0.01176
0.48627	0.41961	0.01176
0.52157	0.45098	0.01569
0.55686	0.47843	0.01569
0.59216	0.50980	0.01961
0.62745	0.54118	0.02353
0.65882	0.57255	0.02353
0.69412	0.60000	0.02745
0.72941	0.63137	0.03137
0.76078	0.65882	0.03137
0.79608	0.69020	0.03529
0.83137	0.72157	0.03922
0.86667	0.75294	0.04314
0.90196	0.78039	0.04706
0.93333	0.81176	0.05098
0.96863	0.84314	0.05490
1.00000	0.87059	0.05882
0.48627	0.41961	0.01176
0.52157	0.45098	0.01569
0.55686	0.47843	0.01569
0.59216	0.50980	0.01961
0.62745	0.54118	0.02353
0.65882	0.57255	0.02353
0.69412	0.60000	0.02745
0.72941	0.63137	0.03137
0.76471	0.66275	0.03529
0.79608	0.69020	0.03529
0.83137	0.72157	0.03922
0.86667	0.75294	0.04314
0.90196	0.78039	0.04706
0.93333	0.81176	0.05098
0.96863	0.84314	0.05490
1.00000	0.87059	0.05882
1.00000	0.90196	0.06275
0.52157	0.45098	0.01569
0.55686	0.48235	0.01569
0.59216	0.50980	0.01961
0.62745	0.54118	0.02353
0.65882	0.57255	0.02353
0.69412	0.60000	0.02745
0.72941	0.63137	0.03137
0.76471	0.66275	0.03529
0.80000	0.69412	0.03922
0.83137	0.72157	0.03922
0.86667	0.74902	0.04314
0.90196	0.78039	0.04706
0.93725	0.81176	0.05098
0.96863	0.84314	0.05490
1.00000	0.87059	0.05882
1.00000	0.90196	0.06275
1.00000	0.93333	0.06667
0.55686	0.47843	0.01569
0.59216	0.50980	0.01961
0.62745	0.54118	0.02353
0.65882	0.57255	0.02353
0.69412	0.60000	0.02745
0.72941	0.63137	0.03137
0.76471	0.66275	0.03529
0.80000	0.69412	0.03922
0.83529	0.72157	0.04314
0.86667	0.75294	0.04314
0.90196	0.78039	0.04706
0.93333	0.81176	0.05098
0.96863	0.84314	0.05490
1.00000	0.87059	0.05882
1.00000	0.90196	0.06275
1.00000	0.93333	0.06667
1.00000	0.96471	0.07059
0.00000	0.00392	0.06275
0.02353	0.03529	0.06275
0.06275	0.06275	0.06275
0.10196	0.09020	0.06275
0.13725	0.12157	0.06275
0.17255	0.15294	0.06275
0.20784	0.18039	0.06275
0.24314	0.21176	0.06275
0.27843	0.24314	0.06667
0.31373	0.27059	0.06667
0.34510	0.29804	0.06667
0.38039	0.32941	0.06667
0.41569	0.36078	0.07059
0.45098	0.39216	0.07059
0.48627	0.41961	0.07059
0.52157	0.45098	0.07059
0.55686	0.48235	0.07451
0.02353	0.03529	0.06275
0.06275	0.06275	0.06275
0.10196	0.09412	0.06275
0.13725	0.12157	0.06275
0.17255	0.15294	0.06275
0.20784	0.18039	0.06275
0.24314	0.21176	0.06275
0.27843	0.24314	0.06667
0.31373	0.27059	0.06667
0.34510	0.29804	0.06667
0.38039	0.32941	0.06667
0.41569	0.36078	0.07059
0.45098	0.38824	0.07059
0.48627	0.41961	0.07059
0.52157	0.45098	0.07059
0.55686	0.48235	0.07451
0.59216	0.50980	0.07451
0.06275	0.06275	0.06275
0.10196	0.09020	0.06275
0.13725	0.12157	0.06275
0.17255	0.15294	0.06275
0.20784	0.18039	0.06275
0.24314	0.21176	0.06275
0.27843	0.24314	0.06667
0.31373	0.27059	0.06667
0.34902	0.30196	0.06667
0.38039	0.32941	0.06667
0.41569	0.36078	0.07059
0.45098	0.39216	0.07059
0.48627	0.41961	0.07059
0.52157	0.45098	0.07059
0.55686	0.48235	0.07451
0.59216	0.50980	0.07451
0.62353	0.54118	0.07843
0.10196	0.09020	0.06275
0.13725	0.12157	0.06275
0.17255	0.15294	0.06275
0.20784	0.18039	0.06275
0.24314	0.21176	0.06275
0.27843	0.24314	0.06667
0.31373	0.27059	0.06667
0.34902	0.30196	0.06667
0.38431	0.33333	0.06667
0.41569	0.36078	0.06667
0.45098	0.39216	0.07059
0.48627	0.41961	0.07059
0.52157	0.45098	0.07059
0.55686	0.48235	0.07451
0.59216	0.50980	0.07451
0.62353	0.54118	0.07843
0.65882	0.57255	0.07843
0.13725	0.12157	0.06275
0.17255	0.15294	0.06275
0.20784	0.18039	0.06275
0.24314	0.21176	0.06667
0.27843	0.24314	0.06667
0.31373	0.27059	0.06667
0.34902	0.30196	0.06667
0.38431	0.33333	0.06667
0.41961	0.36078	0.07059
0.45098	0.39216	0.07059
0.48627	0.41961	0.07059
0.52157	0.45098	0.07451
0.55686	0.48235	0.07451
0.59216	0.50980	0.07451
0.62353	0.54118	0.07843
0.65882	0.57255	0.07843
0.69412	0.60000	0.08235
0.17255	0.15294	0.06275
0.20784	0.18039	0.06275
0.24314	0.21176	0.06275
0.27843	0.23922	0.06667
0.31373	0.27059	0.06667
0.34902	0.30196	0.06667
0.38431	0.32941	0.06667
0.41961	0.36078	0.07059
0.45490	0.39216	0.07059
0.48627	0.41961	0.07059
0.52157	0.45098	0.07059
0.55686	0.48235	0.07451
0.59216	0.50980	0.07451
0.62353	0.54118	0.07843
0.65882	0.57255	0.07843
0.69412	0.60392	0.08235
0.72941	0.63137	0.08235
0.20784	0.18039	0.06275
0.24314	0.21176	0.06275
0.27843	0.24314	0.06667
0.31373	0.27059	0.06667
0.34902	0.30196	0.06667
0.38431	0.33333	0.06667
0.41961	0.36078	0.06667
0.45490	0.39216	0.07059
0.49020	0.42353	0.07059
0.52157	0.45098	0.07059
0.55686	0.48235	0.07451
0.59216	0.50980	0.07451
0.62353	0.54118	0.07843
0.65882	0.57255	0.07843
0.69412	0.60000	0.07843
0.72941	0.63137	0.08235
0.76471	0.66275	0.08627
0.24314	0.21176	0.06275
0.27843	0.24314	0.06667
0.31373	0.27059	0.06667
0.34902	0.30196	0.06667
0.38431	0.33333	0.06667
0.41961	0.36078	0.06667
0.45490	0.39216	0.07059
0.49020	0.42353	0.07059
0.52157	0.45098	0.07451
0.55686	0.48235	0.07451
0.58824	0.50980	0.07451
0.62353	0.54118	0.07843
0.65882	0.57255	0.07843
0.69412	0.60000	0.08235
0.72941	0.63137	0.08235
0.76471	0.66275	0.08627
0.80000	0.69412	0.08627
0.27843	0.24314	0.06667
0.31373	0.27059	0.06667
0.34902	0.30196	0.06667
0.38431	0.33333	0.06667
0.41961	0.36078	0.06667
0.45490	0.39216	0.07059
0.49020	0.42353	0.07059
0.52157	0.45098	0.07451
0.55686	0.48235	0.07451
0.58824	0.50980	0.07451
0.62353	0.54118	0.07843
0.65882	0.57255	0.07843
0.69412	0.60000	0.07843
0.72941	0.63137	0.08235
0.76471	0.66275	0.08627
0.80000	0.69020	0.08627
0.83137	0.72157	0.09020
0.31373	0.27059	0.06667
0.34510	0.29804	0.06667
0.38039	0.32941	0.06667
0.41569	0.36078	0.07059
0.45098	0.39216	0.07059
0.48627	0.41961	0.07059
0.52157	0.45098	0.07059
0.55686	0.48235	0.07451
0.59216	0.50980	0.07451
0.62353	0.54118	0.07843
0.65882	0.56863	0.07843
0.69412	0.60000	0.08235
0.72549	0.63137	0.08235
0.76078	0.65882	0.08627
0.79608	0.69020	0.08627
0.83137	0.72157	0.09020
0.86667	0.74902	0.09020
0.34510	0.29804	0.06667
0.38039	0.32941	0.06667
0.41569	0.36078	0.07059
0.45098	0.39216	0.07059
0.48627	0.41961	0.07059
0.52157	0.45098	0.07059
0.55686	0.48235	0.07451
0.59216	0.50980	0.07451
0.62353	0.54118	0.07843
0.65882	0.56863	0.07843
0.69412	0.60000	0.08235
0.72549	0.63137	0.08235
0.76078	0.65882	0.08627
0.79608	0.69020	0.08627
0.83137	0.72157	0.08627
0.86667	0.75294	0.09020
0.90196	0.78039	0.09412
0.38039	0.32941	0.06667
0.41569	0.36078	0.06667
0.45098	0.39216	0.07059
0.48627	0.41961	0.07059
0.52157	0.45098	0.07059
0.55686	0.48235	0.07451
0.58824	0.50980	0.07451
0.62353	0.54118	0.07843
0.65882	0.57255	0.07843
0.69020	0.60000	0.07843
0.72549	0.63137	0.08235
0.76078	0.65882	0.08235
0.79608	0.69020	0.08627
0.83137	0.72157	0.08627
0.86667	0.75294	0.09020
0.89804	0.78039	0.09412
0.93333	0.81176	0.09412
0.41569	0.36078	0.06667
0.45098	0.38824	0.07059
0.48627	0.41961	0.07059
0.52157	0.45098	0.07059
0.55686	0.48235	0.07451
0.58824	0.50980	0.07451
0.62353	0.54118	0.07843
0.65882	0.57255	0.07843
0.69412	0.60392	0.08235
0.72549	0.63137	0.08235
0.76078	0.65882	0.08235
0.79608	0.69020	0.08627
0.83137	0.72157	0.08627
0.86667	0.75294	0.09020
0.90196	0.78039	0.09412
0.93333	0.81176	0.09412
0.96863	0.84314	0.09804
0.45098	0.39216	0.07059
0.48627	0.41961	0.07059
0.52157	0.45098	0.07451
0.55686	0.48235	0.07451
0.58824	0.50980	0.07451
0.62353	0.54118	0.07843
0.65882	0.57255	0.07843
0.69412	0.60000	0.07843
0.72941	0.63137	0.08235
0.76078	0.65882	0.08627
0.79608	0.69020	0.08627
0.83137	0.72157	0.09020
0.86667	0.75294	0.09020
0.90196	0.78039	0.09412
0.93333	0.81176	0.09412
0.96863	0.84314	0.09804
1.00000	0.87059	0.10196
0.48627	0.41961	0.07059
0.52157	0.45098	0.07059
0.55686	0.48235	0.07451
0.58824	0.50980	0.07451
0.62353	0.54118	0.07843
0.65882	0.57255	0.07843
0.69412	0.60000	0.07843
0.72941	0.63137	0.08235
0.76471	0.66275	0.08627
0.79608	0.69020	0.08627
0.83137	0.72157	0.09020
0.86667	0.75294	0.09020
0.90196	0.78039	0.09412
0.93333	0.81176	0.09412
0.96863	0.84314	0.09804
1.00000	0.87451	0.10196
1.00000	0.90196	0.10196
0.52157	0.45098	0.07059
0.55686	0.48235	0.07451
0.59216	0.50980	0.07451
0.62353	0.54118	0.07843
0.65882	0.57255	0.07843
0.69412	0.60000	0.08235
0.72941	0.63137	0.08235
0.76471	0.66275	0.08627
0.80000	0.69412	0.08627
0.83137	0.72157	0.09020
0.86667	0.75294	0.09020
0.90196	0.78039	0.09412
0.93333	0.81176	0.09412
0.96863	0.84314	0.09804
1.00000	0.87059	0.09804
1.00000	0.90196	0.10196
1.00000	0.93333	0.10588
0.55686	0.48235	0.07451
0.59216	0.50980	0.07451
0.62353	0.54118	0.07843
0.65882	0.57255	0.07843
0.69412	0.60000	0.08235
0.72941	0.63137	0.08235
0.76471	0.66275	0.08235
0.80000	0.69412	0.08627
0.83137	0.72157	0.09020
0.86667	0.75294	0.09020
0.90196	0.78039	0.09412
0.93333	0.81176	0.09412
0.96863	0.84314	0.09804
1.00000	0.87059	0.09804
1.00000	0.90196	0.10196
1.00000	0.93333	0.10588
1.00000	0.96078	0.10588
0.00000	0.01569	0.12549
0.00000	0.04314	0.12549
0.03529	0.07059	0.12549
0.08235	0.09804	0.12549
0.12549	0.12549	0.12549
0.16471	0.15294	0.12549
0.20000	0.18431	0.12549
0.23922	0.21176	0.12549
0.27451	0.24314	0.12549
0.30588	0.27059	0.12549
0.34118	0.30196	0.12549
0.37647	0.32941	0.12941
0.41176	0.36078	0.12941
0.44706	0.39216	0.12941
0.48235	0.42353	0.12941
0.51765	0.45098	0.12941
0.55294	0.48235	0.13333
0.00000	0.04314	0.12549
0.03529	0.07059	0.12549
0.08235	0.09804	0.12549
0.12549	0.12549	0.12549
0.16471	0.15294	0.12549
0.20000	0.18431	0.12549
0.23922	0.21176	0.12549
0.27451	0.24314	0.12549
0.30980	0.27451	0.12549
0.34118	0.30196	0.12549
0.37647	0.32941	0.12941
0.41176	0.36078	0.12941
0.44706	0.39216	0.12941
0.48235	0.41961	0.12941
0.51765	0.45098	0.12941
0.55294	0.48235	0.13333
0.58824	0.51373	0.13333
0.03529	0.07059	0.12549
0.08235	0.09804	0.12549
0.12549	0.12549	0.12549
0.16471	0.15294	0.12549
0.20000	0.18431	0.12549
0.23922	0.21176	0.12549
0.27451	0.24314	0.12549
0.30980	0.27451	0.12549
0.34510	0.30196	0.12549
0.37647	0.32941	0.12941
0.41176	0.36078	0.12941
0.44706	0.39216	0.12941
0.48235	0.41961	0.12941
0.51765	0.45098	0.12941
0.55294	0.48235	0.12941
0.58824	0.51373	0.13333
0.62353	0.54118	0.13333
0.08235	0.09804	0.12549
0.12549	0.12549	0.12549
0.16471	0.15294	0.12549
0.20000	0.18431	0.12549
0.23922	0.21569	0.12549
0.27451	0.24314	0.12549
0.30980	0.27451	0.12549
0.34510	0.30196	0.12549
0.38039	0.33333	0.12941
0.41176	0.36078	0.12941
0.44706	0.39216	0.12941
0.48235	0.42353	0.12941
0.51765	0.45098	0.12941
0.55294	0.48235	0.13333
0.58824	0.51373	0.13333
0.62353	0.54118	0.13333
0.65882	0.57255	0.13333
0.12549	0.12549	0.12549
0.16471	0.15294	0.12549
0.20000	0.18431	0.12549
0.23922	0.21176	0.12549
0.27451	0.24314	0.12549
0.30980	0.27451	0.12549
0.34510	0.30196	0.12941
0.38039	0.33333	0.12941
0.41569	0.36471	0.12941
0.44706	0.39216	0.12941
0.48235	0.42353	0.12941
0.51765	0.45098	0.12941
0.55294	0.48235	0.13333
0.58824	0.51373	0.13333
0.62353	0.54118	0.13333
0.65882	0.57255	0.13333
0.69412	0.60392	0.13725
0.16471	0.15294	0.12549
0.20000	0.18431	0.12549
0.23922	0.21176	0.12549
0.27451	0.24314	0.12549
0.30980	0.27451	0.12549
0.34510	0.30196	0.12941
0.38039	0.33333	0.12941
0.41569	0.36471	0.12941
0.45098	0.39216	0.12941
0.48235	0.41961	0.12941
0.51765	0.45098	0.12941
0.55294	0.48235	0.13333
0.58824	0.51373	0.13333
0.62353	0.54118	0.13333
0.65882	0.57255	0.13333
0.69412	0.60392	0.13725
0.72549	0.63137	0.13725
0.20000	0.18431	0.12549
0.23922	0.21176	0.12549
0.27451	0.24314	0.12549
0.30980	0.27451	0.12549
0.34510	0.30196	0.12549
0.38039	0.33333	0.12941
0.41569	0.36471	0.12941
0.45098	0.39216	0.12941
0.48627	0.42353	0.12941
0.51765	0.45098	0.12941
0.55294	0.48235	0.13333
0.58824	0.51373	0.13333
0.62353	0.54118	0.13333
0.65882	0.57255	0.13333
0.69412	0.60392	0.13725
0.72549	0.63137	0.13725
0.76078	0.66275	0.13725
0.23922	0.21176	0.12549
0.27451	0.24314	0.12549
0.30980	0.27451	0.12549
0.34510	0.30196	0.12941
0.38039	0.33333	0.12941
0.41569	0.36471	0.12941
0.45098	0.39216	0.12941
0.48627	0.42353	0.12941
0.52157	0.45490	0.12941
0.55294	0.48235	0.13333
0.58824	0.50980	0.13333
0.62353	0.54118	0.13333
0.65882	0.57255	0.13333
0.69412	0.60392	0.13725
0.72549	0.63137	0.13725
0.76078	0.66275	0.13725
0.79608	0.69412	0.14118
0.27451	0.24314	0.12549
0.30980	0.27451	0.12549
0.34510	0.30196	0.12941
0.38039	0.33333	0.12941
0.41569	0.36471	0.12941
0.45098	0.39216	0.12941
0.48627	0.42353	0.12941
0.52157	0.45490	0.12941
0.55686	0.48235	0.13333
0.58824	0.51373	0.13333
0.62353	0.54118	0.13333
0.65882	0.57255	0.13333
0.69412	0.60392	0.13725
0.72549	0.63137	0.13725
0.76078	0.66275	0.13725
0.79608	0.69412	0.14118
0.83137	0.72157	0.14118
0.30588	0.27059	0.12549
0.34118	0.30196	0.12549
0.37647	0.32941	0.12941
0.41176	0.36078	0.12941
0.44706	0.39216	0.12941
0.48235	0.42353	0.12941
0.51765	0.45098	0.12941
0.55294	0.48235	0.13333
0.58824	0.51373	0.13333
0.61961	0.54118	0.13333
0.65490	0.57255	0.13333
0.69020	0.60000	0.13725
0.72549	0.63137	0.13725
0.76078	0.65882	0.13725
0.79608	0.69020	0.14118
0.83137	0.72157	0.14118
0.86275	0.75294	0.14118
0.34118	0.30196	0.12941
0.37647	0.32941	0.12941
0.41176	0.36078	0.12941
0.44706	0.39216	0.12941
0.48235	0.42353	0.12941
0.51765	0.45098	0.12941
0.55294	0.48235	0.13333
0.58824	0.50980	0.13333
0.62353	0.54118	0.13333
0.65490	0.56863	0.13333
0.69020	0.60000	0.13725
0.72549	0.63137	0.13725
0.76078	0.66275	0.13725
0.79608	0.69020	0.14118
0.83137	0.72157	0.14118
0.86275	0.75294	0.14118
0.89804	0.78039	0.14510
0.37647	0.32941	0.12941
0.41176	0.36078	0.12941
0.44706	0.39216	0.12941
0.48235	0.41961	0.12941
0.51765	0.45098	0.12941
0.55294	0.48235	0.13333
0.58824	0.51373	0.13333
0.62353	0.54118	0.13333
0.65882	0.57255	0.13333
0.69020	0.60000	0.13725
0.72549	0.63137	0.13725
0.76078	0.66275	0.13725
0.79608	0.69020	0.14118
0.83137	0.72157	0.14118
0.86275	0.75294	0.14118
0.89804	0.78039	0.14510
0.93333	0.81176	0.14510
0.41176	0.36078	0.12941
0.44706	0.39216	0.12941
0.48235	0.41961	0.12941
0.51765	0.45098	0.12941
0.55294	0.48235	0.13333
0.58824	0.51373	0.13333
0.62353	0.54118	0.13333
0.65882	0.57255	0.13333
0.69412	0.60392	0.13725
0.72549	0.63137	0.13725
0.76078	0.66275	0.13725
0.79608	0.69020	0.14118
0.82745	0.72157	0.14118
0.86275	0.75294	0.14118
0.89804	0.78039	0.14510
0.93333	0.81176	0.14510
0.96863	0.84314	0.14510
0.44706	0.39216	0.12941
0.48235	0.42353	0.12941
0.51765	0.45098	0.12941
0.55294	0.48235	0.13333
0.58824	0.50980	0.13333
0.62353	0.54118	0.13333
0.65882	0.57255	0.13333
0.69412	0.60392	0.13725
0.72549	0.63137	0.13725
0.76078	0.66275	0.13725
0.79608	0.69020	0.14118
0.83137	0.72157	0.14118
0.86275	0.75294	0.14118
0.89804	0.78039	0.14510
0.93333	0.81176	0.14510
0.96863	0.84314	0.14510
1.00000	0.87451	0.14902
0.48235	0.41961	0.12941
0.51765	0.45098	0.12941
0.55294	0.48235	0.13333
0.58824	0.51373	0.13333
0.62353	0.54118	0.13333
0.65882	0.57255	0.13333
0.69412	0.60392	0.13725
0.72549	0.63137	0.13725
0.76078	0.66275	0.13725
0.79608	0.69020	0.14118
0.82745	0.72157	0.14118
0.86275	0.75294	0.14118
0.89804	0.78431	0.14510
0.93333	0.81176	0.14510
0.96863	0.84314	0.14510
1.00000	0.87451	0.14902
1.00000	0.90196	0.14902
0.51765	0.45098	0.12941
0.55294	0.48235	0.13333
0.58824	0.51373	0.13333
0.62353	0.54118	0.13333
0.65882	0.57255	0.13333
0.69412	0.60392	0.13725
0.72549	0.63137	0.13725
0.76078	0.66275	0.13725
0.79608	0.69412	0.13725
0.83137	0.72157	0.14118
0.86275	0.75294	0.14118
0.89804	0.78039	0.14510
0.93333	0.81176	0.14510
0.96863	0.84314	0.14510
1.00000	0.87059	0.14902
1.00000	0.90196	0.14902
1.00000	0.93333	0.15294
0.55294	0.48235	0.13333
0.58824	0.51373	0.13333
0.62353	0.54118	0.13333
0.65882	0.57255	0.13333
0.69412	0.60392	0.13725
0.72549	0.63137	0.13725
0.76078	0.66275	0.13725
0.79608	0.69412	0.14118
0.83137	0.72157	0.14118
0.86275	0.75294	0.14118
0.89804	0.78039	0.14510
0.93333	0.81176	0.14510
0.96863	0.84314	0.14510
1.00000	0.87451	0.14902
1.00000	0.90196	0.14902
1.00000	0.93333	0.15294
1.00000	0.96471	0.15294
0.00000	0.03137	0.18824
0.00000	0.05882	0.18824
0.00000	0.07843	0.18824
0.04706	0.10588	0.18824
0.10196	0.13333	0.18824
0.14902	0.16078	0.18824
0.18824	0.18824	0.18824
0.22745	0.21569	0.18824
0.26667	0.24706	0.18824
0.29804	0.27451	0.18824
0.33725	0.30196	0.18824
0.37255	0.33333	0.18824
0.40784	0.36471	0.18824
0.44314	0.39216	0.18824
0.47843	0.42353	0.19216
0.51373	0.45490	0.19216
0.54902	0.48235	0.19216
0.00000	0.05882	0.18824
0.00000	0.07843	0.18824
0.04706	0.10588	0.18824
0.10196	0.13333	0.18824
0.14902	0.16078	0.18824
0.18824	0.18824	0.18824
0.22745	0.21569	0.18824
0.26667	0.24706	0.18824
0.30196	0.27451	0.18824
0.33725	0.30588	0.18824
0.37255	0.33333	0.18824
0.40784	0.36471	0.18824
0.44314	0.39216	0.19216
0.47843	0.42353	0.19216
0.51373	0.45490	0.19216
0.54902	0.48235	0.19216
