LUTGenerator/TEST/CUBE/ChannelMixing/BlueYellow_LumAdjusted_sRGB.cube
TITLE blue-yellow.cube
LUT_3D_SIZE 9
DOMAIN_MIN 0.0 0.0 0.0
DOMAIN_MAX 1.0 1.0 1.0
0.00000	0.00000	0.00000
0.04314	0.03137	0.00000
0.10196	0.07843	0.00000
0.13333	0.10588	0.00000
0.17255	0.13725	0.00000
0.20784	0.16863	0.00000
0.24706	0.20392	0.00000
0.28235	0.23529	0.00000
0.32157	0.26667	0.00000
0.04314	0.07059	0.11765
0.14510	0.11765	0.00000
0.12941	0.10588	0.00000
0.15294	0.12157	0.00000
0.18431	0.14902	0.00000
0.21961	0.18039	0.00000
0.25490	0.21176	0.00000
0.29020	0.24314	0.00000
0.32549	0.27451	0.00000
0.17647	0.16471	0.12157
0.25490	0.21961	0.01176
0.28235	0.23922	0.00392
0.27059	0.22353	0.00000
0.23922	0.19608	0.00000
0.24314	0.20000	0.00000
0.27451	0.22745	0.00000
0.30588	0.25490	0.00000
0.34118	0.28627	0.00000
0.27059	0.24706	0.16863
0.32941	0.28627	0.06667
0.39216	0.33725	0.02353
0.41961	0.36078	0.00784
0.41176	0.34902	0.00000
0.36863	0.30980	0.00000
0.33333	0.27843	0.00000
0.33333	0.27843	0.00000
0.36471	0.30588	0.00000
0.35686	0.32549	0.22745
0.40000	0.35686	0.16471
0.49412	0.42745	0.02745
0.52941	0.45882	0.03922
0.55686	0.48235	0.01569
0.56078	0.48235	0.00000
0.50588	0.43137	0.00000
0.45882	0.38824	0.00000
0.42745	0.36078	0.00000
0.43922	0.40392	0.28235
0.47451	0.42745	0.23922
0.56078	0.48627	0.08235
0.63922	0.55686	0.06667
0.66275	0.57647	0.05098
0.69412	0.60000	0.02745
0.70196	0.60784	0.00000
0.64314	0.54902	0.00000
0.58824	0.50196	0.00000
0.52549	0.48235	0.34118
0.55294	0.50196	0.30588
0.62353	0.54902	0.20392
0.72941	0.63137	0.04706
0.77647	0.67451	0.08627
0.80000	0.69412	0.07059
0.83137	0.72157	0.03922
0.85490	0.74118	0.00000
0.78824	0.67843	0.00000
0.60784	0.56471	0.40000
0.63529	0.58039	0.37255
0.69804	0.61961	0.29412
0.79216	0.69020	0.08235
0.89020	0.77647	0.11765
0.91373	0.79216	0.10196
0.93725	0.81569	0.08627
0.96863	0.84314	0.05490
1.00000	0.87059	0.00392
0.69412	0.64314	0.45882
0.71765	0.65490	0.43529
0.76863	0.69020	0.36863
0.85490	0.75294	0.23922
0.96078	0.83922	0.05882
1.00000	0.89412	0.13333
1.00000	0.91373	0.12157
1.00000	0.93725	0.10196
1.00000	0.96471	0.07059
0.00000	0.01569	0.12549
0.06667	0.05098	0.00000
0.11373	0.11373	0.10588
0.18039	0.14902	0.00000
0.21176	0.17255	0.00000
0.23529	0.19216	0.00000
0.25490	0.21176	0.00000
0.28235	0.23529	0.00000
0.32157	0.26667	0.00000
0.05098	0.08627	0.14902
0.12549	0.12549	0.12549
0.14510	0.12157	0.01569
0.17255	0.14118	0.00000
0.20000	0.16078	0.00000
0.22353	0.18431	0.00000
0.25490	0.21176	0.00000
0.29020	0.24314	0.00000
0.32549	0.27451	0.00000
0.00000	0.12549	0.25882
0.14510	0.15294	0.17255
0.27451	0.24314	0.12549
0.22353	0.19216	0.03529
0.21569	0.17647	0.00000
0.24314	0.20000	0.00000
0.27451	0.22745	0.00000
0.30588	0.25490	0.00000
0.34118	0.28627	0.00000
0.13333	0.19608	0.29804
0.23137	0.23137	0.23137
0.38824	0.34118	0.13333
0.41569	0.36471	0.12941
0.38824	0.33333	0.05098
0.33333	0.28235	0.00000
0.30588	0.25490	0.00000
0.33333	0.27843	0.00000
0.36471	0.30588	0.00000
0.26275	0.28235	0.32549
0.32157	0.31373	0.27843
0.44706	0.39216	0.14510
0.52549	0.45882	0.14118
0.55686	0.48235	0.12941
0.54902	0.47451	0.07059
0.48235	0.41176	0.00000
0.43529	0.36863	0.00000
0.39608	0.33333	0.00000
0.36863	0.36863	0.36471
0.41176	0.39216	0.32941
0.50980	0.45490	0.22745
0.63529	0.55686	0.15294
0.65882	0.57647	0.14510
0.69020	0.60000	0.13725
0.69804	0.60392	0.07843
0.62745	0.54118	0.00000
0.57255	0.48627	0.00000
0.46667	0.45490	0.40784
0.50196	0.47059	0.38039
0.58039	0.52157	0.29804
0.69804	0.60784	0.10196
0.77255	0.67451	0.16078
0.79608	0.69412	0.15294
0.83137	0.72157	0.14118
0.85098	0.73725	0.10196
0.78039	0.67059	0.00000
0.56078	0.53725	0.45490
0.58824	0.55294	0.43137
0.65490	0.59608	0.36471
0.76078	0.66667	0.21961
0.88235	0.76863	0.17255
0.90980	0.79216	0.17255
0.93725	0.81569	0.16078
0.96863	0.84314	0.14510
1.00000	0.87451	0.12549
0.65490	0.61961	0.50588
0.67843	0.63529	0.48235
0.73333	0.67059	0.42745
0.82353	0.72941	0.31373
0.94118	0.81961	0.10980
1.00000	0.89412	0.19216
1.00000	0.91373	0.18431
1.00000	0.93725	0.17255
1.00000	0.96471	0.15294
0.00000	0.05490	0.25098
0.03137	0.07451	0.14118
0.15294	0.12549	0.00000
0.20392	0.18431	0.12549
0.24706	0.25098	0.24706
0.31373	0.27059	0.04706
0.34510	0.29020	0.00000
0.36471	0.30588	0.00000
0.38431	0.32549	0.00000
0.00392	0.12549	0.25098
0.05882	0.14118	0.25098
0.19608	0.16863	0.06667
0.22745	0.21961	0.19216
0.27451	0.25490	0.17647
0.31765	0.26667	0.00000
0.34118	0.28627	0.00000
0.36078	0.30196	0.00000
0.38039	0.31765	0.00000
0.10196	0.16471	0.26667
0.14118	0.17255	0.24314
0.25098	0.25098	0.25098
0.23137	0.20784	0.12549
0.26275	0.22353	0.04706
0.29020	0.24314	0.00000
0.31373	0.26275	0.00000
0.33333	0.27843	0.00000
0.35686	0.29804	0.00000
0.00000	0.17647	0.35294
0.03529	0.17647	0.32941
0.20392	0.21961	0.25098
0.40392	0.36863	0.25098
0.31373	0.27843	0.13333
0.27451	0.23529	0.04706
0.30196	0.25882	0.00000
0.33333	0.28235	0.00000
0.36863	0.30588	0.00000
0.00000	0.22745	0.45098
0.03529	0.22745	0.41961
0.27843	0.29412	0.32157
0.51373	0.46275	0.25882
0.54510	0.48627	0.25490
0.51373	0.45098	0.18431
0.42353	0.36863	0.03922
0.36863	0.31373	0.00000
0.39608	0.33333	0.00000
0.15294	0.29804	0.49412
0.23137	0.31765	0.45882
0.36471	0.36863	0.38039
0.55294	0.49412	0.25098
0.65490	0.58039	0.25882
0.68235	0.60392	0.25490
0.67451	0.59216	0.20392
0.58824	0.50980	0.04706
0.52157	0.44706	0.00000
0.31765	0.39216	0.52157
0.36078	0.40784	0.49412
0.45490	0.45098	0.43137
0.60392	0.54902	0.32157
0.76863	0.67843	0.27059
0.79216	0.69804	0.26275
0.82353	0.72157	0.25882
0.83529	0.73333	0.22745
0.75294	0.65098	0.05098
0.44314	0.47843	0.55686
0.47451	0.49412	0.53333
0.54902	0.53333	0.48235
0.67059	0.61176	0.38431
0.82353	0.72549	0.22353
0.90588	0.79608	0.27451
0.93333	0.81961	0.27059
0.96471	0.84314	0.26275
0.99608	0.87059	0.24706
0.55294	0.56863	0.59608
0.58039	0.58039	0.57647
0.64314	0.61569	0.53333
0.74510	0.68235	0.44706
0.87843	0.77647	0.29020
1.00000	0.89412	0.28627
1.00000	0.91373	0.28235
1.00000	0.93725	0.27451
1.00000	0.96471	0.26667
0.00000	0.09804	0.37647
0.00000	0.11765	0.37647
0.17647	0.14118	0.00000
0.23137	0.19608	0.00000
0.28627	0.25882	0.14902
0.33333	0.32157	0.27451
0.38431	0.37647	0.34118
0.44706	0.39216	0.14118
0.48235	0.40784	0.00000
0.00000	0.14902	0.37647
0.00000	0.16471	0.37647
0.14118	0.18824	0.27451
0.26275	0.22745	0.05490
0.30588	0.28235	0.19608
0.34902	0.34118	0.31373
0.40392	0.38039	0.29804
0.45098	0.39216	0.09020
0.47843	0.40784	0.00000
0.21961	0.23137	0.25882
0.16471	0.24314	0.37647
0.20392	0.26275	0.37647
0.32157	0.29020	0.17647
0.34510	0.33333	0.29804
0.38039	0.37647	0.35294
0.42353	0.37647	0.18824
0.45098	0.38431	0.00000
0.47059	0.39608	0.00000
0.15294	0.24314	0.38824
0.18039	0.25098	0.36863
0.23137	0.26275	0.33333
0.37647	0.37647	0.37647
0.32549	0.29804	0.21961
0.35294	0.31373	0.14510
0.38039	0.32941	0.05490
0.40392	0.34510	0.00000
0.42745	0.36078	0.00000
0.00000	0.22745	0.44314
0.01176	0.23137	0.42745
0.11373	0.23137	0.39216
0.26667	0.28235	0.32157
0.52941	0.49412	0.37647
0.40784	0.36863	0.22745
0.33725	0.29412	0.11765
0.36471	0.31373	0.07843
0.39608	0.33725	0.00000
0.00000	0.27843	0.56471
0.00000	0.27843	0.54902
0.07843	0.27843	0.49412
0.33333	0.35294	0.40392
0.63922	0.58431	0.38039
0.67059	0.60784	0.38039
0.62353	0.55686	0.29804
0.50588	0.44314	0.14510
0.43137	0.36863	0.00000
0.00000	0.32941	0.64314
0.00000	0.32549	0.62353
0.20392	0.35294	0.56078
0.41176	0.43137	0.47059
0.65490	0.59216	0.36078
0.78039	0.70196	0.38431
0.81569	0.72549	0.38039
0.80392	0.71373	0.33333
0.70196	0.61176	0.18824
0.15294	0.40000	0.68627
0.22745	0.41176	0.66275
0.35294	0.44314	0.61176
0.50196	0.50980	0.52941
0.69804	0.63922	0.42353
0.89804	0.80000	0.39216
0.92549	0.81961	0.38824
0.95686	0.84706	0.38039
0.97647	0.86275	0.36078
0.35686	0.49412	0.71765
0.39608	0.50588	0.69804
0.47451	0.53333	0.65490
0.59216	0.59216	0.58431
0.75686	0.69804	0.48627
0.94118	0.83137	0.33333
1.00000	0.91765	0.39608
1.00000	0.94118	0.39216
1.00000	0.96863	0.38431
0.00000	0.14118	0.50196
0.00000	0.15686	0.50196
0.03529	0.17647	0.32549
0.25882	0.21569	0.00000
0.31373	0.27059	0.01569
0.36863	0.32941	0.16471
0.41961	0.39216	0.29804
0.46667	0.45882	0.42745
0.52549	0.50196	0.43137
0.00000	0.18431	0.50196
0.00000	0.19216	0.50196
0.00000	0.21961	0.49804
0.28627	0.24314	0.01569
0.33725	0.29412	0.06275
0.38431	0.34902	0.20392
0.43137	0.40784	0.32549
0.47451	0.47059	0.45098
0.53333	0.50588	0.40000
0.00000	0.25882	0.50196
0.00000	0.26275	0.50196
0.08627	0.28235	0.50196
0.25098	0.30980	0.42353
0.38824	0.34118	0.14118
0.41961	0.38824	0.28627
0.45882	0.44314	0.39608
0.49412	0.49804	0.50196
0.55294	0.50196	0.32157
0.38431	0.34118	0.18039
0.37647	0.34902	0.26275
0.30980	0.36471	0.47843
0.33333	0.38824	0.50196
0.44706	0.41569	0.30196
0.46667	0.45490	0.41176
0.49412	0.49804	0.50196
0.52941	0.49020	0.34902
0.55686	0.49020	0.16863
0.20000	0.32157	0.50588
0.22353	0.32549	0.49412
0.26667	0.33333	0.46667
0.32157	0.35294	0.41961
0.50196	0.50196	0.50196
0.41569	0.38824	0.31373
0.44706	0.40392	0.23922
0.47451	0.41569	0.16078
0.49804	0.43137	0.05490
0.00000	0.27843	0.52941
0.00000	0.27843	0.51765
0.10588	0.28235	0.49020
0.18431	0.28627	0.44314
0.32941	0.34510	0.38824
0.65098	0.61569	0.50196
0.48235	0.44314	0.30588
0.39608	0.35294	0.18431
0.42353	0.37255	0.14118
0.00000	0.32941	0.65490
0.00000	0.32941	0.64314
0.00000	0.33333	0.61961
0.14510	0.33333	0.56078
0.38824	0.41569	0.47843
0.75294	0.69412	0.49412
0.80000	0.73333	0.50196
0.74118	0.67059	0.41176
0.59608	0.52941	0.24314
0.00000	0.38039	0.76863
0.00000	0.38039	0.75294
0.00000	0.38039	0.71373
0.19216	0.39216	0.64706
0.46667	0.49412	0.55294
0.74510	0.68627	0.47451
0.90980	0.82353	0.50980
0.94118	0.85098	0.50588
0.93725	0.83922	0.46275
0.00000	0.42745	0.83137
0.00000	0.42745	0.81961
0.04314	0.43922	0.78039
0.34902	0.48627	0.70588
0.54902	0.57255	0.61961
0.77647	0.72157	0.52941
1.00000	0.91765	0.51373
1.00000	0.94510	0.50980
1.00000	0.97255	0.50588
0.00000	0.18431	0.62353
0.00000	0.19608	0.61961
0.00000	0.21961	0.61961
0.25490	0.23922	0.20392
0.34510	0.28627	0.00000
0.39608	0.34118	0.02745
0.45490	0.40392	0.18824
0.50588	0.46667	0.32157
0.55294	0.52941	0.45098
0.00000	0.21569	0.62353
0.00000	0.22745	0.62353
0.00000	0.24706	0.61961
0.19608	0.27059	0.40000
0.36471	0.30980	0.00000
0.41569	0.36078	0.07451
0.46667	0.41569	0.21961
0.51373	0.47843	0.34510
0.56078	0.54118	0.47451
0.00000	0.28235	0.62353
0.00000	0.29020	0.62353
0.00000	0.30588	0.62353
0.00000	0.33333	0.61961
0.40784	0.35294	0.13333
0.45490	0.40000	0.13333
0.49412	0.45098	0.29020
0.53725	0.50588	0.40392
0.57647	0.56471	0.52157
0.15686	0.36471	0.62353
0.17255	0.37255	0.62353
0.20784	0.38431	0.62353
0.26275	0.40392	0.62353
0.37255	0.43137	0.55294
0.51373	0.45882	0.24314
0.53725	0.50588	0.39608
0.57255	0.55294	0.49804
0.60784	0.60784	0.60392
0.50196	0.45098	0.28235
0.50588	0.45882	0.29412
0.50980	0.46667	0.31373
0.45490	0.49020	0.56471
0.46275	0.51373	0.62353
0.57255	0.53725	0.42745
0.58824	0.57647	0.53333
0.61569	0.61961	0.61961
0.63922	0.60000	0.47843
0.24706	0.39608	0.61961
0.26667	0.40000	0.61176
0.30196	0.40784	0.58824
0.35294	0.41961	0.55294
0.41176	0.43922	0.50588
0.62353	0.62353	0.62353
0.50588	0.47843	0.40000
0.53725	0.49020	0.32549
0.56471	0.50196	0.25098
0.00000	0.32941	0.61961
0.00000	0.32941	0.61176
0.08235	0.33333	0.58824
0.17647	0.33333	0.54902
0.24314	0.34118	0.49804
0.39216	0.40784	0.45490
0.77647	0.74118	0.62353
0.58039	0.53725	0.39608
0.45490	0.41176	0.24314
0.00000	0.38039	0.74510
0.00000	0.38039	0.73725
0.00000	0.38039	0.71765
0.06667	0.38431	0.68235
0.21176	0.38431	0.62353
0.45098	0.48235	0.54902
0.87843	0.81961	0.61569
0.92549	0.85882	0.62745
0.86275	0.78824	0.52549
0.00000	0.43137	0.86667
0.00000	0.43137	0.85882
0.00000	0.43137	0.83922
0.00000	0.43137	0.79216
0.21569	0.43529	0.71373
0.52157	0.55686	0.63137
0.85490	0.79216	0.57647
1.00000	0.94902	0.63137
1.00000	0.97647	0.62745
0.00000	0.22745	0.74510
0.00000	0.23922	0.74510
0.00000	0.25882	0.74510
0.00000	0.27451	0.52941
0.36078	0.30980	0.03137
0.42745	0.35686	0.00000
0.47843	0.41569	0.04314
0.53725	0.47451	0.20784
0.58824	0.53725	0.34118
0.00000	0.25490	0.74510
0.00000	0.26275	0.74902
0.00000	0.28235	0.74510
0.00000	0.30980	0.72157
0.36471	0.32941	0.21569
0.44314	0.37647	0.00000
0.49412	0.43137	0.08627
0.54510	0.48627	0.23529
0.60000	0.54902	0.36471
0.00000	0.30980	0.74902
0.00000	0.31765	0.74902
0.00000	0.33333	0.74902
0.00000	0.35686	0.74510
0.29804	0.38039	0.52941
0.48235	0.41176	0.00000
0.52941	0.46275	0.13725
0.57255	0.51765	0.29412
0.61961	0.57255	0.41176
0.00000	0.38824	0.74902
0.00000	0.39216	0.74902
0.00000	0.40392	0.74902
0.10196	0.42353	0.74902
0.22353	0.45098	0.74510
0.52157	0.47059	0.29412
0.58039	0.51373	0.22353
0.61176	0.56078	0.38824
0.65098	0.61569	0.49412
0.41176	0.47059	0.60000
0.38039	0.47843	0.66275
0.32157	0.49020	0.74902
0.35686	0.50588	0.74902
0.40392	0.52941	0.74902
0.47843	0.55294	0.70980
0.64314	0.58039	0.35686
0.65882	0.62353	0.50980
0.69020	0.67059	0.60392
0.61569	0.56078	0.37647
0.61961	0.56471	0.38431
0.62353	0.57255	0.40000
0.63529	0.58824	0.42745
0.57255	0.61176	0.69804
0.58431	0.63529	0.74902
0.69804	0.65882	0.54510
0.71373	0.69804	0.65098
0.73725	0.73725	0.73333
0.29804	0.47451	0.73725
0.30980	0.47451	0.72941
0.34118	0.48235	0.71373
0.38824	0.49020	0.68235
0.44314	0.50588	0.64314
0.49804	0.52941	0.59608
0.74902	0.74902	0.74902
0.59608	0.56863	0.49020
0.62745	0.58039	0.41569
0.00000	0.38039	0.70980
0.00000	0.38039	0.70196
0.05882	0.38039	0.68235
0.16471	0.38431	0.65098
0.23922	0.38824	0.60784
0.30196	0.39216	0.55686
0.45490	0.47451	0.51765
0.90588	0.86667	0.74902
0.66667	0.62353	0.48627
0.00000	0.43137	0.83529
0.00000	0.43137	0.82745
0.00000	0.43137	0.81176
0.00000	0.43529	0.78039
0.17255	0.43529	0.74118
0.27059	0.43922	0.68627
0.50980	0.54510	0.61961
1.00000	0.93725	0.73725
1.00000	0.98039	0.74902
0.00000	0.27451	0.87059
0.00000	0.28235	0.87059
0.00000	0.29804	0.87059
0.00000	0.32157	0.83922
0.30196	0.33725	0.42353
0.45098	0.38039	0.00000
0.50980	0.43137	0.00000
0.56471	0.49020	0.05882
0.61961	0.54902	0.22745
0.00000	0.29412	0.87059
0.00000	0.30196	0.87059
0.00000	0.31765	0.87059
0.00000	0.34118	0.87059
0.23137	0.36078	0.56078
0.46275	0.39216	0.00000
0.52549	0.44314	0.00000
0.57647	0.50196	0.09804
0.62745	0.56078	0.25098
0.00000	0.34510	0.87451
0.00000	0.34902	0.87451
0.00000	0.36078	0.87059
0.00000	0.38431	0.87059
0.00000	0.41569	0.87059
0.46667	0.43137	0.32157
0.55686	0.47451	0.00000
0.60392	0.52941	0.14118
0.65098	0.58431	0.30196
0.00000	0.41569	0.87451
0.00000	0.41961	0.87451
0.00000	0.42745	0.87451
0.00000	0.44706	0.87451
0.00000	0.47451	0.87059
0.38824	0.49804	0.69804
0.60392	0.52549	0.12549
0.65098	0.57255	0.21176
0.68627	0.62353	0.38431
0.10980	0.49804	0.87451
0.13333	0.50196	0.87451
0.18039	0.50980	0.87451
0.24314	0.52549	0.87451
0.30980	0.54510	0.87451
0.38039	0.57255	0.87059
0.64314	0.59216	0.43137
0.70980	0.63137	0.31765
0.72941	0.67843	0.49412
0.59608	0.57647	0.52549
0.58431	0.58039	0.57255
0.54510	0.59216	0.69412
0.45490	0.60784	0.87451
0.48627	0.62745	0.87451
0.52941	0.65098	0.87451
0.60392	0.67843	0.83137
0.76863	0.70196	0.47451
0.78039	0.74510	0.62353
0.73333	0.67451	0.47843
0.73725	0.67843	0.48235
0.74118	0.68235	0.49412
0.74902	0.69412	0.51765
0.76078	0.70980	0.54902
0.70588	0.73333	0.80392
0.70980	0.76078	0.87451
0.82353	0.78431	0.67059
0.83529	0.81961	0.77255
0.34510	0.54902	0.85490
0.35686	0.55294	0.84706
0.38431	0.55686	0.83529
0.42353	0.56471	0.80784
0.47451	0.57647	0.77647
0.52941	0.59608	0.73333
0.58824	0.61569	0.68627
0.87451	0.87451	0.87451
0.68627	0.65882	0.58039
0.00000	0.43137	0.79608
0.00000	0.43137	0.79216
0.01961	0.43529	0.77647
0.15294	0.43529	0.74902
0.23529	0.43922	0.70980
0.29804	0.44314	0.66275
0.35686	0.44706	0.61176
0.51765	0.53725	0.58431
1.00000	0.99216	0.87451
0.00000	0.31765	1.00000
0.00000	0.32549	1.00000
0.00000	0.33725	0.99608
0.00000	0.36078	0.99608
0.00000	0.37647	0.74510
0.43529	0.40392	0.31765
0.53725	0.45098	0.00000
0.59608	0.50588	0.00000
0.64706	0.56471	0.07059
0.00000	0.33725	1.00000
0.00000	0.34118	1.00000
0.00000	0.35686	1.00000
0.00000	0.37647	0.99608
0.00000	0.40000	0.88235
0.42353	0.41961	0.42745
0.54902	0.46275	0.00000
0.60784	0.51765	0.00000
0.65490	0.57255	0.10980
0.00000	0.38039	1.00000
0.00000	0.38431	1.00000
0.00000	0.39608	1.00000
0.00000	0.41569	0.99608
0.00000	0.44314	0.99608
0.33333	0.46275	0.67843
0.57255	0.49412	0.01569
0.63529	0.54118	0.00000
0.68235	0.59608	0.15294
0.00000	0.44314	1.00000
0.00000	0.44706	1.00000
0.00000	0.45490	1.00000
0.00000	0.47451	1.00000
0.00000	0.49804	1.00000
0.00000	0.52549	0.99608
0.58039	0.54510	0.44706
0.67843	0.58431	0.00000
0.72157	0.63529	0.21176
0.00000	0.52157	1.00000
0.00000	0.52549	1.00000
0.00000	0.53333	1.00000
0.00000	0.54510	1.00000
0.09020	0.56471	1.00000
0.24706	0.59216	0.99608
0.49412	0.61569	0.84706
0.73333	0.64314	0.25882
0.77647	0.68627	0.29804
0.29020	0.60392	1.00000
0.29804	0.60784	1.00000
0.32157	0.61569	1.00000
0.35294	0.62745	1.00000
0.40000	0.64314	1.00000
0.45490	0.66667	1.00000
0.51373	0.69412	0.99608
0.76471	0.71373	0.55294
0.83529	0.74902	0.41569
0.75686	0.68627	0.42745
0.75294	0.68627	0.47059
0.73725	0.69412	0.57255
0.69804	0.70980	0.74118
0.60392	0.72941	0.97647
0.61961	0.74902	1.00000
0.66275	0.77255	1.00000
0.72549	0.80000	0.96471
0.89412	0.82745	0.59608
0.85098	0.78824	0.57647
0.85490	0.78824	0.58039
0.85882	0.79216	0.59216
0.86275	0.80392	0.60784
0.87451	0.81569	0.63529
0.88627	0.83137	0.67059
0.83529	0.85882	0.92157
0.83529	0.88627	1.00000
0.94902	0.90980	0.79608
0.39216	0.62745	0.97255
0.40392	0.62745	0.96863
0.42745	0.63137	0.95294
0.46275	0.63922	0.93333
0.50980	0.65098	0.90196
0.56078	0.66275	0.86667
0.61961	0.68235	0.81961
0.67843	0.70588	0.77255
1.00000	1.00000	1.00000
