LUTGenerator/TEST/CUBE/ChannelMixing/BlueYellow_LumAdjusted_sRGB.cube
TITLE blue-yellow.cube
LUT_3D_SIZE 5
DOMAIN_MIN 0.0 0.0 0.0
DOMAIN_MAX 1.0 1.0 1.0
0.00000	0.00000	0.00000
0.10196	0.07843	0.00000
0.17255	0.13725	0.00000
0.24706	0.20392	0.00000
0.32157	0.26667	0.00000
0.17647	0.16471	0.12157
0.28235	0.23922	0.00392
0.23922	0.19608	0.00000
0.27451	0.22745	0.00000
0.34118	0.28627	0.00000
0.35686	0.32549	0.22745
0.49412	0.42745	0.02745
0.55686	0.48235	0.01569
0.50588	0.43137	0.00000
0.42745	0.36078	0.00000
0.52549	0.48235	0.34118
0.62353	0.54902	0.20392
0.77647	0.67451	0.08627
0.83137	0.72157	0.03922
0.78824	0.67843	0.00000
0.69412	0.64314	0.45882
0.76863	0.69020	0.36863
0.96078	0.83922	0.05882
1.00000	0.91373	0.12157
1.00000	0.96471	0.07059
0.00000	0.05490	0.25098
0.15294	0.12549	0.00000
0.24706	0.25098	0.24706
0.34510	0.29020	0.00000
0.38431	0.32549	0.00000
0.10196	0.16471	0.26667
0.25098	0.25098	0.25098
0.26275	0.22353	0.04706
0.31373	0.26275	0.00000
0.35686	0.29804	0.00000
0.00000	0.22745	0.45098
0.27843	0.29412	0.32157
0.54510	0.48627	0.25490
0.42353	0.36863	0.03922
0.39608	0.33333	0.00000
0.31765	0.39216	0.52157
0.45490	0.45098	0.43137
0.76863	0.67843	0.27059
0.82353	0.72157	0.25882
0.75294	0.65098	0.05098
0.55294	0.56863	0.59608
0.64314	0.61569	0.53333
0.87843	0.77647	0.29020
1.00000	0.91373	0.28235
1.00000	0.96471	0.26667
0.00000	0.14118	0.50196
0.03529	0.17647	0.32549
0.31373	0.27059	0.01569
0.41961	0.39216	0.29804
0.52549	0.50196	0.43137
0.00000	0.25882	0.50196
0.08627	0.28235	0.50196
0.38824	0.34118	0.14118
0.45882	0.44314	0.39608
0.55294	0.50196	0.32157
0.20000	0.32157	0.50588
0.26667	0.33333	0.46667
0.50196	0.50196	0.50196
0.44706	0.40392	0.23922
0.49804	0.43137	0.05490
0.00000	0.32941	0.65490
0.00000	0.33333	0.61961
0.38824	0.41569	0.47843
0.80000	0.73333	0.50196
0.59608	0.52941	0.24314
0.00000	0.42745	0.83137
0.04314	0.43922	0.78039
0.54902	0.57255	0.61961
1.00000	0.91765	0.51373
1.00000	0.97255	0.50588
0.00000	0.22745	0.74510
0.00000	0.25882	0.74510
0.36078	0.30980	0.03137
0.47843	0.41569	0.04314
0.58824	0.53725	0.34118
0.00000	0.30980	0.74902
0.00000	0.33333	0.74902
0.29804	0.38039	0.52941
0.52941	0.46275	0.13725
0.61961	0.57255	0.41176
0.41176	0.47059	0.60000
0.32157	0.49020	0.74902
0.40392	0.52941	0.74902
0.64314	0.58039	0.35686
0.69020	0.67059	0.60392
0.29804	0.47451	0.73725
0.34118	0.48235	0.71373
0.44314	0.50588	0.64314
0.74902	0.74902	0.74902
0.62745	0.58039	0.41569
0.00000	0.43137	0.83529
0.00000	0.43137	0.81176
0.17255	0.43529	0.74118
0.50980	0.54510	0.61961
1.00000	0.98039	0.74902
0.00000	0.31765	1.00000
0.00000	0.33725	0.99608
0.00000	0.37647	0.74510
0.53725	0.45098	0.00000
0.64706	0.56471	0.07059
0.00000	0.38039	1.00000
0.00000	0.39608	1.00000
0.00000	0.44314	0.99608
0.57255	0.49412	0.01569
0.68235	0.59608	0.15294
0.00000	0.52157	1.00000
0.00000	0.53333	1.00000
0.09020	0.56471	1.00000
0.49412	0.61569	0.84706
0.77647	0.68627	0.29804
0.75686	0.68627	0.42745
0.73725	0.69412	0.57255
0.60392	0.72941	0.97647
0.66275	0.77255	1.00000
0.89412	0.82745	0.59608
0.39216	0.62745	0.97255
0.42745	0.63137	0.95294
0.50980	0.65098	0.90196
0.61961	0.68235	0.81961
1.00000	1.00000	1.00000
