LUTGenerator/TEST/CUBE/ChannelMixing/BlueYellow_MixedThenABlanked_sRGB.cube
TITLE BlueYellow_MixedThenABlanked_sRGB.cube
LUT_3D_SIZE 5
DOMAIN_MIN 0.0 0.0 0.0
DOMAIN_MAX 1.0 1.0 1.0
0.00000	0.00000	0.00000
0.14510	0.11765	0.00000
0.28235	0.23922	0.00392
0.41961	0.36078	0.00784
0.55686	0.47843	0.01569
0.14510	0.11765	0.00000
0.28235	0.23922	0.00392
0.41961	0.36078	0.00784
0.55686	0.48235	0.01569
0.69412	0.60000	0.02745
0.28235	0.23922	0.00392
0.41961	0.36078	0.00784
0.56078	0.48235	0.01569
0.69412	0.60000	0.02745
0.83529	0.72157	0.03922
0.41961	0.36078	0.00784
0.55686	0.48235	0.01569
0.69412	0.60000	0.02745
0.83137	0.72157	0.03922
0.96863	0.84314	0.05490
0.55686	0.47843	0.01569
0.69412	0.60000	0.02745
0.83529	0.72157	0.04314
0.96863	0.84314	0.05490
1.00000	0.96471	0.07059
0.00000	0.05490	0.25098
0.05882	0.14118	0.25098
0.25098	0.25098	0.25098
0.40000	0.36471	0.25098
0.54510	0.48627	0.25490
0.05882	0.14118	0.25098
0.25098	0.25098	0.25098
0.40000	0.36863	0.25098
0.54510	0.48627	0.25490
0.68627	0.60392	0.25490
0.25098	0.25098	0.25098
0.40000	0.36863	0.25098
0.54510	0.48627	0.25490
0.68627	0.60392	0.25490
0.82745	0.72549	0.25882
0.40000	0.36471	0.25098
0.54510	0.48627	0.25490
0.68627	0.60392	0.25490
0.82353	0.72549	0.25882
0.96471	0.84314	0.26275
0.54510	0.48627	0.25490
0.68627	0.60392	0.25490
0.82745	0.72549	0.25882
0.96471	0.84314	0.26275
1.00000	0.96471	0.26667
0.00000	0.14118	0.50196
0.00000	0.19216	0.50196
0.08235	0.28235	0.50196
0.32941	0.38824	0.50196
0.49804	0.49804	0.50196
0.00000	0.19216	0.50196
0.08627	0.28235	0.50196
0.33333	0.38824	0.50196
0.49804	0.50196	0.50196
0.65490	0.61569	0.50196
0.08627	0.28235	0.50196
0.33333	0.38824	0.50196
0.50196	0.50196	0.50196
0.65490	0.61569	0.50196
0.80000	0.73333	0.50588
0.32941	0.38824	0.50196
0.49804	0.50196	0.50196
0.65490	0.61569	0.50196
0.80000	0.73333	0.50196
0.94510	0.85098	0.50588
0.49804	0.50196	0.50196
0.65490	0.61569	0.50196
0.80000	0.73333	0.50196
0.94510	0.85098	0.50588
1.00000	0.97255	0.50588
0.00000	0.23137	0.74510
0.00000	0.26275	0.74902
0.00000	0.33333	0.74510
0.09020	0.42353	0.74902
0.40000	0.52549	0.74902
0.00000	0.26275	0.74510
0.00000	0.33333	0.74902
0.10196	0.42353	0.74902
0.40000	0.52549	0.74902
0.58824	0.63529	0.74902
0.00000	0.33333	0.74902
0.10196	0.42353	0.74902
0.40392	0.52941	0.74902
0.58824	0.63529	0.74902
0.75294	0.74902	0.74902
0.09020	0.42353	0.74902
0.40000	0.52549	0.74902
0.58824	0.63529	0.74902
0.74902	0.74902	0.74902
0.90588	0.86667	0.74902
0.40000	0.52549	0.74902
0.58824	0.63529	0.74902
0.75294	0.75294	0.74902
0.90588	0.86667	0.74902
1.00000	0.98039	0.74902
0.00000	0.31765	1.00000
0.00000	0.34118	1.00000
0.00000	0.39608	1.00000
0.00000	0.47059	1.00000
0.07451	0.56471	1.00000
0.00000	0.34118	1.00000
0.00000	0.39608	1.00000
0.00000	0.47451	1.00000
0.07451	0.56471	1.00000
0.45882	0.66667	1.00000
0.00000	0.39608	1.00000
0.00000	0.47451	1.00000
0.09020	0.56471	1.00000
0.45882	0.66667	1.00000
0.66275	0.77647	1.00000
0.00000	0.47059	1.00000
0.07451	0.56471	1.00000
0.45882	0.66667	1.00000
0.66275	0.77255	1.00000
0.83529	0.88627	1.00000
0.07451	0.56471	1.00000
0.45882	0.66667	1.00000
0.66275	0.77647	1.00000
0.83529	0.88627	1.00000
1.00000	1.00000	1.00000
