LUTGenerator/TEST/CUBE/Duotone/Sepia/Duotone_Sepia_Strongest_sRGB.cube
TITLE Duotone_Sepia_Strongest_sRGB.cube
LUT_3D_SIZE 17
DOMAIN_MIN 0.0 0.0 0.0
DOMAIN_MAX 1.0 1.0 1.0
0.12157	0.00784	0.00392
0.13333	0.00784	0.00784
0.14510	0.01569	0.00784
0.17647	0.03529	0.01569
0.22353	0.07451	0.03922
0.27059	0.11765	0.07059
0.31373	0.16471	0.10588
0.35686	0.21176	0.15294
0.40000	0.26275	0.19608
0.44314	0.30980	0.24314
0.47451	0.35294	0.29020
0.50980	0.40000	0.33333
0.54510	0.44314	0.38431
0.58039	0.49020	0.43137
0.60784	0.52941	0.47451
0.63922	0.56863	0.52157
0.66667	0.60392	0.56078
0.14902	0.01961	0.01176
0.16078	0.02353	0.01176
0.18039	0.03529	0.01961
0.21569	0.06667	0.03529
0.25098	0.09804	0.05490
0.29020	0.14118	0.09020
0.32941	0.18039	0.12549
0.37255	0.22745	0.16471
0.41176	0.27451	0.20784
0.45098	0.32157	0.25490
0.48627	0.36471	0.30196
0.51765	0.40784	0.34510
0.55294	0.45490	0.39216
0.58431	0.49412	0.43922
0.61176	0.53333	0.48235
0.63922	0.57255	0.52549
0.67059	0.60784	0.56863
0.21569	0.06667	0.03529
0.22353	0.07451	0.03922
0.23922	0.09020	0.05098
0.26667	0.11373	0.06667
0.29020	0.14118	0.09020
0.32157	0.17255	0.11765
0.36078	0.21569	0.15294
0.39216	0.25490	0.18824
0.43529	0.30196	0.23529
0.46275	0.33725	0.27059
0.50196	0.38431	0.31765
0.52941	0.42353	0.36078
0.56078	0.46667	0.40784
0.59216	0.50588	0.45098
0.61961	0.54510	0.49412
0.64706	0.58039	0.53333
0.67451	0.61569	0.57647
0.29020	0.13725	0.08627
0.29412	0.14510	0.09020
0.30588	0.15294	0.09804
0.32157	0.17255	0.11765
0.34510	0.19608	0.13725
0.36863	0.22353	0.16078
0.39608	0.25882	0.19216
0.43137	0.29804	0.23137
0.45882	0.32941	0.26275
0.49020	0.37255	0.30588
0.51765	0.40392	0.34118
0.54902	0.44706	0.38431
0.57647	0.48627	0.42745
0.60392	0.52157	0.46667
0.63137	0.56078	0.51373
0.65882	0.59216	0.54902
0.68235	0.62353	0.58431
0.36078	0.21569	0.15294
0.36471	0.21961	0.15686
0.37255	0.22745	0.16471
0.38431	0.24314	0.17647
0.40000	0.26275	0.19608
0.41961	0.28627	0.21961
0.44706	0.31373	0.24706
0.46667	0.34118	0.27451
0.49412	0.37647	0.31373
0.51373	0.40392	0.34118
0.54118	0.43922	0.38039
0.56863	0.47843	0.41961
0.59608	0.51373	0.45882
0.62353	0.54510	0.49412
0.64706	0.58039	0.53333
0.67059	0.61176	0.56863
0.69412	0.63922	0.60392
0.43137	0.29804	0.23137
0.43529	0.30196	0.23529
0.43922	0.30980	0.24314
0.45098	0.31765	0.25098
0.45882	0.32941	0.26275
0.47059	0.34902	0.28235
0.49412	0.37647	0.30980
0.50980	0.39608	0.32941
0.52941	0.42353	0.36078
0.54902	0.45098	0.39216
0.57255	0.48235	0.42745
0.59608	0.51373	0.45882
0.61961	0.54118	0.49412
0.64314	0.57255	0.52549
0.66667	0.60392	0.56078
0.68627	0.63137	0.59216
0.70980	0.65882	0.62745
0.49412	0.37647	0.30980
0.49412	0.37647	0.31373
0.49804	0.38431	0.31765
0.50588	0.39216	0.32549
0.50980	0.40000	0.33333
0.52157	0.41176	0.34902
0.53725	0.43137	0.36863
0.55294	0.45490	0.39608
0.56863	0.47843	0.41961
0.58824	0.49804	0.44314
0.60392	0.52157	0.47059
0.62745	0.54902	0.50196
0.64314	0.57647	0.53333
0.66667	0.60392	0.56471
0.68627	0.63137	0.59216
0.70588	0.65882	0.62353
0.72549	0.68235	0.65098
0.54510	0.44314	0.38431
0.54902	0.44706	0.38431
0.55294	0.45098	0.39216
0.55686	0.45882	0.40000
0.56471	0.47059	0.41176
0.57255	0.48235	0.42353
0.58431	0.49412	0.43922
0.59608	0.51373	0.45882
0.60784	0.52941	0.47451
0.62353	0.54902	0.49804
0.63922	0.57255	0.52157
0.65490	0.59216	0.54902
0.67451	0.61569	0.57647
0.69020	0.63529	0.59608
0.70980	0.66275	0.62745
0.72549	0.68627	0.65490
0.74118	0.70588	0.67843
0.60000	0.51765	0.46275
0.60000	0.51765	0.46275
0.60000	0.51765	0.46275
0.60392	0.52549	0.47059
0.61176	0.52941	0.47843
0.61961	0.54118	0.49020
0.62745	0.55294	0.50196
0.63922	0.56863	0.51765
0.64706	0.58039	0.53333
0.65882	0.59608	0.55294
0.67451	0.61569	0.57647
0.68627	0.63137	0.59216
0.70196	0.65098	0.61569
0.72157	0.67451	0.64314
0.73333	0.69020	0.66275
0.74902	0.70980	0.68235
0.76863	0.73333	0.70980
0.64314	0.57255	0.52549
0.64314	0.57647	0.52941
0.64706	0.57647	0.53333
0.64706	0.58039	0.53333
0.65490	0.58824	0.54118
0.65882	0.59608	0.55294
0.66667	0.60392	0.56471
0.67451	0.61569	0.57647
0.68235	0.62745	0.58824
0.69020	0.63922	0.60000
0.70588	0.65490	0.61961
0.71765	0.67451	0.64314
0.72941	0.68627	0.65882
0.74118	0.70588	0.67843
0.75686	0.72157	0.69804
0.77255	0.74510	0.72157
0.78431	0.76078	0.74118
0.68627	0.63137	0.59216
0.68627	0.63137	0.59216
0.68627	0.63137	0.59216
0.69020	0.63529	0.59608
0.69412	0.63922	0.60392
0.69804	0.64706	0.61176
0.70588	0.65490	0.61961
0.71373	0.66667	0.63137
0.72157	0.67451	0.64314
0.72941	0.68627	0.65490
0.73725	0.69804	0.67059
0.74510	0.70980	0.68235
0.76078	0.72549	0.70196
0.77255	0.74118	0.72157
0.78431	0.75686	0.73725
0.79608	0.77255	0.75294
0.81176	0.78824	0.77255
0.72549	0.68235	0.65490
0.72941	0.68627	0.65490
0.72941	0.68627	0.65490
0.72941	0.68627	0.65882
0.72941	0.69020	0.66275
0.73725	0.69804	0.66667
0.74118	0.70196	0.67451
0.74510	0.70980	0.68235
0.75294	0.71765	0.69412
0.76078	0.72941	0.70588
0.77255	0.74118	0.71765
0.78039	0.75294	0.72941
0.78824	0.76078	0.74118
0.79608	0.77255	0.75686
0.81176	0.78824	0.77255
0.81961	0.80000	0.78431
0.83529	0.81569	0.80000
0.76471	0.73333	0.70980
0.76471	0.73333	0.70980
0.76863	0.73333	0.70980
0.76863	0.73725	0.71373
0.77255	0.74118	0.71765
0.77255	0.74510	0.72157
0.77647	0.74902	0.72941
0.78431	0.75294	0.73333
0.78824	0.76078	0.74118
0.79216	0.76863	0.74902
0.80000	0.77647	0.75686
0.80784	0.78824	0.77255
0.81961	0.79608	0.78431
0.82745	0.80784	0.79608
0.83922	0.81961	0.80392
0.85098	0.83137	0.81961
0.86275	0.85098	0.83922
0.80000	0.77647	0.75686
0.80000	0.77647	0.75686
0.80000	0.77647	0.75686
0.80000	0.77647	0.76078
0.80392	0.78039	0.76471
0.80784	0.78431	0.76863
0.81176	0.79216	0.77647
0.81569	0.79608	0.78039
0.81961	0.80000	0.78431
0.82745	0.80784	0.79608
0.83137	0.81176	0.80000
0.83922	0.82353	0.80784
0.84706	0.83137	0.81961
0.85882	0.84314	0.83529
0.87059	0.85490	0.84706
0.87843	0.86667	0.86275
0.89020	0.87843	0.87451
0.83137	0.81569	0.80000
0.83529	0.81569	0.80000
0.83529	0.81569	0.80392
0.83529	0.81569	0.80392
0.83922	0.81961	0.80784
0.84314	0.82353	0.81176
0.84706	0.82745	0.81569
0.85098	0.83137	0.81961
0.85490	0.83922	0.82745
0.86275	0.84706	0.83529
0.86667	0.85490	0.84706
0.87451	0.86275	0.85490
0.88235	0.87059	0.86275
0.89020	0.87843	0.87059
0.89804	0.89020	0.88235
0.90980	0.89804	0.89412
0.91765	0.90980	0.90588
0.87451	0.85882	0.85098
0.87451	0.85882	0.85098
0.87451	0.85882	0.85098
0.87451	0.86275	0.85490
0.87843	0.86275	0.85490
0.87843	0.86667	0.85882
0.88235	0.87059	0.86275
0.88627	0.87451	0.86667
0.89020	0.87843	0.87059
0.89412	0.88235	0.87843
0.89804	0.89020	0.88627
0.90588	0.89804	0.89020
0.91373	0.90588	0.89804
0.92157	0.91373	0.90588
0.92941	0.92157	0.91765
0.94118	0.93333	0.92941
0.94902	0.94510	0.94510
0.90588	0.89804	0.89412
0.90588	0.89804	0.89412
0.90588	0.89804	0.89412
0.90980	0.90196	0.89412
0.90980	0.90196	0.89804
0.91373	0.90588	0.89804
0.91373	0.90588	0.90196
0.91765	0.90980	0.90588
0.92549	0.91373	0.90980
0.92941	0.92157	0.91373
0.93333	0.92941	0.92549
0.94118	0.93333	0.92941
0.94902	0.94118	0.93725
0.95686	0.95294	0.94902
0.96471	0.96078	0.95686
0.97255	0.96863	0.96863
0.98039	0.98039	0.97647
0.12549	0.00784	0.00392
0.13333	0.01176	0.00784
0.14902	0.01961	0.01176
0.18039	0.03529	0.01961
0.22353	0.07843	0.03922
0.27059	0.12157	0.07451
0.31373	0.16471	0.10980
0.36078	0.21569	0.15294
0.40392	0.26275	0.19608
0.44314	0.30980	0.24314
0.47843	0.35686	0.29020
0.50980	0.40000	0.33333
0.54510	0.44314	0.38431
0.58039	0.49020	0.43137
0.60784	0.52941	0.47843
0.63922	0.56863	0.52157
0.66667	0.60392	0.56078
0.15294	0.01961	0.01176
0.16078	0.02353	0.01176
0.18431	0.03922	0.01961
0.21569	0.07059	0.03529
0.25098	0.10196	0.05882
0.29412	0.14118	0.09020
0.32941	0.18431	0.12549
0.37255	0.22745	0.16471
0.41569	0.27843	0.21176
0.45098	0.32157	0.25490
0.48627	0.36863	0.30196
0.51765	0.40784	0.34510
0.55294	0.45490	0.39608
0.58431	0.49412	0.43922
0.61176	0.53333	0.48235
0.63922	0.57255	0.52549
0.67059	0.60784	0.56863
0.21569	0.07059	0.03529
0.22745	0.07843	0.04314
0.24314	0.09020	0.05098
0.26667	0.11373	0.07059
0.29412	0.14118	0.09020
0.32549	0.17255	0.11765
0.36078	0.21569	0.15294
0.39216	0.25490	0.18824
0.43529	0.30196	0.23529
0.46275	0.33725	0.27451
0.50196	0.38431	0.32157
0.52941	0.42353	0.36078
0.56078	0.46667	0.40784
0.59216	0.50588	0.45490
0.61961	0.54510	0.49412
0.64706	0.58039	0.53333
0.67451	0.61569	0.57647
0.29020	0.14118	0.09020
0.29804	0.14510	0.09412
0.30588	0.15686	0.10196
0.32157	0.17255	0.11765
0.34510	0.20000	0.13725
0.36863	0.22745	0.16471
0.39608	0.25882	0.19216
0.43137	0.29804	0.23137
0.45882	0.33333	0.26667
0.49020	0.37255	0.30588
0.51765	0.40784	0.34118
0.54902	0.44706	0.38431
0.57647	0.48627	0.43137
0.60392	0.52157	0.46667
0.63137	0.56078	0.51373
0.65882	0.59216	0.54902
0.68235	0.62353	0.58431
0.36078	0.21569	0.15686
0.36471	0.22353	0.16078
0.37255	0.23137	0.16863
0.38431	0.24314	0.18039
0.40392	0.26275	0.20000
0.42353	0.28627	0.21961
0.44706	0.31373	0.24706
0.46667	0.34118	0.27451
0.49412	0.37647	0.31373
0.51765	0.40392	0.34118
0.54118	0.43922	0.38039
0.57255	0.47843	0.41961
0.60000	0.51373	0.45882
0.62353	0.54510	0.49412
0.64706	0.58039	0.53333
0.67059	0.61176	0.57255
0.69412	0.63922	0.60392
0.43137	0.29804	0.23137
0.43529	0.30196	0.23529
0.44314	0.30980	0.24314
0.45098	0.32157	0.25490
0.45882	0.32941	0.26275
0.47059	0.34902	0.28235
0.49412	0.37647	0.30980
0.50980	0.39608	0.33333
0.52941	0.42353	0.36078
0.55294	0.45098	0.39216
0.57255	0.48235	0.42745
0.59608	0.51373	0.45882
0.61961	0.54510	0.49412
0.64314	0.57255	0.52549
0.66667	0.60392	0.56078
0.68627	0.63137	0.59216
0.70980	0.66275	0.62745
0.49412	0.37647	0.30980
0.49412	0.38039	0.31373
0.49804	0.38431	0.31765
0.50588	0.39216	0.32549
0.50980	0.40000	0.33725
0.52157	0.41176	0.34902
0.53725	0.43137	0.37255
0.55294	0.45490	0.39608
0.56863	0.47843	0.41961
0.58824	0.49804	0.44314
0.60392	0.52157	0.47059
0.62745	0.54902	0.50196
0.64314	0.57647	0.53333
0.66667	0.60784	0.56471
0.68627	0.63137	0.59216
0.70588	0.65882	0.62353
0.72549	0.68235	0.65490
0.54510	0.44706	0.38431
0.54902	0.44706	0.38824
0.55294	0.45490	0.39608
0.55686	0.45882	0.40000
0.56471	0.47059	0.41176
0.57255	0.48235	0.42745
0.58431	0.49412	0.43922
0.59608	0.51373	0.45882
0.60784	0.52941	0.47843
0.62353	0.54902	0.49804
0.63922	0.56863	0.52157
0.65490	0.59216	0.54902
0.67451	0.61569	0.57647
0.69020	0.63529	0.59608
0.70980	0.66275	0.62745
0.72941	0.68627	0.65490
0.74118	0.70588	0.67843
0.60000	0.51765	0.46275
0.60000	0.51765	0.46275
0.60000	0.51765	0.46275
0.60392	0.52549	0.47059
0.61176	0.53333	0.47843
0.61961	0.54118	0.49412
0.62745	0.55294	0.50588
0.63922	0.56863	0.51765
0.64706	0.58039	0.53333
0.66275	0.60000	0.55294
0.67451	0.61569	0.57647
0.68627	0.63137	0.59216
0.70196	0.65098	0.61569
0.72157	0.67451	0.64314
0.73333	0.69020	0.66275
0.74902	0.70980	0.68235
0.76863	0.73333	0.71373
0.64314	0.57255	0.52549
0.64314	0.57647	0.52941
0.64706	0.57647	0.53333
0.65098	0.58039	0.53725
0.65490	0.58824	0.54510
0.65882	0.59608	0.55294
0.66667	0.60392	0.56471
0.67451	0.61569	0.57647
0.68235	0.62745	0.58824
0.69020	0.63922	0.60000
0.70588	0.65490	0.61961
0.71765	0.67451	0.64314
0.72941	0.68627	0.65882
0.74118	0.70588	0.67843
0.75686	0.72157	0.69412
0.77255	0.74118	0.72157
0.78431	0.76078	0.74118
0.68627	0.63137	0.59216
0.68627	0.63137	0.59216
0.68627	0.63137	0.59216
0.69020	0.63529	0.59608
0.69412	0.63922	0.60392
0.69804	0.64706	0.61176
0.70588	0.65490	0.61961
0.71373	0.66667	0.63137
0.72157	0.67451	0.64314
0.72941	0.68627	0.65490
0.73725	0.69804	0.67059
0.74510	0.70980	0.68235
0.76078	0.72549	0.70196
0.77255	0.74118	0.72157
0.78431	0.75686	0.73725
0.79608	0.76863	0.75294
0.81176	0.78824	0.77255
0.72549	0.68235	0.65490
0.72941	0.68627	0.65490
0.72941	0.68627	0.65490
0.72941	0.69020	0.65882
0.73333	0.69020	0.66275
0.73725	0.69804	0.67059
0.74118	0.70196	0.67451
0.74510	0.70980	0.68235
0.75294	0.71765	0.69412
0.76078	0.72941	0.70588
0.77255	0.74118	0.71765
0.78039	0.75294	0.72941
0.78824	0.76078	0.74118
0.79608	0.77255	0.75686
0.81176	0.78824	0.77255
0.82353	0.80000	0.78431
0.83529	0.81569	0.80000
0.76471	0.73333	0.70588
0.76471	0.73333	0.70980
0.76471	0.73333	0.70980
0.76863	0.73725	0.71373
0.77255	0.74118	0.71765
0.77255	0.74510	0.72157
0.77647	0.74902	0.72941
0.78431	0.75686	0.73333
0.78824	0.76078	0.74118
0.79216	0.76863	0.74902
0.80000	0.77647	0.75686
0.80784	0.78824	0.77255
0.81961	0.79608	0.78431
0.82745	0.80784	0.79608
0.83922	0.81961	0.80392
0.85098	0.83529	0.81961
0.86275	0.85098	0.83922
0.80000	0.77255	0.75686
0.80000	0.77647	0.75686
0.80000	0.77647	0.75686
0.80000	0.77647	0.76078
0.80392	0.78039	0.76471
0.80784	0.78824	0.76863
0.81176	0.79216	0.77647
0.81569	0.79608	0.78039
0.81961	0.80000	0.78431
0.82745	0.80784	0.79608
0.83137	0.81176	0.80000
0.83922	0.82353	0.81176
0.85098	0.83137	0.81961
0.85882	0.84314	0.83529
0.87059	0.85490	0.84706
0.87843	0.86667	0.86275
0.89020	0.87843	0.87451
0.83137	0.81569	0.80000
0.83529	0.81569	0.80000
0.83529	0.81569	0.80392
0.83529	0.81569	0.80392
0.83922	0.81961	0.80784
0.84314	0.82353	0.81176
0.84314	0.82745	0.81569
0.85098	0.83529	0.81961
0.85490	0.83922	0.82745
0.86275	0.84706	0.83529
0.86667	0.85490	0.84706
0.87451	0.86275	0.85490
0.88235	0.87059	0.86275
0.89020	0.87843	0.87059
0.89804	0.89020	0.88235
0.90980	0.89804	0.89412
0.91765	0.90980	0.90588
0.87451	0.85882	0.85098
0.87451	0.85882	0.85098
0.87451	0.86275	0.85098
0.87451	0.86275	0.85490
0.87843	0.86275	0.85490
0.87843	0.86667	0.85882
0.88235	0.87059	0.86275
0.88627	0.87451	0.86667
0.89020	0.87843	0.87059
0.89412	0.88627	0.87843
0.89804	0.89020	0.88627
0.90588	0.89804	0.89020
0.91373	0.90588	0.89804
0.92157	0.91373	0.90588
0.92941	0.92157	0.91765
0.94118	0.93333	0.92941
0.94902	0.94510	0.94118
0.90588	0.89804	0.89412
0.90588	0.89804	0.89412
0.90588	0.89804	0.89412
0.90980	0.90196	0.89412
0.90980	0.90196	0.89804
0.91373	0.90588	0.89804
0.91765	0.90588	0.90196
0.91765	0.90980	0.90588
0.92549	0.91373	0.90980
0.92941	0.92157	0.91373
0.93333	0.92941	0.92549
0.94118	0.93333	0.92941
0.94902	0.94118	0.93725
0.95686	0.95294	0.94902
0.96471	0.96078	0.95686
0.97255	0.96863	0.96863
0.98039	0.98039	0.97647
0.12941	0.00784	0.00784
0.13725	0.01176	0.00784
0.15294	0.01961	0.01176
0.18431	0.03922	0.01961
0.23137	0.08235	0.04314
0.27451	0.12549	0.07843
0.31765	0.16863	0.10980
0.36078	0.21569	0.15294
0.40392	0.26667	0.20000
0.44314	0.31373	0.24706
0.47843	0.35686	0.29412
0.51373	0.40000	0.33725
0.54902	0.44706	0.38431
0.58039	0.49020	0.43529
0.60784	0.52941	0.47843
0.63922	0.56863	0.52157
0.66667	0.60784	0.56471
0.15686	0.02353	0.01176
0.16863	0.02745	0.01569
0.18824	0.04314	0.01961
0.21961	0.07451	0.03922
0.25490	0.10588	0.06275
0.29412	0.14510	0.09412
0.33333	0.18824	0.12941
0.37647	0.23137	0.16863
0.41569	0.27843	0.21176
0.45098	0.32549	0.25882
0.49020	0.36863	0.30588
0.51765	0.40784	0.34510
0.55294	0.45490	0.39608
0.58431	0.49804	0.43922
0.61176	0.53725	0.48627
0.64314	0.57255	0.52549
0.67059	0.61176	0.56863
0.22353	0.07451	0.03922
0.23137	0.08235	0.04314
0.24314	0.09412	0.05490
0.27059	0.11765	0.07059
0.29804	0.14510	0.09412
0.32549	0.17647	0.12157
0.36078	0.21569	0.15686
0.39608	0.25882	0.19216
0.43529	0.30196	0.23529
0.46275	0.34118	0.27451
0.50196	0.38431	0.32157
0.52941	0.42353	0.36471
0.56471	0.46667	0.41176
0.59608	0.50980	0.45490
0.61961	0.54510	0.49412
0.64706	0.58039	0.53333
0.67451	0.61569	0.57647
0.29412	0.14118	0.09020
0.29804	0.14902	0.09412
0.30980	0.15686	0.10588
0.32549	0.17647	0.11765
0.34902	0.20000	0.14118
0.37255	0.22745	0.16471
0.40000	0.26275	0.19608
0.43529	0.29804	0.23137
0.45882	0.33333	0.26667
0.49020	0.37255	0.30980
0.51765	0.40784	0.34510
0.54902	0.44706	0.38824
0.57647	0.48627	0.43137
0.60392	0.52157	0.47059
0.63529	0.56078	0.51373
0.65882	0.59608	0.54902
0.68235	0.62745	0.58824
0.36471	0.21961	0.15686
0.36863	0.22353	0.16078
0.37647	0.23137	0.16863
0.38824	0.24314	0.18039
0.40392	0.26667	0.20000
0.42353	0.28627	0.21961
0.44706	0.31765	0.25098
0.46667	0.34510	0.27843
0.49804	0.38039	0.31373
0.51765	0.40784	0.34118
0.54510	0.44314	0.38039
0.57255	0.47843	0.42353
0.60000	0.51373	0.45882
0.62353	0.54510	0.49804
0.64706	0.58039	0.53333
0.67451	0.61176	0.57255
0.69412	0.63922	0.60392
0.43529	0.30196	0.23529
0.43922	0.30588	0.23922
0.44314	0.30980	0.24314
0.45098	0.32157	0.25490
0.45882	0.33333	0.26667
0.47451	0.34902	0.28627
0.49412	0.37647	0.30980
0.50980	0.39608	0.33333
0.52941	0.42353	0.36471
0.55294	0.45098	0.39216
0.57647	0.48235	0.42745
0.60000	0.51373	0.46275
0.61961	0.54510	0.49412
0.64314	0.57255	0.52941
0.66667	0.60392	0.56078
0.68627	0.63137	0.59216
0.70980	0.66275	0.62745
0.49412	0.37647	0.31373
0.49804	0.38039	0.31373
0.50196	0.38431	0.32157
0.50588	0.39216	0.32549
0.51373	0.40000	0.33725
0.52549	0.41569	0.35294
0.53725	0.43529	0.37255
0.55294	0.45490	0.39608
0.57255	0.47843	0.42353
0.58824	0.50196	0.44706
0.60392	0.52549	0.47059
0.62745	0.55294	0.50196
0.64314	0.57647	0.53333
0.66667	0.60784	0.56471
0.68627	0.63137	0.59216
0.70588	0.65882	0.62353
0.72549	0.68235	0.65490
0.54902	0.44706	0.38431
0.54902	0.45098	0.38824
0.55294	0.45490	0.39608
0.55686	0.46275	0.40392
0.56471	0.47059	0.41569
0.57255	0.48235	0.42745
0.58431	0.49412	0.43922
0.59608	0.51373	0.45882
0.60784	0.52941	0.47843
0.62353	0.54902	0.49804
0.63922	0.57255	0.52157
0.65882	0.59216	0.54902
0.67451	0.61569	0.57647
0.69020	0.63529	0.59608
0.70980	0.66275	0.62745
0.72941	0.68627	0.65490
0.74118	0.70588	0.67843
0.60000	0.51765	0.46275
0.60000	0.51765	0.46275
0.60392	0.51765	0.46667
0.60392	0.52549	0.47059
0.61176	0.53333	0.48235
0.61961	0.54510	0.49412
0.62745	0.55294	0.50588
0.63922	0.56863	0.52157
0.64706	0.58039	0.53333
0.66275	0.60000	0.55294
0.67451	0.61569	0.57647
0.68627	0.63137	0.59216
0.70196	0.65098	0.61569
0.72157	0.67451	0.64314
0.73333	0.69020	0.66275
0.74902	0.70980	0.68627
0.76863	0.73333	0.71373
0.64314	0.57647	0.52941
0.64314	0.57647	0.52941
0.64706	0.58039	0.53333
0.65098	0.58039	0.53725
0.65490	0.58824	0.54510
0.65882	0.59608	0.55294
0.66667	0.60784	0.56471
0.67451	0.61569	0.57647
0.68235	0.62745	0.58824
0.69412	0.63922	0.60392
0.70588	0.65490	0.61961
0.72157	0.67451	0.64314
0.72941	0.68627	0.65882
0.74118	0.70588	0.67843
0.75686	0.72157	0.69804
0.77255	0.74510	0.72157
0.78431	0.76078	0.74118
0.68627	0.63137	0.59216
0.68627	0.63137	0.59216
0.68627	0.63137	0.59216
0.69020	0.63529	0.60000
0.69412	0.64314	0.60392
0.69804	0.64706	0.61176
0.70588	0.65490	0.62353
0.71373	0.66667	0.63529
0.72157	0.67451	0.64314
0.72941	0.68627	0.65490
0.73725	0.69804	0.67059
0.74510	0.70980	0.68235
0.76078	0.72549	0.70196
0.77255	0.74510	0.72157
0.78431	0.75686	0.73725
0.79608	0.77255	0.75294
0.81176	0.78824	0.77647
0.72549	0.68627	0.65490
0.72941	0.68627	0.65490
0.72941	0.68627	0.65490
0.72941	0.69020	0.65882
0.73333	0.69020	0.66275
0.73725	0.69804	0.67059
0.74118	0.70196	0.67451
0.74510	0.70980	0.68235
0.75294	0.71765	0.69412
0.76078	0.72941	0.70588
0.77255	0.74118	0.71765
0.78039	0.75294	0.73333
0.78824	0.76078	0.74510
0.80000	0.77647	0.75686
0.81176	0.78824	0.77647
0.82353	0.80000	0.78824
0.83529	0.81569	0.80000
0.76471	0.73333	0.70980
0.76471	0.73333	0.70980
0.76863	0.73333	0.70980
0.76863	0.73725	0.71373
0.77255	0.74118	0.71765
0.77255	0.74510	0.72157
0.77647	0.74902	0.72941
0.78431	0.75686	0.73333
0.78824	0.76078	0.74118
0.79216	0.76863	0.74902
0.80000	0.77647	0.76078
0.80784	0.78824	0.77255
0.81961	0.79608	0.78431
0.82745	0.81176	0.79608
0.83922	0.81961	0.80392
0.85098	0.83529	0.82353
0.86275	0.85098	0.83922
0.80000	0.77647	0.75686
0.80000	0.77647	0.75686
0.80000	0.77647	0.75686
0.80000	0.77647	0.76078
0.80392	0.78039	0.76471
0.80784	0.78824	0.76863
0.81176	0.79216	0.77647
0.81569	0.79608	0.78039
0.81961	0.80000	0.78431
0.82745	0.80784	0.79608
0.83137	0.81176	0.80000
0.83922	0.82353	0.81176
0.85098	0.83137	0.81961
0.85882	0.84706	0.83529
0.87059	0.85490	0.84706
0.87843	0.86667	0.86275
0.89020	0.87843	0.87451
0.83137	0.81569	0.80000
0.83529	0.81569	0.80000
0.83529	0.81569	0.80392
0.83529	0.81569	0.80392
0.83922	0.81961	0.80784
0.84314	0.82353	0.81176
0.84706	0.82745	0.81569
0.85098	0.83529	0.82353
0.85490	0.83922	0.82745
0.86275	0.84706	0.83529
0.86667	0.85490	0.84706
0.87451	0.86275	0.85490
0.88235	0.87059	0.86275
0.89020	0.87843	0.87451
0.89804	0.89020	0.88235
0.90980	0.89804	0.89412
0.91765	0.90980	0.90588
0.87451	0.85882	0.85098
0.87451	0.85882	0.85098
0.87451	0.86275	0.85098
0.87451	0.86275	0.85490
0.87843	0.86275	0.85490
0.87843	0.86667	0.85882
0.88235	0.87059	0.86275
0.88627	0.87451	0.86667
0.89020	0.87843	0.87059
0.89412	0.88627	0.87843
0.89804	0.89020	0.88627
0.90588	0.89804	0.89020
0.91373	0.90588	0.89804
0.92157	0.91373	0.90588
0.92941	0.92157	0.91765
0.94118	0.93333	0.93333
0.94902	0.94510	0.94118
0.90588	0.89804	0.89412
0.90588	0.89804	0.89412
0.90588	0.89804	0.89412
0.90980	0.90196	0.89412
0.90980	0.90196	0.89804
0.91373	0.90588	0.89804
0.91765	0.90980	0.90196
0.92157	0.90980	0.90588
0.92549	0.91373	0.90980
0.92941	0.92157	0.91373
0.93333	0.92941	0.92549
0.94118	0.93333	0.93333
0.94902	0.94118	0.93725
0.95686	0.95294	0.94902
0.96471	0.96078	0.95686
0.97255	0.96863	0.96863
0.98039	0.98039	0.97647
0.13725	0.01176	0.00784
0.14510	0.01569	0.00784
0.16078	0.02353	0.01176
0.19216	0.04706	0.02353
0.23529	0.08627	0.04706
0.28235	0.12941	0.07843
0.32157	0.17255	0.11765
0.36471	0.21961	0.15686
0.40784	0.26667	0.20000
0.44706	0.31373	0.24706
0.48235	0.36078	0.29412
0.51373	0.40392	0.34118
0.54902	0.44706	0.38824
0.58039	0.49020	0.43529
0.61176	0.52941	0.47843
0.63922	0.57255	0.52157
0.66667	0.60784	0.56471
0.16471	0.02745	0.01176
0.17647	0.03529	0.01569
0.19608	0.05098	0.02353
0.22745	0.07843	0.04314
0.26667	0.11373	0.06667
0.30196	0.14902	0.09804
0.33725	0.18824	0.12941
0.37647	0.23529	0.16863
0.41569	0.28235	0.21569
0.45490	0.32549	0.25882
0.49020	0.37255	0.30588
0.52157	0.41176	0.34902
0.55686	0.45882	0.40000
0.58824	0.49804	0.44314
0.61569	0.53725	0.48627
0.64314	0.57255	0.52941
