LUTGenerator/TEST/CUBE/Duotone/Sepia/Duotone_Sepia_Medium_sRGB.cube
TITLE Duotone_Sepia_Medium_sRGB.cube
LUT_3D_SIZE 5
DOMAIN_MIN 0.0 0.0 0.0
DOMAIN_MAX 1.0 1.0 1.0
0.12157	0.01961	0.01176
0.20784	0.10196	0.06275
0.37255	0.29020	0.23529
0.51765	0.47059	0.43137
0.64314	0.62353	0.60000
0.33725	0.24314	0.18824
0.37255	0.29020	0.23529
0.46275	0.40392	0.35686
0.56863	0.53333	0.50196
0.67059	0.65490	0.63922
0.56863	0.53725	0.50588
0.58431	0.55686	0.52549
0.61961	0.60000	0.57647
0.67843	0.66667	0.65098
0.75294	0.74510	0.73725
0.74902	0.74118	0.73725
0.75686	0.74902	0.74510
0.78039	0.77255	0.76471
0.81569	0.80784	0.80784
0.86275	0.85490	0.85882
0.90980	0.90588	0.90980
0.91373	0.90980	0.91373
0.92549	0.92549	0.92549
0.94902	0.94510	0.94510
0.98039	0.98039	0.98039
0.13725	0.03529	0.01961
0.22745	0.12157	0.07843
0.38431	0.30196	0.24706
0.52157	0.47843	0.43529
0.64314	0.62745	0.60392
0.34510	0.25490	0.20392
0.38431	0.30196	0.24706
0.47059	0.41176	0.36471
0.57255	0.54118	0.50588
0.67451	0.65882	0.64314
0.57255	0.54510	0.50980
0.58824	0.56078	0.52941
0.62353	0.60392	0.58039
0.68235	0.67059	0.65490
0.75294	0.74510	0.74118
0.75294	0.74510	0.73725
0.76078	0.75294	0.74510
0.77647	0.77255	0.76863
0.81569	0.81176	0.81176
0.86275	0.85882	0.85882
0.90980	0.90980	0.90980
0.91373	0.91373	0.91373
0.92941	0.92549	0.92549
0.94902	0.94510	0.94510
0.98431	0.98431	0.98431
0.21569	0.10980	0.07059
0.28235	0.18039	0.13333
0.41176	0.33725	0.28235
0.53725	0.49412	0.45882
0.65490	0.63922	0.61569
0.38039	0.29412	0.24314
0.41176	0.33725	0.28627
0.48627	0.43137	0.38431
0.58431	0.55686	0.52549
0.68235	0.67059	0.65098
0.58431	0.55686	0.52549
0.60000	0.57647	0.54510
0.63529	0.61569	0.59216
0.69020	0.67843	0.66275
0.76078	0.75294	0.74902
0.75686	0.74902	0.74510
0.76471	0.75686	0.75294
0.78431	0.77647	0.77255
0.81961	0.81569	0.81569
0.86667	0.86275	0.86275
0.91373	0.90980	0.91373
0.91765	0.91765	0.91765
0.93333	0.92941	0.92941
0.95686	0.95294	0.95294
0.98431	0.98431	0.98431
0.31765	0.21961	0.16863
0.35686	0.27059	0.21569
0.45490	0.39216	0.34118
0.56078	0.52549	0.49020
0.66667	0.65098	0.63529
0.42353	0.35294	0.30196
0.45490	0.38824	0.34118
0.51765	0.47059	0.43137
0.60392	0.58039	0.55294
0.69412	0.68235	0.67059
0.60784	0.58431	0.55686
0.61569	0.59216	0.56863
0.65098	0.63529	0.61569
0.70196	0.69020	0.68235
0.77255	0.76471	0.76078
0.76863	0.76078	0.75686
0.77647	0.76863	0.76471
0.79216	0.78824	0.78431
0.82745	0.82353	0.82353
0.87451	0.87059	0.87059
0.92157	0.91765	0.92157
0.92549	0.92157	0.92549
0.93333	0.93333	0.93333
0.96078	0.95686	0.96078
0.99216	0.99216	0.99216
0.41176	0.33725	0.28235
0.43137	0.36471	0.31373
0.50588	0.45490	0.41176
0.59608	0.56863	0.54118
0.69020	0.67843	0.66275
0.48627	0.43137	0.38431
0.50588	0.45490	0.41176
0.55686	0.52157	0.48627
0.63137	0.61176	0.58824
0.71373	0.70588	0.69412
0.63529	0.61569	0.59216
0.64706	0.62745	0.60784
0.67451	0.65882	0.64314
0.72549	0.71373	0.70588
0.78431	0.78039	0.77647
0.78039	0.77647	0.77255
0.78824	0.78431	0.78039
0.81176	0.80392	0.80392
0.83922	0.83529	0.83529
0.88627	0.88235	0.88627
0.93333	0.92941	0.92941
0.93333	0.93333	0.93333
0.94510	0.94118	0.94510
0.96863	0.96863	0.96863
1.00000	1.00000	1.00000
