LUTGenerator/TEST/CUBE/Duotone/Sepia/Duotone_Sepia_Subtle_sRGB.cube
TITLE Duotone_Sepia_Subtle_sRGB.cube
LUT_3D_SIZE 9
DOMAIN_MIN 0.0 0.0 0.0
DOMAIN_MAX 1.0 1.0 1.0
0.12157	0.01961	0.01176
0.14118	0.03529	0.01961
0.20392	0.10196	0.06667
0.28627	0.19608	0.14902
0.36863	0.29804	0.25098
0.43922	0.39608	0.36078
0.51373	0.49412	0.47059
0.57255	0.56863	0.56078
0.63137	0.63137	0.63137
0.19608	0.09412	0.05882
0.21569	0.11765	0.07843
0.26667	0.17255	0.12549
0.33333	0.25098	0.20392
0.40000	0.33725	0.29804
0.46275	0.42745	0.39216
0.52941	0.51765	0.49804
0.58431	0.58039	0.57647
0.64314	0.63922	0.63922
0.33333	0.25098	0.20392
0.34510	0.26667	0.21961
0.36863	0.29804	0.25490
0.41176	0.35294	0.31373
0.45490	0.41961	0.38431
0.50980	0.49020	0.46667
0.56078	0.55686	0.54510
0.61176	0.61176	0.61176
0.65882	0.65882	0.65882
0.45490	0.41569	0.38039
0.46275	0.42745	0.39216
0.47451	0.44314	0.41176
0.50196	0.48235	0.45490
0.53725	0.52941	0.50980
0.56863	0.56471	0.55686
0.61176	0.60784	0.60784
0.65098	0.65098	0.65098
0.69804	0.69804	0.69804
0.56078	0.55686	0.54510
0.56471	0.56078	0.55294
0.57647	0.57255	0.56471
0.59216	0.58824	0.58431
0.61176	0.61176	0.61176
0.63922	0.63922	0.63922
0.67451	0.67059	0.67059
0.70980	0.70588	0.70980
0.74510	0.74510	0.74510
0.65098	0.65098	0.65098
0.65490	0.65098	0.65490
0.65882	0.65882	0.65882
0.67451	0.67451	0.67451
0.69412	0.69020	0.69020
0.70980	0.70980	0.70980
0.73725	0.73725	0.73725
0.76863	0.76863	0.76863
0.80000	0.80000	0.80000
0.74510	0.74510	0.74510
0.74510	0.74510	0.74510
0.75294	0.74902	0.74902
0.76078	0.76078	0.76078
0.77255	0.77255	0.77255
0.78431	0.78431	0.78431
0.80784	0.80784	0.80784
0.82745	0.82745	0.82745
0.85882	0.85882	0.85882
0.82353	0.82353	0.82353
0.82745	0.82745	0.82745
0.83137	0.83137	0.83137
0.83529	0.83529	0.83529
0.84706	0.84706	0.84706
0.86275	0.86275	0.86275
0.87451	0.87451	0.87451
0.89804	0.89804	0.89804
0.91765	0.91765	0.91765
0.90588	0.90588	0.90588
0.90980	0.90588	0.90980
0.90980	0.90980	0.90980
0.91765	0.91765	0.91765
0.92549	0.92549	0.92549
0.93333	0.93333	0.93333
0.94902	0.94902	0.94902
0.96471	0.96471	0.96471
0.98039	0.98039	0.98039
0.12549	0.02353	0.01176
0.14510	0.04314	0.02353
0.21176	0.10980	0.07059
0.29020	0.20392	0.15294
0.37255	0.30196	0.25490
0.44314	0.40000	0.36078
0.51373	0.49804	0.47451
0.57255	0.56863	0.56471
0.63137	0.63137	0.63137
0.20392	0.10196	0.06275
0.22353	0.12157	0.08235
0.27059	0.17647	0.13333
0.33725	0.25490	0.20784
0.40000	0.34118	0.29804
0.46275	0.42745	0.39608
0.52941	0.52157	0.49804
0.58431	0.58431	0.58039
0.64314	0.63922	0.63922
0.33725	0.25882	0.20784
0.34510	0.26667	0.21961
0.37255	0.30196	0.25882
0.41176	0.35686	0.31765
0.45882	0.42353	0.38824
0.50980	0.49412	0.47059
0.56078	0.55686	0.54510
0.61176	0.61176	0.61176
0.66275	0.65882	0.65882
0.45490	0.41961	0.38431
0.46275	0.42745	0.39608
0.47451	0.44314	0.41176
0.50588	0.48627	0.45882
0.53725	0.52941	0.50980
0.56863	0.56471	0.55686
0.61176	0.60784	0.60784
0.65098	0.65098	0.65098
0.70196	0.69804	0.69804
0.56471	0.55686	0.54902
0.56863	0.56078	0.55294
0.57647	0.57255	0.56471
0.59216	0.58824	0.58824
0.61569	0.61176	0.61176
0.63922	0.63922	0.63922
0.67451	0.67059	0.67451
0.70980	0.70980	0.70980
0.74902	0.74510	0.74510
0.65098	0.65098	0.65098
0.65490	0.65490	0.65490
0.66275	0.66275	0.66275
0.67843	0.67451	0.67451
0.69412	0.69020	0.69412
0.70980	0.70980	0.70980
0.74118	0.73725	0.73725
0.76863	0.76863	0.76863
0.80000	0.80000	0.80000
0.74510	0.74510	0.74510
0.74902	0.74510	0.74510
0.75294	0.75294	0.75294
0.76078	0.76078	0.76078
0.77255	0.77255	0.77255
0.78431	0.78431	0.78431
0.80784	0.80784	0.80784
0.82745	0.82745	0.82745
0.85882	0.85882	0.85882
0.82353	0.82353	0.82353
0.82745	0.82745	0.82745
0.83137	0.83137	0.83137
0.83529	0.83529	0.83529
0.84706	0.84706	0.84706
0.86275	0.86275	0.86275
0.87451	0.87451	0.87451
0.89804	0.89804	0.89804
0.92157	0.92157	0.92157
0.90588	0.90588	0.90588
0.90980	0.90980	0.90980
0.90980	0.90980	0.90980
0.91765	0.91765	0.91765
0.92549	0.92549	0.92549
0.93333	0.93333	0.93333
0.94902	0.94902	0.94902
0.96471	0.96471	0.96471
0.98039	0.98039	0.98039
0.13725	0.03529	0.01961
0.16078	0.05882	0.03137
0.22353	0.12157	0.08235
0.30196	0.21569	0.16471
0.37647	0.30980	0.26667
0.44706	0.40784	0.36863
0.51765	0.50196	0.47843
0.57647	0.57255	0.56863
0.63529	0.63137	0.63529
0.21569	0.11765	0.07843
0.23922	0.14118	0.09804
0.27843	0.18824	0.14118
0.34510	0.26667	0.21569
0.40784	0.34902	0.30980
0.46667	0.43529	0.40000
0.53333	0.52157	0.50196
0.58824	0.58431	0.58039
0.64314	0.64314	0.64314
0.34510	0.26667	0.21961
0.35294	0.27843	0.23137
0.38039	0.30980	0.26667
0.41961	0.36471	0.32157
0.46275	0.42745	0.39608
0.51373	0.49804	0.47451
0.56078	0.55686	0.54902
0.61569	0.61176	0.61176
0.66275	0.66275	0.66275
0.46275	0.42353	0.39216
0.46667	0.43529	0.40000
0.47843	0.45098	0.41961
0.50588	0.49020	0.46275
0.54118	0.53333	0.51373
0.57255	0.56863	0.56078
0.61176	0.61176	0.61176
0.65490	0.65098	0.65098
0.70196	0.70196	0.70196
0.56471	0.56078	0.55294
0.56863	0.56471	0.55686
0.57647	0.57647	0.56863
0.59216	0.59216	0.59216
0.61569	0.61569	0.61569
0.64314	0.64314	0.64314
0.67451	0.67451	0.67451
0.70980	0.70980	0.70980
0.74902	0.74902	0.74902
0.65490	0.65098	0.65490
0.65490	0.65490	0.65490
0.66275	0.66275	0.66275
0.67843	0.67843	0.67843
0.69412	0.69412	0.69412
0.71373	0.70980	0.70980
0.74118	0.74118	0.74118
0.76863	0.76863	0.76863
0.80000	0.80000	0.80000
0.74510	0.74510	0.74510
0.74902	0.74510	0.74902
0.75294	0.75294	0.75294
0.76078	0.76078	0.76078
0.77255	0.77255	0.77255
0.78824	0.78824	0.78824
0.81176	0.81176	0.81176
0.83137	0.83137	0.83137
0.85882	0.85882	0.85882
0.82745	0.82745	0.82745
0.82745	0.82745	0.82745
0.83137	0.83137	0.83137
0.83922	0.83922	0.83922
0.84706	0.84706	0.84706
0.86275	0.86275	0.86275
0.87843	0.87843	0.87843
0.89804	0.89804	0.89804
0.92157	0.92157	0.92157
0.90980	0.90980	0.90980
0.90980	0.90980	0.90980
0.91373	0.91373	0.91373
0.91765	0.91765	0.91765
0.92549	0.92549	0.92549
0.93725	0.93725	0.93725
0.94902	0.94902	0.94902
0.96471	0.96471	0.96471
0.98431	0.98431	0.98431
0.16471	0.06275	0.03529
0.19608	0.09412	0.05882
0.25098	0.15294	0.10980
0.32157	0.23529	0.18824
0.38824	0.32549	0.28235
0.45490	0.41961	0.38431
0.52157	0.50980	0.49020
0.58039	0.57647	0.57255
0.63922	0.63529	0.63529
0.24706	0.14510	0.10588
0.26275	0.16471	0.12157
0.30196	0.21176	0.16471
0.35294	0.27843	0.23137
0.41569	0.36471	0.32157
0.47059	0.43922	0.40784
0.53725	0.52941	0.51373
0.59216	0.58824	0.58824
0.64706	0.64706	0.64706
0.35686	0.28235	0.23529
0.36471	0.29412	0.24706
0.38824	0.32549	0.28235
0.42353	0.37255	0.33333
0.46667	0.43529	0.40392
0.52157	0.50588	0.48627
0.56863	0.56471	0.55294
0.61961	0.61569	0.61569
0.66667	0.66667	0.66667
0.46667	0.43529	0.40392
0.47059	0.43922	0.40784
0.48627	0.45882	0.43137
0.51373	0.49804	0.47451
0.54118	0.53333	0.51765
0.57647	0.57255	0.56863
0.61569	0.61569	0.61569
0.65882	0.65490	0.65490
0.70588	0.70196	0.70196
0.56863	0.56471	0.55686
0.57255	0.56863	0.56471
0.58431	0.58039	0.57647
0.60000	0.59608	0.59608
0.61961	0.61961	0.61961
0.64706	0.64706	0.64706
0.67843	0.67843	0.67843
0.70980	0.70980	0.70980
0.75294	0.74902	0.74902
0.65882	0.65490	0.65490
0.65882	0.65882	0.65882
0.67059	0.66667	0.66667
0.68235	0.67843	0.68235
0.69804	0.69804	0.69804
0.71373	0.71373	0.71373
0.74510	0.74118	0.74118
0.77255	0.77255	0.77255
0.80392	0.80392	0.80392
0.74902	0.74902	0.74902
0.74902	0.74902	0.74902
0.75686	0.75294	0.75294
0.76471	0.76471	0.76471
0.77255	0.77255	0.77255
0.78824	0.78824	0.78824
0.81176	0.81176	0.81176
0.83137	0.83137	0.83137
0.86275	0.86275	0.86275
0.82745	0.82745	0.82745
0.83137	0.83137	0.83137
0.83137	0.83137	0.83137
0.83922	0.83922	0.83922
0.85098	0.85098	0.85098
0.86667	0.86667	0.86667
0.87843	0.87843	0.87843
0.90196	0.90196	0.90196
0.92157	0.92157	0.92157
0.90980	0.90980	0.90980
0.90980	0.90980	0.90980
0.91373	0.91373	0.91373
0.91765	0.91765	0.91765
0.92549	0.92549	0.92549
0.93725	0.93725	0.93725
0.94902	0.94902	0.94902
0.96471	0.96471	0.96471
0.98431	0.98431	0.98431
0.21176	0.11373	0.07451
0.23529	0.13725	0.09412
0.27843	0.18431	0.14118
0.34118	0.26275	0.21569
0.40392	0.34902	0.30588
0.46667	0.43137	0.40000
0.53333	0.52157	0.50196
0.58824	0.58431	0.58039
0.64314	0.64314	0.64314
0.27451	0.18039	0.13333
0.29020	0.20000	0.15294
0.32549	0.24314	0.19608
0.37255	0.30588	0.25882
0.42745	0.38039	0.34118
0.48235	0.45490	0.42745
0.54118	0.53725	0.51765
0.59608	0.59608	0.59608
0.65098	0.64706	0.64706
0.37647	0.30588	0.26275
0.38431	0.31765	0.27451
0.40784	0.34902	0.30980
0.43922	0.39216	0.35294
0.47843	0.44706	0.41961
0.52941	0.52157	0.49804
0.57647	0.57255	0.56471
0.62353	0.62353	0.62353
0.67451	0.67451	0.67451
0.47451	0.44706	0.41569
0.48235	0.45490	0.42353
0.50196	0.47843	0.45098
0.52157	0.50980	0.49020
0.54902	0.54510	0.52941
0.58431	0.58039	0.57647
0.62353	0.61961	0.61961
0.66275	0.65882	0.66275
0.70980	0.70980	0.70980
0.57647	0.57255	0.56863
0.58039	0.57647	0.57255
0.58824	0.58824	0.58431
0.60392	0.60392	0.60000
0.62745	0.62353	0.62353
0.64706	0.64706	0.64706
0.68235	0.68235	0.68235
0.71373	0.71373	0.71373
0.75294	0.75294	0.75294
0.66275	0.65882	0.66275
0.66667	0.66275	0.66275
0.67451	0.67451	0.67451
0.68627	0.68627	0.68627
0.70196	0.70196	0.70196
0.71765	0.71765	0.71765
0.74510	0.74510	0.74510
0.77255	0.77255	0.77255
0.80784	0.80392	0.80392
0.75294	0.75294	0.75294
0.75294	0.75294	0.75294
0.76078	0.76078	0.76078
0.76863	0.76863	0.76863
0.77647	0.77647	0.77647
0.79608	0.79608	0.79608
0.81569	0.81569	0.81569
0.83529	0.83529	0.83529
0.86275	0.86275	0.86275
0.83137	0.83137	0.83137
0.83137	0.83137	0.83137
0.83529	0.83529	0.83529
0.84314	0.84314	0.84314
0.85490	0.85490	0.85490
0.86667	0.86667	0.86667
0.88235	0.88235	0.88235
0.90196	0.90196	0.90196
0.92549	0.92549	0.92549
0.91373	0.90980	0.90980
0.91373	0.91373	0.91373
0.91765	0.91765	0.91765
0.92157	0.92157	0.92157
0.92941	0.92941	0.92941
0.94118	0.94118	0.94118
0.95294	0.95294	0.95294
0.96863	0.96863	0.96863
0.98431	0.98431	0.98431
0.26275	0.16863	0.12157
0.27451	0.18431	0.13725
0.31765	0.23137	0.18431
0.36471	0.29412	0.24706
0.42353	0.36863	0.33333
0.47843	0.45098	0.41961
0.54118	0.53333	0.51765
0.59608	0.59216	0.59216
0.64706	0.64706	0.64706
0.31373	0.22745	0.17647
0.32549	0.24314	0.19608
0.35294	0.27451	0.23137
0.39608	0.33725	0.29412
0.44706	0.40392	0.36863
0.50196	0.47843	0.45490
0.55294	0.54902	0.53333
0.60784	0.60392	0.60392
0.65490	0.65490	0.65490
0.39608	0.33725	0.29412
0.40392	0.34902	0.30588
0.42353	0.36863	0.33333
0.45490	0.41569	0.38039
0.49412	0.47451	0.44706
0.54118	0.53333	0.51373
0.58431	0.58039	0.57647
0.63137	0.63137	0.63137
0.67843	0.67843	0.67843
0.49412	0.46667	0.43922
0.49804	0.47843	0.45098
0.51373	0.49804	0.47451
0.53333	0.52549	0.50588
0.56078	0.55686	0.54510
0.59216	0.58824	0.58824
0.63137	0.62745	0.62745
0.67059	0.67059	0.67059
0.70980	0.70980	0.70980
0.58431	0.58431	0.58039
0.58824	0.58824	0.58431
0.59608	0.59608	0.59608
0.61176	0.61176	0.61176
0.63137	0.63137	0.63137
0.65490	0.65490	0.65490
0.69020	0.68627	0.68627
0.72157	0.71765	0.71765
0.76078	0.75686	0.75686
0.67059	0.67059	0.67059
0.67451	0.67451	0.67451
0.68235	0.67843	0.67843
0.69020	0.69020	0.69020
0.70588	0.70588	0.70588
0.72549	0.72549	0.72549
0.75294	0.74902	0.74902
0.77647	0.77647	0.77647
0.81176	0.80784	0.80784
0.75686	0.75686	0.75686
0.76078	0.76078	0.76078
0.76471	0.76471	0.76471
0.77255	0.77255	0.77255
0.78039	0.78039	0.78039
0.80000	0.80000	0.80000
0.81569	0.81569	0.81569
0.83922	0.83922	0.83922
0.86667	0.86667	0.86667
0.83529	0.83529	0.83529
0.83529	0.83529	0.83529
0.83922	0.83922	0.83922
0.84706	0.84706	0.84706
0.85882	0.85882	0.85882
0.87059	0.87059	0.87059
0.88627	0.88627	0.88627
0.90588	0.90588	0.90588
0.92549	0.92549	0.92549
0.91373	0.91373	0.91373
0.91765	0.91765	0.91765
0.91765	0.91765	0.91765
0.92549	0.92549	0.92549
0.93333	0.93333	0.93333
0.94118	0.94118	0.94118
0.95294	0.95294	0.95294
0.96863	0.96863	0.96863
0.98824	0.98824	0.98824
0.31373	0.22745	0.18039
0.32549	0.24314	0.19608
0.35294	0.27843	0.23137
0.39608	0.33725	0.29412
0.44706	0.40392	0.36863
0.50196	0.47843	0.45490
0.55294	0.54902	0.53333
0.60784	0.60392	0.60392
0.65490	0.65490	0.65490
0.34902	0.27451	0.22353
0.36078	0.28627	0.23922
0.38431	0.32157	0.27451
0.41961	0.36863	0.32941
0.46667	0.43137	0.40000
0.51765	0.50196	0.47843
0.56471	0.56078	0.55294
0.61569	0.61569	0.61569
0.66275	0.66275	0.66275
0.41961	0.36863	0.32941
0.42745	0.38039	0.34118
0.44706	0.40392	0.36863
0.47059	0.43922	0.40784
0.51373	0.49804	0.47451
0.54902	0.54510	0.53333
0.59608	0.59216	0.59216
0.63922	0.63922	0.63922
0.69020	0.68627	0.68627
0.51373	0.49412	0.47059
0.51765	0.50196	0.47843
0.52941	0.51765	0.49804
0.54510	0.53725	0.52157
0.57255	0.56863	0.56078
0.60392	0.60000	0.60000
0.63922	0.63922	0.63922
0.67843	0.67843	0.67843
0.71765	0.71765	0.71765
0.59608	0.59608	0.59216
0.60000	0.59608	0.59608
0.60784	0.60784	0.60784
0.62353	0.61961	0.61961
0.64314	0.63922	0.64314
0.66275	0.66275	0.66275
0.69804	0.69412	0.69412
0.72549	0.72549	0.72549
0.76471	0.76471	0.76471
0.68235	0.67843	0.67843
0.68235	0.68235	0.68235
0.69020	0.68627	0.68627
0.69804	0.69804	0.69804
0.71373	0.70980	0.70980
0.73333	0.73333	0.73333
0.75686	0.75686	0.75686
0.78039	0.78039	0.78039
0.81569	0.81176	0.81176
0.76471	0.76471	0.76471
0.76471	0.76471	0.76471
0.76863	0.76863	0.76863
0.77647	0.77647	0.77647
0.78824	0.78824	0.78824
0.80392	0.80392	0.80392
0.81961	0.81961	0.81961
0.84314	0.84314	0.84314
0.87059	0.87059	0.87059
0.83922	0.83922	0.83922
0.83922	0.83922	0.83922
0.84314	0.84314	0.84314
0.85490	0.85490	0.85490
0.86275	0.86275	0.86275
0.87451	0.87451	0.87451
0.88627	0.88627	0.88627
0.90980	0.90980	0.90980
0.92941	0.92941	0.92941
0.91765	0.91765	0.91765
0.92157	0.92157	0.92157
0.92157	0.92157	0.92157
0.92941	0.92941	0.92941
0.93333	0.93333	0.93333
0.94510	0.94510	0.94510
0.95686	0.95686	0.95686
0.97255	0.97255	0.97255
0.99216	0.99216	0.99216
0.35686	0.28235	0.23922
0.36863	0.29804	0.25098
0.39216	0.32941	0.28627
0.42745	0.37647	0.33725
0.46667	0.43529	0.40392
0.52157	0.50980	0.48627
0.56863	0.56471	0.55686
0.61961	0.61569	0.61961
0.67059	0.66667	0.66667
0.38824	0.32549	0.28235
0.40000	0.33725	0.29412
0.41961	0.36471	0.32549
0.45098	0.40784	0.37255
0.48627	0.46275	0.43137
0.53725	0.52941	0.50980
0.58039	0.57647	0.57255
0.62745	0.62745	0.62745
0.67843	0.67843	0.67843
0.45098	0.40784	0.37255
0.45490	0.41961	0.38431
0.47059	0.43529	0.40392
0.49804	0.47843	0.45098
0.53333	0.52549	0.50196
0.56471	0.56078	0.55294
0.60784	0.60784	0.60784
0.64706	0.64706	0.64706
0.69804	0.69804	0.69804
0.53333	0.52157	0.50196
0.53725	0.52941	0.50980
0.54510	0.53725	0.52157
0.56078	0.55686	0.54510
0.58824	0.58431	0.58039
0.61569	0.61569	0.61569
0.64706	0.64706	0.64706
0.69020	0.69020	0.69020
0.72549	0.72549	0.72549
0.60784	0.60784	0.60784
0.61176	0.61176	0.61176
0.61961	0.61961	0.61961
0.63529	0.63529	0.63529
0.65098	0.64706	0.65098
0.67843	0.67451	0.67451
0.70588	0.70588	0.70588
0.73725	0.73725	0.73725
0.77255	0.77255	0.77255
0.69020	0.69020	0.69020
0.69412	0.69020	0.69020
0.69804	0.69804	0.69804
0.70980	0.70980	0.70980
0.72157	0.72157	0.72157
0.74118	0.74118	0.74118
0.76471	0.76471	0.76471
0.78824	0.78824	0.78824
0.81961	0.81961	0.81961
0.77255	0.76863	0.76863
0.77255	0.77255	0.77255
0.77255	0.77255	0.77255
0.78039	0.78039	0.78039
0.79608	0.79608	0.79608
0.81176	0.81176	0.81176
0.82745	0.82745	0.82745
0.85098	0.85098	0.85098
0.87451	0.87451	0.87451
0.84706	0.84314	0.84314
0.84706	0.84706	0.84706
0.85098	0.85098	0.85098
0.85882	0.85882	0.85882
0.87059	0.87059	0.87059
0.87843	0.87843	0.87843
0.89804	0.89804	0.89804
0.91373	0.91373	0.91373
0.93725	0.93725	0.93725
0.92157	0.92157	0.92157
0.92549	0.92549	0.92549
0.92549	0.92549	0.92549
0.93333	0.93333	0.93333
0.94118	0.94118	0.94118
0.94902	0.94902	0.94902
0.96078	0.96078	0.96078
0.97647	0.97647	0.97647
0.99608	0.99608	0.99608
0.40392	0.34510	0.30588
0.41176	0.35686	0.31765
0.42745	0.38039	0.34118
0.45882	0.42353	0.39216
0.50196	0.47843	0.45098
0.54118	0.53333	0.51765
0.58431	0.58431	0.58039
0.63529	0.63137	0.63137
0.68235	0.68235	0.68235
0.42745	0.37647	0.33725
0.43529	0.38824	0.34902
0.45098	0.41176	0.37647
0.47451	0.44706	0.41569
0.51765	0.50196	0.48235
0.55294	0.54902	0.53725
0.59608	0.59608	0.59216
0.64314	0.64314	0.64314
0.69020	0.69020	0.69020
0.47843	0.44706	0.41569
0.48235	0.45490	0.42745
0.50196	0.47843	0.45490
0.52549	0.51373	0.49020
0.54902	0.54510	0.53333
0.58431	0.58039	0.57647
0.62353	0.62353	0.62353
0.66275	0.66275	0.66275
0.70980	0.70980	0.70980
0.54902	0.54510	0.52941
0.55294	0.54902	0.53725
0.56471	0.56078	0.54902
0.58039	0.57647	0.57255
0.60392	0.60000	0.60000
0.63137	0.63137	0.63137
0.66275	0.65882	0.65882
0.70196	0.70196	0.70196
0.74118	0.74118	0.74118
0.62353	0.62353	0.62353
0.62745	0.62745	0.62745
0.63529	0.63529	0.63529
0.64706	0.64706	0.64706
0.66275	0.66275	0.66275
0.69020	0.69020	0.69020
0.71373	0.71373	0.71373
0.74902	0.74902	0.74902
0.78039	0.77647	0.77647
0.70196	0.70196	0.70196
0.70196	0.70196	0.70196
0.70980	0.70980	0.70980
0.71765	0.71765	0.71765
0.73333	0.73333	0.73333
0.75294	0.75294	0.75294
0.77255	0.77255	0.77255
0.80000	0.80000	0.80000
0.82745	0.82745	0.82745
0.77647	0.77647	0.77647
0.78039	0.77647	0.77647
0.78431	0.78039	0.78039
0.79216	0.79216	0.79216
0.80392	0.80392	0.80392
0.81569	0.81569	0.81569
0.83529	0.83529	0.83529
0.85882	0.85882	0.85882
0.87843	0.87843	0.87843
0.85490	0.85490	0.85490
0.85882	0.85490	0.85490
0.85882	0.85882	0.85882
0.86667	0.86667	0.86667
0.87451	0.87451	0.87451
0.88627	0.88627	0.88627
0.90196	0.90196	0.90196
0.92157	0.92157	0.92157
0.94118	0.94118	0.94118
0.92941	0.92941	0.92941
0.92941	0.92941	0.92941
0.93333	0.93333	0.93333
0.93725	0.93725	0.93725
0.94510	0.94510	0.94510
0.95686	0.95686	0.95686
0.96863	0.96863	0.96863
0.98431	0.98431	0.98431
1.00000	1.00000	1.00000
