LUTGenerator/TEST/CUBE/Duotone/Sepia/Duotone_Sepia_Strongest_sRGB.cube
TITLE Duotone_Sepia_Strongest_sRGB.cube
LUT_3D_SIZE 5
DOMAIN_MIN 0.0 0.0 0.0
DOMAIN_MAX 1.0 1.0 1.0
0.12157	0.00784	0.00392
0.22353	0.07451	0.03922
0.40000	0.26275	0.19608
0.54510	0.44314	0.38431
0.66667	0.60392	0.56078
0.36078	0.21569	0.15294
0.40000	0.26275	0.19608
0.49412	0.37647	0.31373
0.59608	0.51373	0.45882
0.69412	0.63922	0.60392
0.60000	0.51765	0.46275
0.61176	0.52941	0.47843
0.64706	0.58039	0.53333
0.70196	0.65098	0.61569
0.76863	0.73333	0.70980
0.76471	0.73333	0.70980
0.77255	0.74118	0.71765
0.78824	0.76078	0.74118
0.81961	0.79608	0.78431
0.86275	0.85098	0.83922
0.90588	0.89804	0.89412
0.90980	0.90196	0.89804
0.92549	0.91373	0.90980
0.94902	0.94118	0.93725
0.98039	0.98039	0.97647
0.14510	0.01569	0.00784
0.24706	0.09412	0.05490
0.41176	0.27451	0.20784
0.55294	0.45098	0.39216
0.67059	0.60784	0.56471
0.37255	0.22745	0.16471
0.41176	0.27451	0.20784
0.50196	0.38431	0.32157
0.60000	0.51765	0.46275
0.69412	0.64314	0.60784
0.60000	0.51765	0.46275
0.61569	0.53725	0.48627
0.65098	0.58431	0.54118
0.70588	0.65490	0.61961
0.76863	0.73725	0.71373
0.76471	0.73333	0.70980
0.77255	0.74118	0.72157
0.78824	0.76078	0.74510
0.81961	0.79608	0.78431
0.86275	0.85098	0.84314
0.90588	0.89804	0.89412
0.91373	0.90196	0.89804
0.92549	0.91765	0.90980
0.94902	0.94118	0.93725
0.98431	0.98039	0.97647
0.23529	0.08627	0.04706
0.30588	0.15294	0.09804
0.44314	0.30980	0.24314
0.56471	0.47059	0.41569
0.67451	0.61569	0.57647
0.40784	0.26667	0.20000
0.44314	0.30980	0.24314
0.51373	0.40392	0.34118
0.61176	0.52941	0.47843
0.70196	0.65098	0.61961
0.61176	0.53333	0.48235
0.62745	0.54902	0.50196
0.65882	0.59608	0.55294
0.71373	0.66667	0.63137
0.77255	0.74118	0.72157
0.77255	0.74118	0.72157
0.77647	0.74902	0.72941
0.79216	0.76863	0.74902
0.82353	0.80392	0.78824
0.87059	0.85490	0.84706
0.90980	0.90196	0.89804
0.91373	0.90588	0.90196
0.92941	0.92157	0.91373
0.95294	0.94902	0.94902
0.98431	0.98431	0.98039
0.33725	0.19216	0.12941
0.38039	0.23922	0.17647
0.48627	0.36471	0.29804
0.59216	0.50588	0.45098
0.68627	0.63137	0.59608
0.45490	0.32941	0.26275
0.48235	0.36471	0.29804
0.54510	0.44314	0.38431
0.63137	0.56078	0.50980
0.71765	0.67059	0.63922
0.63529	0.56078	0.51373
0.64314	0.57647	0.52941
0.67451	0.61569	0.57647
0.72157	0.67843	0.65098
0.78431	0.75294	0.73333
0.78039	0.75294	0.73333
0.78431	0.75686	0.74118
0.80000	0.77647	0.76078
0.82745	0.81176	0.79608
0.87843	0.86275	0.85490
0.91765	0.90980	0.90588
0.92157	0.91373	0.90980
0.93333	0.92941	0.92549
0.95686	0.95686	0.95294
0.99216	0.99216	0.99216
0.43922	0.30980	0.24314
0.46275	0.34118	0.27451
0.53333	0.42745	0.36863
0.62353	0.54510	0.49412
0.70980	0.66275	0.63137
0.51373	0.40392	0.34118
0.53333	0.42745	0.36863
0.58824	0.50196	0.44706
0.65882	0.59216	0.54902
0.73333	0.69020	0.66275
0.65882	0.59608	0.55294
0.67059	0.60784	0.56863
0.69804	0.64314	0.60784
0.74118	0.70196	0.67451
0.79216	0.76863	0.75294
0.79216	0.76863	0.74902
0.79608	0.77255	0.75686
0.81569	0.79608	0.78039
0.84314	0.82745	0.81569
0.88627	0.87451	0.86667
0.92941	0.92157	0.91373
0.93333	0.92549	0.92157
0.94510	0.94118	0.93725
0.96863	0.96471	0.96471
1.00000	1.00000	1.00000
