LUTGenerator/TEST/CUBE/Duotone/Sepia/Duotone_Sepia_Strong_sRGB.cube
TITLE Duotone_Sepia_Strong_sRGB.cube
LUT_3D_SIZE 5
DOMAIN_MIN 0.0 0.0 0.0
DOMAIN_MAX 1.0 1.0 1.0
0.12549	0.01176	0.00784
0.23529	0.09412	0.05490
0.42745	0.30196	0.23137
0.58039	0.49804	0.43529
0.69412	0.65882	0.61569
0.38431	0.25098	0.18431
0.42745	0.30196	0.23137
0.52549	0.42353	0.35686
0.62745	0.56471	0.50980
0.72157	0.69412	0.65882
0.62745	0.56863	0.51373
0.64314	0.58824	0.53333
0.67451	0.63137	0.58431
0.72941	0.70196	0.67059
0.78431	0.77647	0.75294
0.78039	0.77255	0.75294
0.78824	0.78039	0.76078
0.80392	0.80000	0.78039
0.82745	0.82353	0.81176
0.87059	0.86667	0.85882
0.90980	0.90980	0.90588
0.91373	0.91373	0.90980
0.92549	0.92549	0.92157
0.94902	0.94902	0.94510
0.98039	0.98039	0.98039
0.14902	0.02353	0.01176
0.25882	0.11765	0.07059
0.43922	0.31373	0.24314
0.58431	0.50588	0.44314
0.69804	0.66275	0.61961
0.39608	0.26275	0.19608
0.43922	0.31373	0.24314
0.52941	0.43137	0.36471
0.63137	0.56863	0.51373
0.72157	0.69804	0.66275
0.63137	0.57255	0.51765
0.64706	0.59216	0.54118
0.67843	0.63922	0.59216
0.72941	0.70588	0.67059
0.78431	0.77647	0.75686
0.78431	0.77647	0.75294
0.79216	0.78431	0.76471
0.80392	0.80000	0.78039
0.82745	0.82353	0.81176
0.87059	0.86667	0.85882
0.91373	0.90980	0.90588
0.91765	0.91373	0.91373
0.92549	0.92549	0.92157
0.94902	0.94902	0.94510
0.98039	0.98039	0.98039
0.25098	0.10588	0.06275
0.32549	0.18431	0.12157
0.46667	0.35294	0.27843
0.60000	0.52549	0.46667
0.70196	0.67059	0.63137
0.43137	0.30588	0.23529
0.46667	0.35294	0.28235
0.54902	0.45882	0.38824
0.64314	0.58824	0.53333
0.72941	0.70588	0.67059
0.64314	0.58824	0.53725
0.65882	0.60784	0.55686
0.69020	0.65098	0.60392
0.73725	0.71373	0.68235
0.79216	0.78431	0.76471
0.78824	0.78431	0.76078
0.79216	0.78824	0.76863
0.80784	0.80392	0.78824
0.83137	0.82745	0.81569
0.87451	0.87059	0.86667
0.91373	0.91373	0.90980
0.91765	0.91765	0.91373
0.92941	0.92941	0.92549
0.95294	0.95294	0.94902
0.98431	0.98431	0.98431
0.36471	0.22353	0.16078
0.40784	0.27843	0.20784
0.51373	0.41176	0.34118
0.61961	0.55686	0.49804
0.71765	0.68627	0.65098
0.48627	0.37255	0.30196
0.51373	0.40784	0.34118
0.58039	0.49804	0.43529
0.66275	0.61569	0.56863
0.73725	0.71765	0.68627
0.66667	0.61961	0.56863
0.67451	0.63137	0.58431
0.70196	0.67059	0.63137
0.74510	0.72549	0.69804
0.80000	0.79608	0.77647
0.79608	0.79216	0.77255
0.80000	0.79608	0.77647
0.81569	0.81176	0.79608
0.83922	0.83529	0.82353
0.87843	0.87843	0.87059
0.91765	0.91765	0.91765
0.92549	0.92157	0.92157
0.93725	0.93725	0.93333
0.96078	0.95686	0.95686
0.99216	0.99216	0.99216
0.46667	0.34902	0.27843
0.49412	0.38431	0.31373
0.56863	0.48235	0.41961
0.65490	0.60392	0.55294
0.73725	0.71373	0.68235
0.54902	0.45490	0.38824
0.56863	0.48235	0.41961
0.61569	0.55294	0.49412
0.68627	0.64706	0.60000
0.75294	0.73725	0.70980
0.68627	0.65098	0.60392
0.69804	0.66275	0.62353
0.72549	0.69804	0.66275
0.76078	0.74510	0.71765
0.81176	0.80392	0.78824
0.80784	0.80392	0.78824
0.81176	0.80784	0.79216
0.82745	0.82353	0.80784
0.85098	0.84706	0.83922
0.88627	0.88627	0.88235
0.92941	0.92941	0.92549
0.93333	0.93333	0.92941
0.94510	0.94510	0.94118
0.96863	0.96863	0.96471
1.00000	1.00000	1.00000
