LUTGenerator/TEST/CUBE/Duotone/Sepia/Duotone_Sepia_Subtle_sRGB.cube
TITLE Duotone_Sepia_Subtle_sRGB.cube
LUT_3D_SIZE 5
DOMAIN_MIN 0.0 0.0 0.0
DOMAIN_MAX 1.0 1.0 1.0
0.12157	0.01961	0.01176
0.20392	0.10196	0.06667
0.36863	0.29804	0.25098
0.51373	0.49412	0.47059
0.63137	0.63137	0.63137
0.33333	0.25098	0.20392
0.36863	0.29804	0.25490
0.45490	0.41961	0.38431
0.56078	0.55686	0.54510
0.65882	0.65882	0.65882
0.56078	0.55686	0.54510
0.57647	0.57255	0.56471
0.61176	0.61176	0.61176
0.67451	0.67059	0.67059
0.74510	0.74510	0.74510
0.74510	0.74510	0.74510
0.75294	0.74902	0.74902
0.77255	0.77255	0.77255
0.80784	0.80784	0.80784
0.85882	0.85882	0.85882
0.90588	0.90588	0.90588
0.90980	0.90980	0.90980
0.92549	0.92549	0.92549
0.94902	0.94902	0.94902
0.98039	0.98039	0.98039
0.13725	0.03529	0.01961
0.22353	0.12157	0.08235
0.37647	0.30980	0.26667
0.51765	0.50196	0.47843
0.63529	0.63137	0.63529
0.34510	0.26667	0.21961
0.38039	0.30980	0.26667
0.46275	0.42745	0.39608
0.56078	0.55686	0.54902
0.66275	0.66275	0.66275
0.56471	0.56078	0.55294
0.57647	0.57647	0.56863
0.61569	0.61569	0.61569
0.67451	0.67451	0.67451
0.74902	0.74902	0.74902
0.74510	0.74510	0.74510
0.75294	0.75294	0.75294
0.77255	0.77255	0.77255
0.81176	0.81176	0.81176
0.85882	0.85882	0.85882
0.90980	0.90980	0.90980
0.91373	0.91373	0.91373
0.92549	0.92549	0.92549
0.94902	0.94902	0.94902
0.98431	0.98431	0.98431
0.21176	0.11373	0.07451
0.27843	0.18431	0.14118
0.40392	0.34902	0.30588
0.53333	0.52157	0.50196
0.64314	0.64314	0.64314
0.37647	0.30588	0.26275
0.40784	0.34902	0.30980
0.47843	0.44706	0.41961
0.57647	0.57255	0.56471
0.67451	0.67451	0.67451
0.57647	0.57255	0.56863
0.58824	0.58824	0.58431
0.62745	0.62353	0.62353
0.68235	0.68235	0.68235
0.75294	0.75294	0.75294
0.75294	0.75294	0.75294
0.76078	0.76078	0.76078
0.77647	0.77647	0.77647
0.81569	0.81569	0.81569
0.86275	0.86275	0.86275
0.91373	0.90980	0.90980
0.91765	0.91765	0.91765
0.92941	0.92941	0.92941
0.95294	0.95294	0.95294
0.98431	0.98431	0.98431
0.31373	0.22745	0.18039
0.35294	0.27843	0.23137
0.44706	0.40392	0.36863
0.55294	0.54902	0.53333
0.65490	0.65490	0.65490
0.41961	0.36863	0.32941
0.44706	0.40392	0.36863
0.51373	0.49804	0.47451
0.59608	0.59216	0.59216
0.69020	0.68627	0.68627
0.59608	0.59608	0.59216
0.60784	0.60784	0.60784
0.64314	0.63922	0.64314
0.69804	0.69412	0.69412
0.76471	0.76471	0.76471
0.76471	0.76471	0.76471
0.76863	0.76863	0.76863
0.78824	0.78824	0.78824
0.81961	0.81961	0.81961
0.87059	0.87059	0.87059
0.91765	0.91765	0.91765
0.92157	0.92157	0.92157
0.93333	0.93333	0.93333
0.95686	0.95686	0.95686
0.99216	0.99216	0.99216
0.40392	0.34510	0.30588
0.42745	0.38039	0.34118
0.50196	0.47843	0.45098
0.58431	0.58431	0.58039
0.68235	0.68235	0.68235
0.47843	0.44706	0.41569
0.50196	0.47843	0.45490
0.54902	0.54510	0.53333
0.62353	0.62353	0.62353
0.70980	0.70980	0.70980
0.62353	0.62353	0.62353
0.63529	0.63529	0.63529
0.66275	0.66275	0.66275
0.71373	0.71373	0.71373
0.78039	0.77647	0.77647
0.77647	0.77647	0.77647
0.78431	0.78039	0.78039
0.80392	0.80392	0.80392
0.83529	0.83529	0.83529
0.87843	0.87843	0.87843
0.92941	0.92941	0.92941
0.93333	0.93333	0.93333
0.94510	0.94510	0.94510
0.96863	0.96863	0.96863
1.00000	1.00000	1.00000
