LUTGenerator/TEST/CUBE/Duotone/Green/Duotone_Green_Subtle_sRGB.cube
TITLE Duotone_Green_Subtle_sRGB.cube
LUT_3D_SIZE 17
DOMAIN_MIN 0.0 0.0 0.0
DOMAIN_MAX 1.0 1.0 1.0
0.00000	0.02745	0.01176
0.00392	0.03137	0.01176
0.00392	0.03922	0.01569
0.01176	0.05882	0.03137
0.03922	0.09412	0.06275
0.08235	0.13333	0.10196
0.12549	0.17255	0.14510
0.17255	0.21569	0.18824
0.21569	0.25882	0.23137
0.25882	0.30196	0.27451
0.30196	0.34118	0.31765
0.34118	0.38039	0.35686
0.38431	0.41961	0.40000
0.42353	0.45882	0.43529
0.46275	0.49412	0.47451
0.49412	0.52941	0.50588
0.52941	0.56471	0.54510
0.00392	0.04314	0.01961
0.00784	0.05098	0.02353
0.01569	0.06275	0.03529
0.03529	0.08627	0.05882
0.06275	0.11765	0.08627
0.10196	0.15294	0.12157
0.14510	0.19216	0.16078
0.18431	0.23137	0.20392
0.22745	0.27059	0.24706
0.27059	0.30980	0.28627
0.30980	0.34902	0.32549
0.34902	0.38824	0.36471
0.39216	0.43137	0.40784
0.42745	0.46275	0.43922
0.46667	0.50196	0.47843
0.50196	0.53333	0.51373
0.53333	0.56863	0.54902
0.03529	0.08627	0.05882
0.03922	0.09412	0.06275
0.05490	0.10980	0.07843
0.07843	0.12941	0.09804
0.10196	0.15294	0.12157
0.13333	0.18431	0.15294
0.17255	0.21961	0.19216
0.20784	0.25098	0.22745
0.25098	0.29020	0.26667
0.28627	0.32549	0.30196
0.32549	0.36471	0.34118
0.36471	0.40000	0.38039
0.40392	0.43922	0.41961
0.43529	0.47059	0.45098
0.47451	0.50980	0.48627
0.50980	0.54118	0.52157
0.54118	0.57255	0.55294
0.10196	0.14902	0.12157
0.10588	0.15294	0.12549
0.11373	0.16471	0.13333
0.13333	0.18039	0.15294
0.15686	0.20392	0.17647
0.18039	0.22745	0.20000
0.21176	0.25490	0.23137
0.24706	0.29020	0.26275
0.28235	0.32157	0.29412
0.31373	0.35294	0.32941
0.34902	0.38431	0.36078
0.38431	0.42353	0.40000
0.41961	0.45490	0.43137
0.45490	0.49020	0.46667
0.48627	0.52157	0.49804
0.51765	0.55294	0.52941
0.54902	0.58039	0.56078
0.17255	0.21961	0.19216
0.17647	0.22353	0.19608
0.18431	0.23137	0.20392
0.20000	0.24314	0.21569
0.21569	0.25882	0.23529
0.23529	0.27843	0.25490
0.26275	0.30588	0.28235
0.29020	0.32941	0.30588
0.32157	0.36078	0.33725
0.34510	0.38431	0.36078
0.38039	0.41569	0.39608
0.41176	0.44706	0.42745
0.44314	0.47843	0.45490
0.47451	0.50980	0.49020
0.50588	0.54118	0.51765
0.53725	0.56863	0.54902
0.56078	0.59608	0.57647
0.24706	0.29020	0.26275
0.25098	0.29412	0.26667
0.25882	0.30196	0.27451
0.26667	0.30980	0.28235
0.27843	0.32157	0.29412
0.29412	0.33333	0.30980
0.31765	0.35686	0.33333
0.33725	0.37647	0.35294
0.36471	0.40000	0.38039
0.39216	0.42745	0.40392
0.41569	0.45098	0.43137
0.44314	0.47843	0.45490
0.47451	0.50588	0.48627
0.50196	0.53725	0.51373
0.52941	0.56471	0.54118
0.55294	0.58431	0.56471
0.58431	0.61569	0.59608
0.31765	0.35686	0.33333
0.32157	0.36078	0.33725
0.32549	0.36471	0.34118
0.33333	0.37255	0.34902
0.34118	0.38039	0.35686
0.35686	0.39216	0.36863
0.37255	0.41176	0.38824
0.39608	0.43137	0.40784
0.41176	0.44706	0.42745
0.43137	0.46667	0.44314
0.45490	0.49020	0.47059
0.47843	0.51373	0.49412
0.50588	0.53725	0.51765
0.52941	0.56471	0.54510
0.55294	0.58431	0.56471
0.58039	0.61176	0.59216
0.60392	0.63529	0.61569
0.38431	0.42353	0.40000
0.38824	0.42353	0.40000
0.39216	0.42745	0.40784
0.39608	0.43529	0.41176
0.40784	0.44314	0.41961
0.41569	0.45098	0.42745
0.42745	0.46275	0.43922
0.44314	0.47843	0.45490
0.46275	0.49412	0.47451
0.47843	0.51373	0.49020
0.49804	0.52941	0.50980
0.51765	0.54902	0.52941
0.53725	0.57255	0.55294
0.55686	0.59216	0.57255
0.58431	0.61569	0.59608
0.60784	0.63922	0.61961
0.62745	0.65882	0.63922
0.44706	0.48235	0.45882
0.44706	0.48235	0.46275
0.45098	0.48627	0.46667
0.45490	0.49020	0.47059
0.46275	0.49804	0.47843
0.47059	0.50588	0.48627
0.48235	0.51373	0.49412
0.49412	0.52549	0.50588
0.50980	0.54118	0.52157
0.52157	0.55686	0.53725
0.53725	0.57255	0.55294
0.55294	0.58824	0.56863
0.57647	0.60784	0.58824
0.59608	0.62745	0.60784
0.61569	0.64706	0.62745
0.63529	0.66275	0.64706
0.65882	0.68627	0.67059
0.50196	0.53725	0.51373
0.50196	0.53725	0.51373
0.50588	0.53725	0.51765
0.50980	0.54118	0.52157
0.51373	0.54902	0.52549
0.52157	0.55294	0.53333
0.52941	0.56471	0.54510
0.54118	0.57255	0.55294
0.54902	0.58039	0.56078
0.56078	0.59216	0.57255
0.57647	0.60784	0.58824
0.59216	0.62353	0.60784
0.60784	0.63922	0.61961
0.62745	0.65490	0.63922
0.64314	0.67451	0.65490
0.66667	0.69412	0.67843
0.68627	0.71373	0.69804
0.55294	0.58431	0.56471
0.55294	0.58431	0.56471
0.55686	0.58824	0.56863
0.55686	0.59216	0.57255
0.56471	0.59608	0.57647
0.56863	0.60392	0.58431
0.58039	0.61176	0.59216
0.58824	0.61961	0.60000
0.59608	0.62745	0.60784
0.60784	0.63922	0.61961
0.61961	0.65098	0.63137
0.63137	0.66275	0.64314
0.64706	0.67843	0.65882
0.66667	0.69412	0.67843
0.68235	0.70980	0.69412
0.69804	0.72549	0.70980
0.71765	0.74510	0.72549
0.60784	0.63529	0.61961
0.60784	0.63922	0.61961
0.60784	0.63922	0.61961
0.61176	0.63922	0.62353
0.61569	0.64706	0.62745
0.61961	0.64706	0.63137
0.62353	0.65490	0.63529
0.63137	0.66275	0.64314
0.63922	0.67059	0.65098
0.65098	0.67843	0.66275
0.66275	0.69020	0.67451
0.67451	0.70196	0.68627
0.68627	0.71373	0.69804
0.70196	0.72941	0.70980
0.71765	0.74510	0.72549
0.73333	0.76078	0.74510
0.75294	0.77647	0.76078
0.65490	0.68235	0.66667
0.65490	0.68627	0.66667
0.65882	0.68627	0.66667
0.65882	0.69020	0.67059
0.66275	0.69020	0.67451
0.66667	0.69412	0.67843
0.67451	0.70196	0.68627
0.67843	0.70588	0.69020
0.68627	0.71373	0.69804
0.69412	0.72157	0.70196
0.70588	0.73333	0.71373
0.71765	0.74118	0.72549
0.72941	0.75294	0.73725
0.74118	0.76471	0.74902
0.75294	0.77647	0.76471
0.76863	0.79216	0.77647
0.78824	0.80784	0.79608
0.70196	0.72941	0.71373
0.70196	0.72941	0.71373
0.70588	0.73333	0.71373
0.70588	0.73333	0.71765
0.70980	0.73725	0.72157
0.71373	0.74118	0.72549
0.71765	0.74510	0.72941
0.72549	0.74902	0.73333
0.73333	0.75686	0.74118
0.73725	0.76471	0.74902
0.74902	0.77255	0.75686
0.75686	0.78039	0.76471
0.76863	0.79216	0.77647
0.78431	0.80784	0.79608
0.80000	0.81961	0.80784
0.81176	0.82745	0.81569
0.82745	0.84314	0.83529
0.74902	0.77647	0.76078
0.75294	0.77647	0.76078
0.75294	0.77647	0.76471
0.75294	0.77647	0.76471
0.75294	0.78039	0.76471
0.76078	0.78431	0.76863
0.76471	0.78824	0.77255
0.76863	0.79216	0.77647
0.77647	0.80000	0.78824
0.78824	0.80784	0.79608
0.79608	0.81569	0.80392
0.80392	0.82353	0.81176
0.81569	0.83137	0.81961
0.82353	0.84314	0.83137
0.83922	0.85882	0.84706
0.85490	0.87059	0.86275
0.87059	0.88627	0.87451
0.80392	0.82353	0.81176
0.80392	0.82353	0.81176
0.80392	0.82353	0.81176
0.80392	0.82353	0.81176
0.80784	0.82745	0.81569
0.80784	0.82745	0.81569
0.81569	0.83137	0.81961
0.81569	0.83529	0.82353
0.82353	0.84314	0.83137
0.83137	0.84706	0.83922
0.84314	0.85882	0.84706
0.85490	0.86667	0.85882
0.86275	0.87843	0.87059
0.87451	0.88627	0.87843
0.89020	0.90196	0.89412
0.90196	0.91373	0.90588
0.92157	0.92941	0.92549
0.85490	0.87059	0.86275
0.85490	0.87059	0.86275
0.85490	0.87059	0.86275
0.85882	0.87059	0.86275
0.85882	0.87451	0.86667
0.86275	0.87843	0.87059
0.86667	0.88235	0.87059
0.87059	0.88627	0.87451
0.87843	0.89412	0.88627
0.88627	0.89804	0.89020
0.89412	0.90588	0.89804
0.90196	0.91373	0.90588
0.91373	0.92549	0.91765
0.92941	0.93725	0.93333
0.94118	0.94510	0.94118
0.95294	0.95686	0.95686
0.96863	0.97255	0.96863
0.00000	0.02745	0.01176
0.00392	0.03137	0.01176
0.00392	0.04314	0.01569
0.01569	0.06275	0.03529
0.04314	0.09804	0.06667
0.08235	0.13333	0.10588
0.12549	0.17647	0.14510
0.17255	0.21961	0.19216
0.21569	0.26275	0.23529
0.25882	0.30196	0.27843
0.30196	0.34118	0.31765
0.34118	0.38039	0.35686
0.38431	0.42353	0.40000
0.42353	0.45882	0.43529
0.46275	0.49412	0.47451
0.49412	0.52941	0.50588
0.52941	0.56471	0.54510
0.00784	0.04314	0.01961
0.00784	0.05098	0.02353
0.01569	0.06667	0.03529
0.03529	0.09020	0.05882
0.06667	0.11765	0.09020
0.10588	0.15294	0.12549
0.14510	0.19216	0.16471
0.18824	0.23137	0.20392
0.22745	0.27059	0.24706
0.27059	0.30980	0.28627
0.30980	0.34902	0.32549
0.34902	0.38824	0.36471
0.39608	0.43137	0.40784
0.42745	0.46275	0.43922
0.46667	0.50196	0.47843
0.50196	0.53333	0.51373
0.53333	0.56863	0.54902
0.03529	0.09020	0.05882
0.04314	0.09804	0.06667
0.05882	0.10980	0.08235
0.07843	0.12941	0.10196
0.10588	0.15294	0.12549
0.13725	0.18431	0.15686
0.17255	0.21961	0.19216
0.21176	0.25490	0.22745
0.25098	0.29412	0.26667
0.28627	0.32549	0.30196
0.32941	0.36471	0.34118
0.36471	0.40392	0.38039
0.40392	0.43922	0.41961
0.43922	0.47059	0.45098
0.47451	0.50980	0.48627
0.50980	0.54118	0.52157
0.54118	0.57255	0.55294
0.10196	0.15294	0.12157
0.10980	0.15686	0.12941
0.11765	0.16471	0.13725
0.13333	0.18039	0.15294
0.16078	0.20784	0.17647
0.18039	0.22745	0.20000
0.21176	0.25490	0.23137
0.24706	0.29020	0.26275
0.28235	0.32157	0.29804
0.31765	0.35686	0.32941
0.34902	0.38431	0.36471
0.38824	0.42353	0.40000
0.41961	0.45490	0.43529
0.45490	0.49020	0.46667
0.48627	0.52157	0.49804
0.51765	0.55294	0.52941
0.54902	0.58039	0.56078
0.17647	0.21961	0.19216
0.18039	0.22353	0.19608
0.18824	0.23137	0.20392
0.20000	0.24314	0.21569
0.21961	0.26275	0.23529
0.23922	0.28235	0.25490
0.26667	0.30588	0.28235
0.29020	0.32941	0.30588
0.32157	0.36078	0.33725
0.34902	0.38431	0.36078
0.38039	0.41961	0.39608
0.41176	0.44706	0.42745
0.44314	0.47843	0.45882
0.47843	0.50980	0.49020
0.50588	0.54118	0.51765
0.53725	0.56863	0.54902
0.56471	0.59608	0.57647
0.25098	0.29020	0.26667
0.25490	0.29412	0.27059
0.25882	0.30196	0.27451
0.26667	0.30980	0.28627
0.28235	0.32157	0.29804
0.29804	0.33725	0.31373
0.31765	0.35686	0.33333
0.33725	0.37647	0.35294
0.36471	0.40392	0.38039
0.39216	0.42745	0.40784
0.41569	0.45098	0.43137
0.44314	0.47843	0.45490
0.47451	0.50588	0.48627
0.50196	0.53725	0.51373
0.52941	0.56471	0.54118
0.55294	0.58431	0.56471
0.58431	0.61569	0.59608
0.31765	0.35686	0.33333
0.32157	0.36078	0.33725
0.32549	0.36471	0.34118
0.33333	0.37255	0.34902
0.34118	0.38039	0.35686
0.35686	0.39216	0.36863
0.37255	0.41176	0.38824
0.39608	0.43137	0.40784
0.41176	0.44706	0.42745
0.43137	0.46667	0.44314
0.45490	0.49020	0.47059
0.47843	0.51373	0.49412
0.50588	0.53725	0.51765
0.53333	0.56471	0.54510
0.55294	0.58431	0.56471
0.58039	0.61176	0.59216
0.60392	0.63529	0.61961
0.38431	0.42353	0.40000
0.38824	0.42353	0.40392
0.39608	0.43137	0.40784
0.40000	0.43529	0.41176
0.40784	0.44314	0.41961
0.41569	0.45098	0.43137
0.42745	0.46275	0.43922
0.44314	0.47843	0.45490
0.46275	0.49412	0.47451
0.47843	0.51373	0.49020
0.49804	0.52941	0.50980
0.51765	0.55294	0.52941
0.53725	0.57255	0.55294
0.55686	0.59216	0.56863
0.58431	0.61569	0.59608
0.60784	0.63922	0.61961
0.62745	0.65882	0.63922
0.44706	0.48235	0.45882
0.44706	0.48235	0.46275
0.45098	0.48627	0.46275
0.45882	0.49020	0.47059
0.46667	0.49804	0.47843
0.47059	0.50588	0.48627
0.48235	0.51765	0.49412
0.49412	0.52549	0.50588
0.50980	0.54118	0.52157
0.52549	0.55686	0.53725
0.53725	0.57255	0.55294
0.55294	0.58824	0.56863
0.57647	0.60784	0.58824
0.59608	0.62745	0.60784
0.61569	0.64706	0.62745
0.63529	0.66275	0.64706
0.65882	0.68627	0.67059
0.50196	0.53725	0.51373
0.50196	0.53725	0.51765
0.50588	0.53725	0.51765
0.50980	0.54118	0.52157
0.51373	0.54902	0.52549
0.52157	0.55686	0.53333
0.53333	0.56471	0.54510
0.54118	0.57255	0.55294
0.54902	0.58039	0.56078
0.56078	0.59216	0.57255
0.57647	0.61176	0.59216
0.59608	0.62745	0.60784
0.60784	0.63922	0.62353
0.62745	0.65490	0.63922
0.64314	0.67451	0.65490
0.66667	0.69412	0.67843
0.68627	0.71373	0.69804
0.55294	0.58431	0.56471
0.55294	0.58431	0.56471
0.55686	0.58824	0.56863
0.55686	0.59216	0.57255
0.56471	0.59608	0.57647
0.57255	0.60392	0.58431
0.58039	0.61176	0.59216
0.58824	0.61961	0.60000
0.59608	0.62745	0.60784
0.60784	0.63922	0.61961
0.61961	0.64706	0.63137
0.63137	0.66275	0.64314
0.64706	0.67843	0.65882
0.66667	0.69412	0.67843
0.68235	0.70980	0.69412
0.69804	0.72549	0.70980
0.71765	0.74118	0.72549
0.60784	0.63529	0.61961
0.60784	0.63922	0.61961
0.60784	0.63922	0.61961
0.61176	0.64314	0.62353
0.61569	0.64706	0.62745
0.61961	0.65098	0.63137
0.62353	0.65490	0.63529
0.63137	0.66275	0.64314
0.64314	0.67059	0.65098
0.65098	0.67843	0.66275
0.66275	0.69020	0.67451
0.67451	0.70196	0.68627
0.68627	0.71373	0.69804
0.70196	0.72941	0.71373
0.71765	0.74510	0.72941
0.73333	0.76078	0.74510
0.75294	0.77647	0.76078
0.65490	0.68235	0.66667
0.65490	0.68235	0.66667
0.65882	0.68627	0.67059
0.65882	0.69020	0.67059
0.66275	0.69020	0.67451
0.66667	0.69412	0.67843
0.67451	0.70196	0.68627
0.67843	0.70588	0.69020
0.68627	0.71373	0.69804
0.69412	0.72157	0.70588
0.70588	0.73333	0.71765
0.71765	0.74118	0.72549
0.72941	0.75294	0.73725
0.74118	0.76471	0.74902
0.75294	0.77647	0.76471
0.76863	0.79216	0.78039
0.78824	0.80784	0.79608
0.70196	0.72941	0.71373
0.70196	0.72941	0.71373
0.70588	0.73333	0.71765
0.70588	0.73333	0.71765
0.70980	0.73725	0.72157
0.71373	0.74118	0.72549
0.71765	0.74510	0.72941
0.72549	0.75294	0.73725
0.73333	0.75686	0.74118
0.73725	0.76471	0.74902
0.74902	0.77255	0.75686
0.75686	0.78039	0.76471
0.76863	0.79216	0.77647
0.78431	0.80784	0.79608
0.80000	0.81961	0.80784
0.80784	0.82745	0.81569
0.82745	0.84314	0.83529
0.75294	0.77647	0.76078
0.75294	0.77647	0.76078
0.75294	0.77647	0.76471
0.75294	0.77647	0.76471
0.75294	0.77647	0.76471
0.76078	0.78431	0.76863
0.76471	0.78824	0.77255
0.76863	0.79216	0.77647
0.78039	0.80000	0.78824
0.78824	0.80784	0.79608
0.79608	0.81569	0.80392
0.80392	0.82353	0.81176
0.81569	0.83137	0.81961
0.82353	0.84314	0.83137
0.83922	0.85882	0.84706
0.85882	0.87059	0.86275
0.87059	0.88235	0.87451
0.80392	0.82353	0.81176
0.80392	0.82353	0.81176
0.80392	0.82353	0.81176
0.80392	0.82353	0.81176
0.80784	0.82745	0.81569
0.81176	0.82745	0.81569
0.81569	0.83137	0.82353
0.81569	0.83529	0.82353
0.82353	0.84314	0.83137
0.83137	0.85098	0.83922
0.84314	0.85882	0.84706
0.85490	0.87059	0.85882
0.86275	0.87843	0.87059
0.87451	0.89020	0.87843
0.89020	0.90196	0.89412
0.90196	0.91373	0.90588
0.92157	0.92941	0.92157
0.85490	0.87059	0.86275
0.85490	0.87059	0.86275
0.85490	0.87059	0.86275
0.85882	0.87059	0.86275
0.85882	0.87451	0.86667
0.86275	0.87843	0.87059
0.86667	0.88235	0.87451
0.87059	0.88627	0.87843
0.87843	0.89412	0.88627
0.88627	0.89804	0.89020
0.89412	0.90588	0.89804
0.90196	0.91373	0.90588
0.91373	0.92549	0.91765
0.92941	0.93725	0.93333
0.94118	0.94510	0.94118
0.95294	0.96078	0.95686
0.96863	0.97255	0.96863
0.00000	0.03137	0.01176
0.00000	0.03529	0.01569
0.00784	0.04706	0.01961
0.01569	0.06667	0.03529
0.04706	0.09804	0.07059
0.08627	0.13725	0.10980
0.12941	0.17647	0.14902
0.17255	0.21961	0.19216
0.21961	0.26275	0.23529
0.26275	0.30196	0.27843
0.30196	0.34118	0.31765
0.34510	0.38039	0.35686
0.38824	0.42353	0.40000
0.42353	0.45882	0.43529
0.46275	0.49804	0.47451
0.49412	0.52941	0.50588
0.53333	0.56471	0.54510
0.00784	0.04706	0.02353
0.00784	0.05490	0.02745
0.01961	0.07059	0.03922
0.03922	0.09412	0.06275
0.07059	0.12157	0.09020
0.10588	0.15686	0.12549
0.14902	0.19608	0.16863
0.18824	0.23529	0.20784
0.23137	0.27451	0.24706
0.27059	0.31373	0.28627
0.31373	0.35294	0.32941
0.34902	0.38824	0.36471
0.39608	0.43137	0.40784
0.42745	0.46275	0.44314
0.46667	0.50196	0.47843
0.50196	0.53725	0.51373
0.53725	0.56863	0.54902
0.03922	0.09412	0.06275
0.04706	0.10196	0.07059
0.06275	0.11373	0.08235
0.08235	0.13333	0.10196
0.10588	0.15686	0.12549
0.14118	0.18824	0.16078
0.17647	0.22353	0.19608
0.21176	0.25490	0.23137
0.25490	0.29412	0.27059
0.28627	0.32941	0.30196
0.32941	0.36863	0.34510
0.36471	0.40392	0.38039
0.40392	0.44314	0.41961
0.43922	0.47451	0.45098
0.47451	0.50980	0.49020
0.50980	0.54118	0.52157
0.54118	0.57255	0.55294
0.10588	0.15294	0.12549
0.10980	0.16078	0.12941
0.12157	0.16863	0.14118
0.13725	0.18431	0.15686
0.16078	0.20784	0.18039
0.18431	0.23137	0.20392
0.21569	0.25882	0.23137
0.25098	0.29020	0.26667
0.28235	0.32157	0.29804
0.31765	0.35686	0.33333
0.34902	0.38824	0.36471
0.38824	0.42353	0.40000
0.41961	0.45490	0.43529
0.45490	0.49020	0.47059
0.48627	0.52157	0.50196
0.52157	0.55294	0.53333
0.54902	0.58039	0.56078
0.17647	0.22353	0.19608
0.18039	0.22745	0.20000
0.19216	0.23529	0.20784
0.20000	0.24706	0.21961
0.21961	0.26275	0.23529
0.24314	0.28235	0.25882
0.26667	0.30588	0.28235
0.29020	0.32941	0.30588
0.32157	0.36078	0.33725
0.34902	0.38431	0.36471
0.38431	0.41961	0.39608
0.41176	0.45098	0.42745
0.44314	0.47843	0.45882
0.47843	0.50980	0.49020
0.50588	0.54118	0.52157
0.53725	0.56863	0.54902
0.56471	0.59608	0.57647
0.25098	0.29412	0.26667
0.25490	0.29804	0.27059
0.26275	0.30196	0.27843
0.27059	0.30980	0.28627
0.28235	0.32157	0.29804
0.29804	0.33725	0.31373
0.32157	0.36078	0.33725
0.34118	0.37647	0.35294
0.36471	0.40392	0.38039
0.39216	0.43137	0.40784
0.41569	0.45490	0.43137
0.44314	0.47843	0.45882
0.47451	0.50980	0.48627
0.50196	0.53725	0.51373
0.52941	0.56471	0.54510
0.55294	0.58824	0.56863
0.58431	0.61569	0.59608
0.32157	0.36078	0.33725
0.32157	0.36078	0.33725
0.32941	0.36471	0.34118
0.33333	0.37255	0.34902
0.34510	0.38039	0.35686
0.35686	0.39608	0.37255
0.37647	0.41176	0.38824
0.39608	0.43137	0.40784
0.41176	0.45098	0.42745
0.43137	0.46667	0.44314
0.45882	0.49020	0.47059
0.48235	0.51373	0.49412
0.50588	0.53725	0.51765
0.53333	0.56471	0.54510
0.55294	0.58431	0.56471
0.58039	0.61176	0.59216
0.60784	0.63529	0.61961
0.38824	0.42353	0.40000
0.38824	0.42745	0.40392
0.39608	0.43137	0.40784
0.40000	0.43529	0.41176
0.40784	0.44314	0.42353
0.41569	0.45098	0.43137
0.42745	0.46275	0.43922
0.44314	0.47843	0.45490
0.46275	0.49804	0.47451
0.47843	0.51373	0.49020
0.49804	0.53333	0.50980
0.51765	0.55294	0.52941
0.54118	0.57255	0.55294
0.55686	0.59216	0.57255
0.58431	0.61569	0.59608
0.60784	0.63922	0.61961
0.62745	0.65882	0.63922
0.44706	0.48235	0.46275
0.45098	0.48627	0.46275
0.45490	0.48627	0.46667
0.45882	0.49412	0.47059
0.46667	0.49804	0.47843
0.47451	0.50588	0.48627
0.48235	0.51765	0.49804
0.49412	0.52549	0.50588
0.50980	0.54118	0.52157
0.52549	0.55686	0.53725
0.54118	0.57255	0.55294
0.55294	0.58824	0.56863
0.57647	0.60784	0.58824
0.59608	0.62745	0.60784
0.61569	0.64706	0.62745
0.63529	0.66667	0.64706
0.65882	0.68627	0.67059
0.50196	0.53725	0.51765
0.50196	0.53725	0.51765
0.50588	0.54118	0.51765
0.50980	0.54510	0.52157
0.51373	0.54902	0.52941
0.52157	0.55686	0.53725
0.53333	0.56471	0.54510
0.54118	0.57255	0.55294
0.54902	0.58039	0.56078
0.56078	0.59608	0.57647
0.58039	0.61176	0.59216
0.59608	0.62745	0.60784
0.61176	0.64314	0.62353
0.62745	0.65490	0.63922
0.64706	0.67451	0.65882
0.66667	0.69412	0.67843
0.68627	0.71373	0.69804
0.55294	0.58431	0.56471
0.55294	0.58824	0.56863
0.55686	0.58824	0.56863
0.55686	0.59216	0.57255
0.56471	0.59608	0.57647
0.57255	0.60392	0.58431
0.58039	0.61176	0.59216
0.58824	0.61961	0.60000
0.60000	0.62745	0.61176
0.60784	0.63922	0.61961
0.61961	0.65098	0.63137
0.63137	0.66275	0.64314
0.64706	0.67843	0.65882
0.66667	0.69412	0.67843
0.68235	0.70980	0.69412
0.69804	0.72549	0.70980
0.71765	0.74510	0.72941
0.60784	0.63922	0.61961
0.60784	0.63922	0.61961
0.60784	0.63922	0.61961
0.61176	0.64314	0.62353
0.61569	0.64706	0.62745
0.61961	0.64706	0.63137
0.62353	0.65490	0.63529
0.63137	0.66275	0.64314
0.64314	0.67059	0.65490
0.65098	0.68235	0.66275
0.66275	0.69020	0.67451
0.67843	0.70588	0.68627
0.69020	0.71765	0.69804
0.70196	0.72941	0.71373
0.71765	0.74510	0.72941
0.73333	0.76078	0.74510
0.75294	0.77647	0.76078
0.65490	0.68235	0.66667
0.65882	0.68627	0.66667
0.65882	0.68627	0.67059
0.65882	0.69020	0.67059
0.66275	0.69412	0.67451
0.66667	0.69804	0.67843
0.67451	0.70196	0.68627
0.67843	0.70588	0.69020
0.68627	0.71373	0.69804
0.69412	0.72157	0.70588
0.70588	0.73333	0.71765
0.71765	0.74118	0.72549
0.72941	0.75294	0.73725
0.74118	0.76471	0.74902
0.75294	0.77647	0.76471
0.76863	0.79216	0.78039
0.78824	0.80784	0.79608
0.70196	0.72941	0.71373
0.70588	0.73333	0.71373
0.70588	0.73333	0.71765
0.70588	0.73333	0.71765
0.70980	0.73725	0.72157
0.71373	0.74118	0.72549
0.71765	0.74510	0.72941
0.72549	0.74902	0.73333
0.73333	0.75686	0.74510
0.73725	0.76471	0.74902
0.74902	0.77255	0.75686
0.75686	0.78039	0.76471
0.76863	0.79216	0.77647
0.78824	0.80784	0.79608
0.80000	0.81961	0.80784
0.81176	0.83137	0.81961
0.82745	0.84314	0.83529
0.75294	0.77647	0.76078
0.75294	0.77647	0.76078
0.75294	0.77647	0.76471
0.75294	0.77647	0.76471
0.75686	0.78039	0.76471
0.76078	0.78431	0.76863
0.76471	0.78824	0.77255
0.76863	0.79216	0.78039
0.78039	0.80000	0.78824
0.78824	0.80784	0.79608
0.79608	0.81569	0.80392
0.80392	0.82353	0.81176
0.81569	0.83529	0.82353
0.82745	0.84314	0.83137
0.83922	0.85882	0.84706
0.85882	0.87059	0.86275
0.87059	0.88627	0.87451
0.80392	0.82353	0.81176
0.80392	0.82353	0.81176
0.80392	0.82353	0.81176
0.80392	0.82353	0.81176
0.80784	0.82745	0.81569
0.80784	0.82745	0.81569
0.81569	0.83529	0.82353
0.81569	0.83529	0.82353
0.82353	0.84314	0.83137
0.83137	0.85098	0.83922
0.84314	0.85882	0.84706
0.85490	0.87059	0.85882
0.86275	0.87843	0.87059
0.87451	0.89020	0.88235
0.89020	0.90196	0.89412
0.90196	0.91373	0.90588
0.92157	0.92941	0.92549
0.85490	0.87059	0.86275
0.85490	0.87059	0.86275
0.85490	0.87059	0.86275
0.85882	0.87451	0.86275
0.86275	0.87451	0.86667
0.86275	0.87843	0.87059
0.86667	0.88235	0.87059
0.87059	0.88627	0.87843
0.88235	0.89412	0.88627
0.88627	0.89804	0.89020
0.89412	0.90588	0.89804
0.90588	0.91373	0.90980
0.91373	0.92549	0.91765
0.92941	0.93725	0.93333
0.94118	0.94510	0.94118
0.95294	0.96078	0.95686
0.96863	0.96863	0.96863
0.00000	0.03529	0.01569
0.00392	0.03922	0.01569
0.00784	0.05098	0.02353
0.01961	0.07451	0.04314
0.05490	0.10588	0.07843
0.09412	0.14118	0.11373
0.13333	0.18039	0.15294
0.17647	0.22353	0.19608
0.21961	0.26667	0.23922
0.26667	0.30588	0.28235
0.30588	0.34510	0.32157
0.34510	0.38431	0.36078
0.38824	0.42353	0.40392
0.42353	0.45882	0.43922
0.46275	0.49804	0.47843
0.49804	0.52941	0.50980
0.53333	0.56471	0.54510
0.00784	0.05490	0.02745
0.01176	0.06275	0.03137
0.02353	0.07451	0.04706
0.04706	0.09804	0.07059
0.07843	0.12941	0.09804
0.10980	0.16078	0.12941
0.15294	0.19608	0.16863
0.19216	0.23922	0.21176
0.23529	0.27451	0.25098
0.27451	0.31373	0.29020
0.31765	0.35686	0.32941
0.35294	0.38824	0.36863
0.39608	0.43137	0.41176
0.42745	0.46275	0.44314
0.46667	0.50196	0.48235
0.50196	0.53725	0.51373
