LUTGenerator/TEST/CUBE/Duotone/Green/Duotone_Green_Subtle_sRGB.cube
TITLE Duotone_Green_Subtle_sRGB.cube
LUT_3D_SIZE 5
DOMAIN_MIN 0.0 0.0 0.0
DOMAIN_MAX 1.0 1.0 1.0
0.00000	0.02745	0.01176
0.03922	0.09412	0.06275
0.21569	0.25882	0.23137
0.38431	0.41961	0.40000
0.52941	0.56471	0.54510
0.17255	0.21961	0.19216
0.21569	0.25882	0.23529
0.32157	0.36078	0.33725
0.44314	0.47843	0.45490
0.56078	0.59608	0.57647
0.44706	0.48235	0.45882
0.46275	0.49804	0.47843
0.50980	0.54118	0.52157
0.57647	0.60784	0.58824
0.65882	0.68627	0.67059
0.65490	0.68235	0.66667
0.66275	0.69020	0.67451
0.68627	0.71373	0.69804
0.72941	0.75294	0.73725
0.78824	0.80784	0.79608
0.85490	0.87059	0.86275
0.85882	0.87451	0.86667
0.87843	0.89412	0.88627
0.91373	0.92549	0.91765
0.96863	0.97255	0.96863
0.00392	0.03922	0.01569
0.06275	0.11373	0.08235
0.22745	0.27059	0.24314
0.39216	0.42745	0.40784
0.53333	0.56863	0.54510
0.18431	0.23137	0.20392
0.22745	0.27059	0.24314
0.32941	0.36471	0.34118
0.44706	0.48235	0.46275
0.56471	0.59608	0.57647
0.45098	0.48627	0.46275
0.46667	0.50196	0.47843
0.50980	0.54510	0.52549
0.57647	0.60784	0.58824
0.65882	0.68627	0.67059
0.65882	0.68627	0.66667
0.66667	0.69412	0.67451
0.69020	0.71765	0.69804
0.72941	0.75686	0.74118
0.78824	0.81176	0.80000
0.85490	0.87059	0.86275
0.86275	0.87843	0.86667
0.88235	0.89412	0.88627
0.91765	0.92549	0.91765
0.96863	0.97255	0.96863
0.05098	0.10588	0.07451
0.11765	0.16471	0.13725
0.25882	0.30196	0.27451
0.40784	0.44314	0.42353
0.54118	0.57647	0.55686
0.21961	0.26667	0.23922
0.25882	0.30196	0.27451
0.34510	0.38431	0.36078
0.46275	0.49804	0.47843
0.57647	0.60784	0.58824
0.46667	0.49804	0.47843
0.47843	0.51373	0.49412
0.52157	0.55686	0.53725
0.58824	0.61961	0.60000
0.66667	0.69412	0.67843
0.66275	0.69412	0.67451
0.67451	0.70196	0.68235
0.69412	0.72157	0.70196
0.73725	0.76078	0.74510
0.79608	0.81961	0.80392
0.86275	0.87451	0.86667
0.86667	0.88235	0.87059
0.88627	0.89804	0.89020
0.92549	0.93333	0.92941
0.97255	0.97647	0.97647
0.15294	0.20000	0.16863
0.19608	0.24314	0.21569
0.30588	0.34510	0.32157
0.43529	0.47059	0.44706
0.55686	0.58824	0.56863
0.27843	0.31765	0.29412
0.30588	0.34510	0.32157
0.38431	0.42353	0.40000
0.48627	0.51765	0.49804
0.59216	0.62353	0.60392
0.48627	0.52157	0.50196
0.50196	0.53725	0.51765
0.54118	0.57255	0.55294
0.60392	0.63529	0.61569
0.67843	0.70588	0.69020
0.67451	0.70588	0.68627
0.68627	0.71373	0.69412
0.70588	0.73333	0.71765
0.74510	0.77255	0.75686
0.80784	0.82745	0.81569
0.87059	0.88235	0.87451
0.87843	0.89020	0.88235
0.89412	0.90588	0.89804
0.93333	0.94118	0.93725
0.98431	0.98824	0.98431
0.25882	0.30196	0.27451
0.28627	0.32941	0.30196
0.36863	0.40784	0.38431
0.47843	0.50980	0.49020
0.58431	0.61569	0.60000
0.34510	0.38431	0.36078
0.36863	0.40784	0.38431
0.43137	0.46667	0.44314
0.51765	0.55294	0.53333
0.61569	0.64706	0.62745
0.52157	0.55686	0.53725
0.53725	0.56863	0.54902
0.56471	0.59608	0.57647
0.61961	0.65098	0.63137
0.69804	0.72157	0.70588
0.69412	0.72157	0.70196
0.70196	0.72941	0.70980
0.72549	0.74902	0.73333
0.76471	0.78824	0.77255
0.81569	0.83529	0.82353
0.88627	0.89804	0.89020
0.89020	0.90196	0.89804
0.90980	0.92157	0.91373
0.94510	0.95294	0.94902
1.00000	1.00000	1.00000
