LUTGenerator/TEST/CUBE/Duotone/Green/Duotone_Green_Strong_sRGB.cube
TITLE Duotone_Green_Strong_sRGB.cube
LUT_3D_SIZE 9
DOMAIN_MIN 0.0 0.0 0.0
DOMAIN_MAX 1.0 1.0 1.0
0.00000	0.07451	0.02745
0.00000	0.09412	0.04314
0.00000	0.16863	0.09804
0.00000	0.25882	0.17255
0.06275	0.34118	0.25098
0.17647	0.41961	0.32941
0.28235	0.49412	0.40784
0.38039	0.56863	0.48627
0.47059	0.63137	0.56078
0.00000	0.16078	0.09020
0.00000	0.18431	0.10980
0.00000	0.23529	0.15294
0.00000	0.30196	0.21176
0.11765	0.37255	0.28235
0.21176	0.44314	0.35294
0.30588	0.51373	0.42745
0.40000	0.58431	0.50196
0.48627	0.64314	0.57255
0.00000	0.30196	0.21176
0.00784	0.31373	0.22353
0.06275	0.34510	0.25098
0.13333	0.38824	0.29412
0.20392	0.43922	0.34902
0.27843	0.49412	0.40392
0.36078	0.55294	0.47059
0.43922	0.61176	0.53333
0.51765	0.66667	0.60000
0.20392	0.43529	0.34510
0.21176	0.44314	0.35294
0.23137	0.45490	0.36863
0.27059	0.48627	0.39608
0.31765	0.52157	0.43529
0.37647	0.56471	0.48235
0.43529	0.60784	0.53333
0.50588	0.65882	0.58824
0.57647	0.70980	0.64706
0.36471	0.55686	0.47451
0.36863	0.56078	0.47843
0.38431	0.56863	0.49020
0.41176	0.58824	0.51373
0.44314	0.61176	0.53725
0.48627	0.64314	0.57255
0.52941	0.67843	0.61176
0.59216	0.72157	0.65882
0.64706	0.76078	0.70588
0.50588	0.65882	0.58824
0.50588	0.66275	0.59216
0.51765	0.66667	0.60000
0.53725	0.67843	0.61569
0.56471	0.69804	0.63529
0.59608	0.72157	0.66275
0.63529	0.74902	0.69412
0.68235	0.78431	0.73333
0.72157	0.81176	0.77255
0.64314	0.75686	0.70588
0.64706	0.76078	0.70588
0.65490	0.76471	0.71373
0.67059	0.77647	0.72549
0.68627	0.78824	0.74118
0.70980	0.80392	0.76078
0.73725	0.82353	0.78431
0.76863	0.84706	0.80784
0.81176	0.87451	0.84314
0.76471	0.84314	0.80392
0.76863	0.84314	0.80784
0.77255	0.84706	0.81176
0.78039	0.85490	0.81961
0.79608	0.86275	0.83137
0.81961	0.87843	0.85098
0.83922	0.89412	0.86667
0.86275	0.90980	0.89020
0.89804	0.93333	0.91373
0.87843	0.92157	0.90196
0.88235	0.92157	0.90196
0.88627	0.92549	0.90588
0.89020	0.92941	0.90980
0.90196	0.93333	0.91765
0.91765	0.94510	0.92941
0.93333	0.95686	0.94510
0.95294	0.96863	0.96078
0.97255	0.98039	0.97647
0.00000	0.07843	0.03137
0.00000	0.10196	0.04706
0.00000	0.17647	0.10588
0.00000	0.26275	0.17647
0.06667	0.34510	0.25490
0.18431	0.42353	0.33333
0.28627	0.49804	0.40784
0.38431	0.56863	0.49020
0.47451	0.63529	0.56078
0.00000	0.16863	0.09804
0.00000	0.19216	0.11765
0.00000	0.23922	0.15686
0.00000	0.30588	0.21569
0.11765	0.37647	0.28627
0.21569	0.44314	0.35294
0.30980	0.51373	0.42745
0.40392	0.58431	0.50588
0.48627	0.64314	0.57255
0.00000	0.30588	0.21569
0.01176	0.31765	0.22745
0.07059	0.34510	0.25490
0.13725	0.38824	0.29804
0.20784	0.43922	0.34902
0.28235	0.49412	0.40784
0.36078	0.55294	0.47059
0.43922	0.61176	0.53725
0.51765	0.66667	0.60000
0.20392	0.43922	0.34510
0.21176	0.44314	0.35294
0.23529	0.45882	0.36863
0.27059	0.48627	0.40000
0.32157	0.52157	0.43922
0.37647	0.56471	0.48235
0.43922	0.60784	0.53333
0.50588	0.65882	0.58824
0.57647	0.70980	0.64706
0.36471	0.55686	0.47451
0.37255	0.56078	0.47843
0.38431	0.57255	0.49020
0.41176	0.59216	0.51373
0.44314	0.61176	0.53725
0.48627	0.64314	0.57255
0.53333	0.67843	0.61176
0.59216	0.72157	0.66275
0.64706	0.76078	0.70980
0.50588	0.65882	0.58824
0.50980	0.66275	0.59216
0.52157	0.67059	0.60000
0.53725	0.67843	0.61569
0.56471	0.70196	0.63922
0.59608	0.72157	0.66275
0.63529	0.74902	0.69804
0.67843	0.78431	0.73333
0.72549	0.81176	0.77255
0.64314	0.75686	0.70588
0.64706	0.76078	0.70588
0.65490	0.76863	0.71373
0.67059	0.77647	0.72549
0.68627	0.78824	0.74118
0.70980	0.80392	0.76078
0.73725	0.82353	0.78431
0.76863	0.84706	0.81176
0.81176	0.87451	0.84314
0.76471	0.84314	0.80392
0.76863	0.84314	0.80784
0.77255	0.84706	0.81176
0.78039	0.85490	0.81961
0.79608	0.86667	0.83137
0.81961	0.87843	0.85098
0.83922	0.89412	0.86667
0.86275	0.90980	0.89020
0.89804	0.93333	0.91373
0.87843	0.92157	0.90196
0.88235	0.92157	0.90196
0.88627	0.92549	0.90588
0.89020	0.92941	0.90980
0.90196	0.93333	0.91765
0.91765	0.94510	0.92941
0.93333	0.95686	0.94510
0.95294	0.96863	0.96078
0.97255	0.98039	0.97647
0.00000	0.09412	0.04314
0.00000	0.12157	0.06275
0.00000	0.19216	0.11765
0.00000	0.27451	0.18431
0.07843	0.35294	0.26275
0.19216	0.42745	0.33725
0.29020	0.50196	0.41569
0.38824	0.57255	0.49020
0.47843	0.63529	0.56471
0.00000	0.18431	0.10980
0.00000	0.20784	0.12941
0.00000	0.25098	0.16471
0.00392	0.31373	0.22353
0.12941	0.38431	0.29020
0.21961	0.44706	0.35686
0.31373	0.51765	0.43137
0.40784	0.58431	0.50588
0.49020	0.64706	0.57647
0.00784	0.31373	0.22353
0.02353	0.32549	0.23529
0.07843	0.35294	0.26275
0.14510	0.39216	0.30196
0.21176	0.44314	0.35294
0.28627	0.49804	0.41176
0.36471	0.55686	0.47451
0.44314	0.61176	0.53725
0.52157	0.67059	0.60392
0.21176	0.44314	0.35294
0.21961	0.44706	0.35686
0.23922	0.46275	0.37255
0.27451	0.49020	0.40392
0.32549	0.52549	0.43922
0.38039	0.56863	0.48627
0.44314	0.61176	0.53725
0.50588	0.65882	0.59216
0.58039	0.70980	0.65098
0.36863	0.56078	0.47843
0.37647	0.56471	0.48235
0.38824	0.57255	0.49412
0.41569	0.59216	0.51765
0.44706	0.61569	0.54118
0.48627	0.64314	0.57255
0.53333	0.67843	0.61176
0.59608	0.72157	0.66275
0.65098	0.76078	0.70980
0.50588	0.65882	0.59216
0.50980	0.66275	0.59608
0.52157	0.67059	0.60392
0.54118	0.68235	0.61569
0.56863	0.70196	0.64314
0.59608	0.72549	0.66667
0.63529	0.75294	0.69804
0.68235	0.78431	0.73333
0.72549	0.81569	0.77255
0.64706	0.76078	0.70588
0.65098	0.76078	0.70980
0.65882	0.76863	0.71765
0.67451	0.77647	0.72941
0.69020	0.78824	0.74118
0.71373	0.80392	0.76078
0.73725	0.82353	0.78039
0.77255	0.84706	0.81176
0.81176	0.87451	0.84314
0.76863	0.84314	0.80784
0.76863	0.84706	0.80784
0.77647	0.84706	0.81176
0.78039	0.85490	0.81961
0.80000	0.86667	0.83529
0.81961	0.87843	0.85098
0.83922	0.89412	0.86667
0.86667	0.90980	0.89020
0.89804	0.93333	0.91765
0.88235	0.92157	0.90196
0.88235	0.92157	0.90196
0.88627	0.92549	0.90588
0.89412	0.92941	0.90980
0.90196	0.93725	0.92157
0.91765	0.94510	0.92941
0.93333	0.95686	0.94510
0.95294	0.96863	0.96078
0.97647	0.98431	0.98039
0.00000	0.12941	0.06667
0.00000	0.16078	0.09020
0.00000	0.21961	0.13725
0.00000	0.29020	0.20000
0.09804	0.36471	0.27451
0.20392	0.43922	0.34510
0.30196	0.50980	0.42353
0.39608	0.57647	0.49804
0.48235	0.63922	0.56863
0.00000	0.21176	0.13333
0.00000	0.23137	0.14902
0.00000	0.27059	0.18431
0.02745	0.32941	0.23529
0.14510	0.39216	0.30196
0.23137	0.45490	0.36471
0.32157	0.52549	0.43922
0.41176	0.59216	0.51373
0.49412	0.65098	0.58039
0.03137	0.32941	0.23922
0.05098	0.34118	0.24706
0.09804	0.36471	0.27451
0.15294	0.40392	0.30980
0.22353	0.45098	0.36078
0.29804	0.50588	0.41961
0.37255	0.56078	0.48235
0.45098	0.61569	0.54118
0.52549	0.67451	0.60784
0.22353	0.45098	0.36078
0.23137	0.45490	0.36471
0.25098	0.47059	0.38039
0.28627	0.49804	0.41176
0.33333	0.53333	0.44706
0.38824	0.57255	0.49412
0.44706	0.61569	0.54118
0.50980	0.66275	0.59608
0.58431	0.71373	0.65490
0.37647	0.56471	0.48235
0.38431	0.56863	0.49020
0.40000	0.58039	0.50196
0.42353	0.60000	0.52157
0.45490	0.61961	0.54510
0.49412	0.64706	0.58039
0.54118	0.68235	0.61961
0.59608	0.72157	0.66275
0.65490	0.76471	0.71373
0.51373	0.66275	0.59608
0.51765	0.66667	0.60000
0.52941	0.67451	0.60784
0.54510	0.68627	0.62353
0.57255	0.70588	0.64706
0.60392	0.72941	0.67059
0.63922	0.75686	0.70196
0.68627	0.78431	0.73725
0.72941	0.81569	0.77647
0.65098	0.76078	0.70980
0.65490	0.76471	0.71373
0.66275	0.76863	0.71765
0.67843	0.78039	0.73333
0.69412	0.79216	0.74510
0.71373	0.80784	0.76471
0.74118	0.82353	0.78431
0.77647	0.85098	0.81569
0.81569	0.87843	0.84706
0.76863	0.84706	0.80784
0.77255	0.84706	0.81176
0.77647	0.85098	0.81569
0.78431	0.85882	0.82353
0.80000	0.86667	0.83529
0.82353	0.88235	0.85098
0.84314	0.89412	0.87059
0.86667	0.91373	0.89020
0.89804	0.93333	0.91765
0.88235	0.92157	0.90196
0.88627	0.92549	0.90588
0.89020	0.92941	0.90980
0.89412	0.93333	0.91373
0.90588	0.93725	0.92157
0.91765	0.94510	0.93333
0.93725	0.95686	0.94902
0.95686	0.97255	0.96471
0.97647	0.98431	0.98039
0.00000	0.18431	0.10980
0.00000	0.20392	0.12549
0.00000	0.25098	0.16471
0.00392	0.31373	0.22353
0.12549	0.38431	0.29020
0.21961	0.44706	0.35686
0.31373	0.51765	0.43137
0.40392	0.58431	0.50588
0.48627	0.64706	0.57647
0.00000	0.24706	0.16078
0.00000	0.25882	0.17255
0.00000	0.29804	0.20784
0.07059	0.34510	0.25490
0.16078	0.40784	0.31373
0.24314	0.46667	0.37647
0.33333	0.53333	0.44706
0.42353	0.60000	0.52157
0.50196	0.65490	0.58824
0.07451	0.34902	0.25490
0.09020	0.35686	0.26667
0.12941	0.38431	0.29020
0.17255	0.41569	0.32549
0.23922	0.46275	0.37255
0.30980	0.51373	0.42745
0.38431	0.56863	0.49020
0.45882	0.62353	0.54902
0.53333	0.67843	0.61176
0.23529	0.45882	0.36863
0.24314	0.46667	0.37647
0.26667	0.48235	0.39216
0.30196	0.50980	0.42353
0.34510	0.54118	0.45490
0.40000	0.58039	0.50196
0.45882	0.62353	0.54902
0.51765	0.67059	0.60000
0.59216	0.72157	0.66275
0.38824	0.57255	0.49020
0.39608	0.57647	0.49804
0.40784	0.58824	0.50980
0.43137	0.60392	0.52941
0.46275	0.62745	0.55294
0.50196	0.65490	0.58431
0.54902	0.69020	0.62353
0.60000	0.72549	0.67059
0.65882	0.76863	0.71765
0.52157	0.67059	0.60392
0.52549	0.67451	0.60784
0.53333	0.67843	0.61176
0.55294	0.69020	0.62745
0.58039	0.71373	0.65098
0.60784	0.73333	0.67451
0.64706	0.76078	0.70588
0.69020	0.79216	0.74510
0.73333	0.81961	0.78039
0.65882	0.76863	0.71765
0.65882	0.76863	0.71765
0.66667	0.77255	0.72549
0.68235	0.78431	0.73333
0.69804	0.79608	0.74902
0.72157	0.81176	0.76863
0.74510	0.82745	0.78824
0.77647	0.85098	0.81569
0.81961	0.87843	0.85098
0.77255	0.84706	0.81176
0.77647	0.85098	0.81569
0.78039	0.85490	0.81961
0.79216	0.85882	0.82745
0.80784	0.87059	0.83922
0.82353	0.88235	0.85490
0.84314	0.89804	0.87059
0.87059	0.91373	0.89412
0.90196	0.93333	0.91765
0.88627	0.92549	0.90588
0.89020	0.92549	0.90980
0.89020	0.92941	0.90980
0.89804	0.93333	0.91765
0.90588	0.93725	0.92157
0.92157	0.94902	0.93333
0.94118	0.96078	0.95294
0.95686	0.97255	0.96471
0.98039	0.98824	0.98431
0.00000	0.23137	0.14902
0.00000	0.24706	0.16471
0.00000	0.28627	0.19608
0.05098	0.34118	0.24706
0.15294	0.40392	0.30980
0.23922	0.46275	0.37255
0.32941	0.52941	0.44314
0.41961	0.59608	0.51765
0.49804	0.65490	0.58431
0.00000	0.28235	0.19216
0.00000	0.29412	0.20784
0.02353	0.32549	0.23529
0.11373	0.37255	0.27843
0.18824	0.42745	0.33333
0.26667	0.48235	0.39216
0.34902	0.54118	0.45882
0.43137	0.60392	0.52941
0.50980	0.66275	0.59216
0.11373	0.37255	0.28235
0.12549	0.38431	0.29020
0.15294	0.40392	0.30980
0.20392	0.43529	0.34510
0.25882	0.47843	0.38824
0.32549	0.52549	0.43922
0.40000	0.58039	0.50196
0.47059	0.63137	0.56078
0.54118	0.68627	0.61961
0.25490	0.47451	0.38824
0.26667	0.48235	0.39216
0.28235	0.49412	0.40784
0.31765	0.52157	0.43529
0.36078	0.55294	0.47059
0.41176	0.59216	0.51373
0.47059	0.63137	0.56078
0.52941	0.67843	0.61176
0.59608	0.72157	0.66275
0.40392	0.58431	0.50588
0.40784	0.58824	0.50980
0.42353	0.59608	0.52157
0.43922	0.61176	0.53725
0.47451	0.63529	0.56471
0.50980	0.66275	0.59216
0.55686	0.69412	0.63137
0.61176	0.73333	0.67843
0.66667	0.77255	0.72549
0.52941	0.67843	0.61176
0.53333	0.67843	0.61176
0.54510	0.68627	0.61961
0.56078	0.69804	0.63529
0.58824	0.71765	0.65882
0.61961	0.74118	0.68235
0.65490	0.76471	0.71373
0.69804	0.79608	0.74902
0.73725	0.82353	0.78431
0.66275	0.77255	0.72157
0.66667	0.77255	0.72549
0.67451	0.78039	0.72941
0.68627	0.78824	0.73725
0.70196	0.80000	0.75294
0.72157	0.81176	0.77255
0.75294	0.83529	0.79608
0.78039	0.85490	0.81961
0.82353	0.88235	0.85490
0.77647	0.85098	0.81569
0.78039	0.85490	0.81961
0.78431	0.85490	0.82353
0.79608	0.86275	0.83137
0.81176	0.87451	0.84314
0.82745	0.88627	0.85882
0.85098	0.89804	0.87451
0.87843	0.91765	0.89804
0.90588	0.93725	0.92157
0.89020	0.92549	0.90980
0.89020	0.92549	0.90980
0.89412	0.93333	0.91373
0.90196	0.93333	0.91765
0.90980	0.94118	0.92549
0.92549	0.94902	0.93725
0.94118	0.96078	0.95294
0.96078	0.97255	0.96863
0.98431	0.98824	0.98824
0.00000	0.28235	0.19608
0.00000	0.29804	0.20784
0.02353	0.32549	0.23529
0.11373	0.37255	0.28235
0.18824	0.42745	0.33333
0.26667	0.48235	0.39608
0.34902	0.54118	0.45882
0.43137	0.60392	0.52941
0.50980	0.66275	0.59216
0.01961	0.32157	0.23137
0.03922	0.33333	0.23922
0.09020	0.36078	0.26667
0.14902	0.40000	0.30588
0.21961	0.44706	0.35686
0.29020	0.50196	0.41569
0.36863	0.56078	0.47843
0.44706	0.61569	0.54118
0.52549	0.67451	0.60392
0.14902	0.40000	0.30980
0.16078	0.40784	0.31373
0.18824	0.42745	0.33333
0.23137	0.45490	0.36471
0.28627	0.49412	0.40784
0.34510	0.54118	0.45882
0.41961	0.59608	0.51765
0.48627	0.64314	0.57255
0.55686	0.69412	0.63137
0.28235	0.49412	0.40784
0.29020	0.50196	0.41569
0.30980	0.51373	0.42745
0.33725	0.53333	0.45098
0.38039	0.56471	0.48627
0.43137	0.60392	0.52941
0.48627	0.64314	0.57255
0.54118	0.68627	0.61961
0.60784	0.73333	0.67451
0.41961	0.59608	0.51765
0.42745	0.60000	0.52549
0.43529	0.60784	0.52941
0.45490	0.62353	0.54902
0.48627	0.64314	0.57255
0.52157	0.67059	0.60392
0.57255	0.70588	0.64314
0.62353	0.74118	0.68627
0.67843	0.78039	0.73333
0.54118	0.68627	0.61961
0.54902	0.68627	0.62353
0.55686	0.69412	0.63137
0.57647	0.70980	0.64706
0.59608	0.72549	0.66667
0.63137	0.74902	0.69412
0.66667	0.77255	0.72157
0.70196	0.80000	0.75294
0.74510	0.82745	0.78824
0.67451	0.78039	0.72941
0.67843	0.78039	0.73333
0.68235	0.78431	0.73725
0.69804	0.79608	0.74902
0.70980	0.80392	0.76078
0.73333	0.81961	0.78039
0.75686	0.83529	0.80000
0.79216	0.86275	0.82745
0.82745	0.88627	0.85882
0.78431	0.85490	0.81961
0.78431	0.85882	0.82353
0.79216	0.86275	0.83137
0.80392	0.87059	0.83922
0.81961	0.87843	0.85098
0.83529	0.89020	0.86275
0.85490	0.90196	0.87843
0.88235	0.92157	0.90196
0.90980	0.94118	0.92549
0.89412	0.92941	0.91373
0.89804	0.93333	0.91373
0.90196	0.93333	0.91765
0.90588	0.93725	0.92157
0.91765	0.94510	0.92941
0.92941	0.95294	0.94118
0.94902	0.96471	0.95686
0.96471	0.97647	0.97255
0.99216	0.99216	0.99216
0.03529	0.32941	0.23922
0.05882	0.34118	0.25098
0.10588	0.36863	0.27451
0.15686	0.40392	0.31373
0.22745	0.45098	0.36471
0.29804	0.50588	0.41961
0.37647	0.56471	0.48235
0.45098	0.61961	0.54510
0.52941	0.67451	0.60784
0.09804	0.36471	0.27451
0.11765	0.37255	0.28235
0.14510	0.39608	0.30196
0.19216	0.43137	0.33725
0.25098	0.47059	0.38431
0.31765	0.52157	0.43529
0.39216	0.57647	0.49804
0.46667	0.63137	0.55686
0.53725	0.68235	0.61569
0.19608	0.43137	0.34118
0.20392	0.43922	0.34902
0.22745	0.45098	0.36471
0.26275	0.47843	0.39216
0.31373	0.51765	0.43137
0.37255	0.56078	0.47843
0.43529	0.60392	0.52941
0.50196	0.65490	0.58824
0.57255	0.70588	0.64706
0.31373	0.51765	0.43137
0.31765	0.52157	0.43529
0.33333	0.53333	0.45098
0.36471	0.55686	0.47451
0.40392	0.58431	0.50588
0.44706	0.61569	0.54118
0.50196	0.65490	0.58431
0.55686	0.69804	0.63137
0.62353	0.74118	0.68627
0.43529	0.60784	0.53333
0.44314	0.61176	0.53725
0.45490	0.61961	0.54510
0.47843	0.63529	0.56471
0.50588	0.65882	0.58824
0.53725	0.68235	0.61569
0.58824	0.71765	0.65490
0.63137	0.74902	0.69412
0.68627	0.78824	0.74118
0.56078	0.69804	0.63529
0.56471	0.70196	0.63922
0.57255	0.70588	0.64706
0.59216	0.72157	0.66275
0.61176	0.73333	0.67843
0.63922	0.75294	0.70196
0.67843	0.78431	0.73333
0.71373	0.80784	0.76471
0.75686	0.83529	0.79608
0.68235	0.78431	0.73725
0.68627	0.78824	0.74118
0.69412	0.79216	0.74510
0.70196	0.80000	0.75294
0.72157	0.81176	0.76863
0.73725	0.82353	0.78431
0.76863	0.84314	0.80784
0.80000	0.86667	0.83529
0.83529	0.89020	0.86667
0.79608	0.86275	0.83137
0.79608	0.86275	0.83137
0.80000	0.86667	0.83529
0.81176	0.87451	0.84706
0.82745	0.88235	0.85490
0.83922	0.89412	0.87059
0.86275	0.90980	0.88627
0.89020	0.92941	0.90980
0.91765	0.94510	0.93333
0.90196	0.93333	0.91765
0.90196	0.93333	0.91765
0.90588	0.93725	0.92157
0.90980	0.94118	0.92549
0.92157	0.94902	0.93725
0.93725	0.95686	0.94902
0.95294	0.96863	0.96078
0.96863	0.98039	0.97255
0.99216	0.99608	0.99608
0.12549	0.38039	0.29020
0.13725	0.38824	0.29804
0.16078	0.40784	0.31373
0.21176	0.44314	0.34902
0.26667	0.48235	0.39216
0.32941	0.52941	0.44706
0.40392	0.58431	0.50588
0.47451	0.63529	0.56471
0.54510	0.68627	0.62353
0.15686	0.40784	0.31373
0.16863	0.41176	0.32157
0.20000	0.43529	0.34118
0.23529	0.45882	0.36863
0.29020	0.50196	0.41569
0.34902	0.54510	0.46275
0.42353	0.59608	0.52157
0.48627	0.64706	0.57647
0.56078	0.69804	0.63529
0.23529	0.45882	0.37255
0.24314	0.46667	0.37647
0.26667	0.48235	0.39608
0.30196	0.50980	0.42353
0.34510	0.54118	0.45882
0.40000	0.58431	0.50196
0.45882	0.62353	0.54902
0.52157	0.67059	0.60392
0.59216	0.72157	0.66275
0.34118	0.53725	0.45490
0.34902	0.54510	0.45882
0.36471	0.55686	0.47451
0.39216	0.57647	0.49412
0.43137	0.60392	0.52941
0.47059	0.63137	0.56078
0.51765	0.67059	0.60000
0.58039	0.70980	0.65098
0.63529	0.75294	0.69804
0.46275	0.62745	0.55294
0.46667	0.62745	0.55686
0.47843	0.63922	0.56471
0.49412	0.65098	0.58039
0.52157	0.67059	0.60392
0.55686	0.69804	0.63529
0.60000	0.72549	0.66667
0.65098	0.76078	0.70980
0.69804	0.79608	0.74902
0.58039	0.70980	0.65098
0.58431	0.71373	0.65490
0.59216	0.72157	0.66275
0.60392	0.72941	0.67059
0.63137	0.74902	0.69412
0.65882	0.76863	0.71373
0.69020	0.78824	0.74118
0.72549	0.81569	0.77255
0.76471	0.84314	0.80784
0.69804	0.79608	0.74902
0.69804	0.79608	0.74902
0.70588	0.80000	0.75294
0.71765	0.80784	0.76471
0.73333	0.81961	0.78039
0.75294	0.83529	0.79608
0.78039	0.85098	0.81569
0.81176	0.87451	0.84314
0.84314	0.89412	0.87059
0.80784	0.87059	0.83922
0.80784	0.87451	0.84314
0.81176	0.87451	0.84706
0.82353	0.88235	0.85490
0.83529	0.89020	0.86275
0.85098	0.89804	0.87451
0.87059	0.91373	0.89412
0.89804	0.93333	0.91765
0.92157	0.94902	0.93725
0.90588	0.93725	0.92157
0.90588	0.93725	0.92549
0.91373	0.94118	0.92941
0.91765	0.94510	0.93333
0.92941	0.95294	0.94118
0.94118	0.96078	0.95294
0.95686	0.97255	0.96471
0.97647	0.98431	0.98039
1.00000	1.00000	1.00000
