LUTGenerator/TEST/CUBE/Duotone/Green/Duotone_Green_Strong_sRGB.cube
TITLE Duotone_Green_Strong_sRGB.cube
LUT_3D_SIZE 5
DOMAIN_MIN 0.0 0.0 0.0
DOMAIN_MAX 1.0 1.0 1.0
0.00000	0.07451	0.02745
0.00000	0.16863	0.09804
0.06275	0.34118	0.25098
0.28235	0.49412	0.40784
0.47059	0.63137	0.56078
0.00000	0.30196	0.21176
0.06275	0.34510	0.25098
0.20392	0.43922	0.34902
0.36078	0.55294	0.47059
0.51765	0.66667	0.60000
0.36471	0.55686	0.47451
0.38431	0.56863	0.49020
0.44314	0.61176	0.53725
0.52941	0.67843	0.61176
0.64706	0.76078	0.70588
0.64314	0.75686	0.70588
0.65490	0.76471	0.71373
0.68627	0.78824	0.74118
0.73725	0.82353	0.78431
0.81176	0.87451	0.84314
0.87843	0.92157	0.90196
0.88627	0.92549	0.90588
0.90196	0.93333	0.91765
0.93333	0.95686	0.94510
0.97255	0.98039	0.97647
0.00000	0.09412	0.04314
0.00000	0.19216	0.11765
0.07843	0.35294	0.26275
0.29020	0.50196	0.41569
0.47843	0.63529	0.56471
0.00784	0.31373	0.22353
0.07843	0.35294	0.26275
0.21176	0.44314	0.35294
0.36471	0.55686	0.47451
0.52157	0.67059	0.60392
0.36863	0.56078	0.47843
0.38824	0.57255	0.49412
0.44706	0.61569	0.54118
0.53333	0.67843	0.61176
0.65098	0.76078	0.70980
0.64706	0.76078	0.70588
0.65882	0.76863	0.71765
0.69020	0.78824	0.74118
0.73725	0.82353	0.78039
0.81176	0.87451	0.84314
0.88235	0.92157	0.90196
0.88627	0.92549	0.90588
0.90196	0.93725	0.92157
0.93333	0.95686	0.94510
0.97647	0.98431	0.98039
0.00000	0.18431	0.10980
0.00000	0.25098	0.16471
0.12549	0.38431	0.29020
0.31373	0.51765	0.43137
0.48627	0.64706	0.57647
0.07451	0.34902	0.25490
0.12941	0.38431	0.29020
0.23922	0.46275	0.37255
0.38431	0.56863	0.49020
0.53333	0.67843	0.61176
0.38824	0.57255	0.49020
0.40784	0.58824	0.50980
0.46275	0.62745	0.55294
0.54902	0.69020	0.62353
0.65882	0.76863	0.71765
0.65882	0.76863	0.71765
0.66667	0.77255	0.72549
0.69804	0.79608	0.74902
0.74510	0.82745	0.78824
0.81961	0.87843	0.85098
0.88627	0.92549	0.90588
0.89020	0.92941	0.90980
0.90588	0.93725	0.92157
0.94118	0.96078	0.95294
0.98039	0.98824	0.98431
0.00000	0.28235	0.19608
0.02353	0.32549	0.23529
0.18824	0.42745	0.33333
0.34902	0.54118	0.45882
0.50980	0.66275	0.59216
0.14902	0.40000	0.30980
0.18824	0.42745	0.33333
0.28627	0.49412	0.40784
0.41961	0.59608	0.51765
0.55686	0.69412	0.63137
0.41961	0.59608	0.51765
0.43529	0.60784	0.52941
0.48627	0.64314	0.57255
0.57255	0.70588	0.64314
0.67843	0.78039	0.73333
0.67451	0.78039	0.72941
0.68235	0.78431	0.73725
0.70980	0.80392	0.76078
0.75686	0.83529	0.80000
0.82745	0.88627	0.85882
0.89412	0.92941	0.91373
0.90196	0.93333	0.91765
0.91765	0.94510	0.92941
0.94902	0.96471	0.95686
0.99216	0.99216	0.99216
0.12549	0.38039	0.29020
0.16078	0.40784	0.31373
0.26667	0.48235	0.39216
0.40392	0.58431	0.50588
0.54510	0.68627	0.62353
0.23529	0.45882	0.37255
0.26667	0.48235	0.39608
0.34510	0.54118	0.45882
0.45882	0.62353	0.54902
0.59216	0.72157	0.66275
0.46275	0.62745	0.55294
0.47843	0.63922	0.56471
0.52157	0.67059	0.60392
0.60000	0.72549	0.66667
0.69804	0.79608	0.74902
0.69804	0.79608	0.74902
0.70588	0.80000	0.75294
0.73333	0.81961	0.78039
0.78039	0.85098	0.81569
0.84314	0.89412	0.87059
0.90588	0.93725	0.92157
0.91373	0.94118	0.92941
0.92941	0.95294	0.94118
0.95686	0.97255	0.96471
1.00000	1.00000	1.00000
