LUTGenerator/TEST/CUBE/Duotone/Green/Duotone_Green_Medium_sRGB.cube
TITLE Duotone_Green_Medium_sRGB.cube
LUT_3D_SIZE 17
DOMAIN_MIN 0.0 0.0 0.0
DOMAIN_MAX 1.0 1.0 1.0
0.00000	0.02745	0.01176
0.00000	0.03529	0.01176
0.00392	0.05098	0.01961
0.01176	0.08235	0.04314
0.04706	0.13333	0.08627
0.09020	0.18039	0.13333
0.13725	0.22745	0.18039
0.19216	0.27843	0.22745
0.24314	0.32549	0.27843
0.28627	0.36471	0.32157
0.33333	0.40392	0.36471
0.37647	0.44314	0.40392
0.42353	0.48235	0.44706
0.46275	0.52157	0.48627
0.50588	0.55686	0.52549
0.54510	0.59216	0.56078
0.58039	0.62353	0.59608
0.00392	0.05490	0.02353
0.00392	0.06667	0.03137
0.01176	0.08627	0.04706
0.03529	0.12157	0.07843
0.07059	0.16078	0.11373
0.11373	0.20392	0.15294
0.16078	0.24706	0.20000
0.20784	0.29412	0.24314
0.25882	0.33725	0.29020
0.29804	0.37255	0.32941
0.34510	0.41569	0.37255
0.38431	0.45098	0.41176
0.43137	0.49020	0.45490
0.47059	0.52549	0.49412
0.50980	0.56078	0.52941
0.54510	0.59608	0.56471
0.58431	0.62745	0.60000
0.03529	0.12157	0.07843
0.04706	0.13333	0.08627
0.05882	0.14902	0.10196
0.08235	0.17647	0.12549
0.11373	0.20392	0.15686
0.15294	0.23922	0.19216
0.19216	0.27843	0.23137
0.23529	0.31765	0.27059
0.27843	0.35686	0.30980
0.32157	0.39216	0.34902
0.36078	0.43137	0.38824
0.40000	0.46667	0.42745
0.44314	0.50196	0.46667
0.48235	0.53725	0.50196
0.52157	0.57255	0.54118
0.55294	0.60000	0.57255
0.59216	0.63529	0.60784
0.10980	0.20392	0.15294
0.11765	0.20784	0.16078
0.12941	0.21961	0.16863
0.14902	0.23922	0.18824
0.17647	0.26275	0.21176
0.20392	0.29020	0.23922
0.23922	0.32157	0.27451
0.27451	0.35294	0.30980
0.31373	0.38824	0.34510
0.34902	0.41961	0.37647
0.38431	0.45098	0.41176
0.42353	0.48627	0.44706
0.45882	0.51765	0.48235
0.49804	0.55294	0.51765
0.53725	0.58431	0.55686
0.56863	0.61176	0.58431
0.60000	0.63922	0.61569
0.19608	0.28235	0.23137
0.20000	0.28627	0.23529
0.20784	0.29412	0.24314
0.21961	0.30588	0.25882
0.24314	0.32549	0.27451
0.26667	0.34510	0.29804
0.29412	0.36863	0.32549
0.32157	0.39608	0.35294
0.35294	0.42353	0.38039
0.38039	0.45098	0.40784
0.41961	0.48235	0.44314
0.45098	0.51373	0.47843
0.48627	0.54118	0.50980
0.52157	0.57255	0.54118
0.55294	0.60000	0.57255
0.58431	0.63137	0.60392
0.61569	0.65490	0.63137
0.27451	0.35294	0.30980
0.27843	0.35686	0.31373
0.28627	0.36471	0.31765
0.29412	0.37255	0.32549
0.31373	0.38824	0.34510
0.32941	0.40000	0.36078
0.34902	0.42353	0.38039
0.37255	0.44314	0.40000
0.40000	0.46667	0.42745
0.42745	0.49020	0.45098
0.45882	0.51765	0.48235
0.48627	0.54118	0.50980
0.51765	0.56863	0.53725
0.54510	0.59608	0.56471
0.57647	0.62353	0.59608
0.60392	0.64706	0.61961
0.63529	0.67059	0.65098
0.34902	0.42353	0.38039
0.35294	0.42353	0.38039
0.35686	0.42745	0.38824
0.36471	0.43529	0.39608
0.37647	0.44314	0.40392
0.39216	0.45490	0.41569
0.41176	0.47451	0.43529
0.43137	0.49020	0.45490
0.45098	0.50980	0.47451
0.47451	0.52941	0.49804
0.49804	0.55294	0.52157
0.52549	0.57647	0.54510
0.55294	0.60000	0.56863
0.58039	0.62353	0.59608
0.60392	0.64314	0.61961
0.63137	0.66667	0.64314
0.65882	0.69412	0.67451
0.42353	0.48627	0.44706
0.42353	0.48627	0.45098
0.42745	0.49020	0.45490
0.43529	0.49804	0.45882
0.44314	0.50588	0.47059
0.45490	0.51373	0.47843
0.47059	0.52549	0.49020
0.48627	0.54118	0.50980
0.50588	0.55686	0.52549
0.52157	0.57255	0.54118
0.54510	0.59216	0.56471
0.56471	0.61176	0.58431
0.59216	0.63137	0.60784
0.61176	0.65098	0.62745
0.63529	0.67059	0.65098
0.65882	0.69412	0.67451
0.68235	0.71373	0.69412
0.49020	0.54510	0.51373
0.49020	0.54510	0.51373
0.49412	0.54902	0.51373
0.49804	0.55294	0.52157
0.50588	0.56078	0.52941
0.51765	0.56863	0.53725
0.52941	0.57647	0.54902
0.54118	0.58824	0.56078
0.55294	0.60000	0.57255
0.56863	0.61569	0.58824
0.59216	0.63529	0.60784
0.60392	0.64706	0.62353
0.62745	0.66667	0.64314
0.64706	0.68235	0.66275
0.66667	0.70196	0.68235
0.69020	0.72157	0.70196
0.70980	0.74118	0.72157
0.54902	0.59608	0.56471
0.54902	0.59608	0.56863
0.55294	0.60000	0.57255
0.55294	0.60000	0.57255
0.56078	0.60784	0.58039
0.56863	0.61569	0.58824
0.58039	0.62353	0.59608
0.59216	0.63529	0.60784
0.60000	0.64314	0.61569
0.61569	0.65490	0.63137
0.62745	0.66667	0.64314
0.64706	0.68235	0.66275
0.66667	0.69804	0.67843
0.67843	0.70980	0.69020
0.69804	0.72941	0.70980
0.72157	0.74902	0.72941
0.73725	0.76078	0.74510
0.60392	0.64706	0.61961
0.60392	0.64706	0.61961
0.60784	0.64706	0.62353
0.61176	0.65098	0.62745
0.61569	0.65490	0.63137
0.62353	0.66275	0.63922
0.62745	0.66667	0.64314
0.63922	0.67843	0.65490
0.65098	0.68627	0.66275
0.66275	0.69804	0.67451
0.67451	0.70588	0.68627
0.68627	0.71765	0.69804
0.70196	0.73333	0.71373
0.72157	0.74902	0.72941
0.73333	0.76078	0.74118
0.74902	0.77255	0.75686
0.76863	0.79216	0.78039
0.65882	0.69412	0.67451
0.65882	0.69412	0.67451
0.66275	0.69804	0.67451
0.66667	0.69804	0.67843
0.66667	0.70196	0.67843
0.67451	0.70588	0.68627
0.67843	0.71373	0.69020
0.68627	0.71765	0.69804
0.69804	0.72549	0.70980
0.70588	0.73333	0.71765
0.71765	0.74510	0.72941
0.72941	0.75294	0.73725
0.73725	0.76471	0.74902
0.75294	0.77647	0.76078
0.76863	0.79216	0.78039
0.78431	0.80392	0.79216
0.80000	0.81961	0.80784
0.70588	0.73725	0.71765
0.70980	0.73725	0.72157
0.70980	0.74118	0.72157
0.71373	0.74118	0.72549
0.71765	0.74510	0.72941
0.72157	0.74902	0.72941
0.72549	0.75294	0.73725
0.73333	0.75686	0.74118
0.73725	0.76471	0.74902
0.74510	0.77255	0.75686
0.75686	0.78039	0.76471
0.76863	0.79216	0.77647
0.78039	0.80000	0.78824
0.78824	0.81176	0.79608
0.80392	0.82353	0.81176
0.81961	0.83922	0.82745
0.83529	0.85098	0.84314
0.75294	0.77647	0.76471
0.75294	0.78039	0.76471
0.75686	0.78039	0.76471
0.75686	0.78039	0.76863
0.76078	0.78431	0.76863
0.76471	0.78824	0.77647
0.77255	0.79216	0.78039
0.77647	0.80000	0.78431
0.78431	0.80392	0.79216
0.78824	0.80784	0.79608
0.79608	0.81569	0.80392
0.80784	0.82745	0.81569
0.81961	0.83922	0.82745
0.83137	0.84706	0.83922
0.84314	0.85882	0.84706
0.85490	0.86667	0.85882
0.86667	0.87843	0.87451
0.80000	0.81961	0.80392
0.80000	0.81961	0.80784
0.80000	0.81961	0.80784
0.80392	0.82353	0.81176
0.80392	0.82353	0.81176
0.81176	0.82745	0.81569
0.81569	0.83137	0.81961
0.81961	0.83922	0.82745
0.82745	0.84314	0.83529
0.83529	0.85098	0.83922
0.83922	0.85490	0.84706
0.84706	0.86275	0.85490
0.85490	0.86667	0.85882
0.86667	0.87843	0.87059
0.87451	0.88627	0.87843
0.89020	0.90196	0.89412
0.90196	0.90980	0.90588
0.84706	0.85882	0.85098
0.84706	0.85882	0.85098
0.84706	0.86275	0.85098
0.84706	0.86275	0.85490
0.85098	0.86275	0.85490
0.85098	0.86667	0.85882
0.85490	0.86667	0.85882
0.85882	0.87059	0.86275
0.86667	0.87843	0.87059
0.87059	0.88235	0.87451
0.87843	0.89020	0.88235
0.89020	0.89804	0.89412
0.89804	0.90588	0.90196
0.90588	0.91373	0.90980
0.91373	0.92157	0.91765
0.92549	0.93333	0.92941
0.94118	0.94510	0.94118
0.89020	0.90196	0.89412
0.89020	0.90196	0.89412
0.89020	0.90196	0.89412
0.89020	0.90196	0.89412
0.89412	0.90196	0.89804
0.89804	0.90588	0.90196
0.90196	0.90980	0.90588
0.90196	0.91373	0.90588
0.90980	0.91765	0.90980
0.91373	0.92157	0.91373
0.92157	0.92941	0.92157
0.92549	0.93333	0.92941
0.93725	0.94118	0.93725
0.94510	0.95294	0.94902
0.95686	0.96078	0.96078
0.96471	0.96863	0.96863
0.97647	0.97647	0.97647
0.00000	0.03137	0.01176
0.00000	0.03529	0.01569
0.00392	0.05490	0.02353
0.01176	0.08627	0.04706
0.04706	0.13333	0.09020
0.09412	0.18431	0.13333
0.14118	0.23137	0.18039
0.19216	0.27843	0.23137
0.24314	0.32549	0.27843
0.28627	0.36471	0.32157
0.33333	0.40784	0.36471
0.37647	0.44314	0.40392
0.42353	0.48627	0.44706
0.46275	0.52157	0.48627
0.50588	0.55686	0.52549
0.54510	0.59216	0.56471
0.58039	0.62353	0.59608
0.00392	0.05882	0.02745
0.00784	0.06667	0.03137
0.01569	0.09020	0.05098
0.03922	0.12549	0.08235
0.07059	0.16078	0.11373
0.11373	0.20392	0.15686
0.16078	0.25098	0.20000
0.20784	0.29412	0.24314
0.25882	0.33725	0.29020
0.29804	0.37647	0.32941
0.34510	0.41569	0.37255
0.38824	0.45490	0.41176
0.43137	0.49020	0.45490
0.47059	0.52549	0.49412
0.50980	0.56471	0.52941
0.54510	0.59608	0.56471
0.58431	0.62745	0.60000
0.03922	0.12549	0.08235
0.04706	0.13725	0.09020
0.06275	0.15294	0.10588
0.08627	0.17647	0.12941
0.11765	0.20784	0.15686
0.15294	0.24314	0.19216
0.19608	0.28235	0.23137
0.23529	0.31765	0.27059
0.27843	0.35686	0.31373
0.32157	0.39216	0.34902
0.36078	0.43137	0.38824
0.40392	0.46667	0.42745
0.44314	0.50196	0.46667
0.48235	0.53725	0.50196
0.52157	0.57255	0.54118
0.55294	0.60000	0.57255
0.59216	0.63529	0.60784
0.11373	0.20392	0.15686
0.12157	0.21176	0.16078
0.13333	0.21961	0.17255
0.14902	0.23922	0.18824
0.17647	0.26667	0.21569
0.20392	0.29020	0.24314
0.23922	0.32157	0.27451
0.27451	0.35294	0.30980
0.31373	0.38824	0.34510
0.34902	0.41961	0.37647
0.38431	0.45098	0.41176
0.42353	0.48627	0.45098
0.46275	0.51765	0.48235
0.49804	0.54902	0.51765
0.53725	0.58431	0.55686
0.56863	0.61176	0.58431
0.60000	0.63922	0.61569
0.19608	0.28235	0.23137
0.20000	0.28627	0.23922
0.20784	0.29412	0.24706
0.22353	0.30588	0.25882
0.24314	0.32549	0.27843
0.26667	0.34902	0.30196
0.29412	0.36863	0.32549
0.32157	0.39608	0.35294
0.35294	0.42353	0.38431
0.38431	0.45098	0.41176
0.41961	0.48235	0.44314
0.45490	0.51373	0.47843
0.49020	0.54118	0.50980
0.52157	0.57255	0.54118
0.55294	0.60000	0.57255
0.58824	0.63137	0.60392
0.61569	0.65490	0.63137
0.27843	0.35686	0.30980
0.28235	0.36078	0.31373
0.28627	0.36471	0.31765
0.29804	0.37255	0.32941
0.31373	0.38824	0.34510
0.32941	0.40392	0.36078
0.35294	0.42353	0.38039
0.37255	0.44314	0.40000
0.40392	0.46667	0.42745
0.42745	0.49020	0.45490
0.45882	0.51765	0.48235
0.48627	0.54118	0.50980
0.51765	0.56863	0.53725
0.54902	0.59608	0.56471
0.58039	0.62353	0.59608
0.60392	0.64706	0.61961
0.63529	0.67059	0.65098
0.35294	0.42353	0.38039
0.35294	0.42353	0.38431
0.36078	0.42745	0.38824
0.36863	0.43529	0.39608
0.37647	0.44706	0.40392
0.39216	0.45882	0.41569
0.41176	0.47451	0.43529
0.43137	0.49020	0.45490
0.45490	0.51373	0.47843
0.47451	0.52941	0.49804
0.49804	0.55294	0.52157
0.52549	0.57647	0.54510
0.55294	0.60000	0.57255
0.58039	0.62353	0.59608
0.60392	0.64314	0.61961
0.63137	0.66667	0.64314
0.65882	0.69412	0.67451
0.42353	0.48627	0.44706
0.42745	0.48627	0.45098
0.43137	0.49020	0.45490
0.43529	0.49804	0.45882
0.44314	0.50588	0.47059
0.45882	0.51373	0.48235
0.47059	0.52549	0.49412
0.48627	0.54118	0.50980
0.50588	0.55686	0.52549
0.52549	0.57255	0.54510
0.54510	0.59216	0.56471
0.56471	0.61176	0.58431
0.59216	0.63529	0.60784
0.61176	0.65098	0.62745
0.63529	0.67451	0.65098
0.65882	0.69412	0.67451
0.68235	0.71373	0.69412
0.49020	0.54510	0.51373
0.49020	0.54510	0.51373
0.49412	0.54902	0.51373
0.50196	0.55294	0.52157
0.50588	0.56078	0.52941
0.51765	0.56863	0.53725
0.52941	0.58039	0.54902
0.54118	0.59216	0.56078
0.55294	0.60000	0.57255
0.57255	0.61569	0.58824
0.59216	0.63529	0.60784
0.60392	0.64706	0.62353
0.62745	0.66667	0.64314
0.64706	0.68627	0.66275
0.66667	0.70196	0.68235
0.69020	0.72157	0.70196
0.71373	0.74118	0.72157
0.54902	0.59608	0.56863
0.54902	0.59608	0.56863
0.55294	0.60000	0.57255
0.55686	0.60392	0.57255
0.56078	0.60784	0.58039
0.56863	0.61569	0.58824
0.58039	0.62353	0.59608
0.59216	0.63529	0.60784
0.60000	0.64314	0.61569
0.61569	0.65490	0.63137
0.62745	0.66667	0.64314
0.64706	0.68235	0.66275
0.66667	0.69804	0.67843
0.67843	0.71373	0.69020
0.69804	0.72941	0.70980
0.72157	0.74902	0.72941
0.73725	0.76078	0.74510
0.60392	0.64706	0.61961
0.60392	0.64706	0.61961
0.60784	0.64706	0.62353
0.61176	0.65098	0.62745
0.61569	0.65882	0.63137
0.62353	0.66275	0.63922
0.62745	0.66667	0.64314
0.63922	0.67843	0.65490
0.65098	0.68627	0.66667
0.66275	0.69804	0.67451
0.67451	0.70588	0.68627
0.68627	0.71765	0.69804
0.70196	0.73333	0.71373
0.71765	0.74902	0.72941
0.73333	0.76078	0.74118
0.74902	0.77255	0.75686
0.76863	0.79216	0.78039
0.65882	0.69412	0.67451
0.66275	0.69412	0.67451
0.66275	0.69804	0.67843
0.66667	0.69804	0.67843
0.66667	0.70196	0.68235
0.67451	0.70588	0.68627
0.67843	0.70980	0.69020
0.68627	0.71765	0.69804
0.69804	0.72941	0.70980
0.70588	0.73333	0.71765
0.71765	0.74510	0.72549
0.72941	0.75294	0.73725
0.73725	0.76471	0.74902
0.75294	0.77647	0.76078
0.76863	0.79216	0.78039
0.78431	0.80392	0.79216
0.80000	0.81961	0.80784
0.70980	0.73725	0.71765
0.70980	0.73725	0.72157
0.70980	0.74118	0.72157
0.71373	0.74118	0.72549
0.71765	0.74510	0.72941
0.72157	0.74902	0.72941
0.72549	0.75294	0.73725
0.72941	0.75686	0.74118
0.73725	0.76471	0.74902
0.74510	0.77255	0.75686
0.75686	0.78039	0.76471
0.76863	0.79216	0.77647
0.78039	0.80000	0.78824
0.79216	0.81176	0.80000
0.80392	0.82353	0.81176
0.82353	0.83922	0.82745
0.83529	0.85098	0.84314
0.75294	0.77647	0.76471
0.75294	0.78039	0.76471
0.75686	0.78039	0.76471
0.75686	0.78039	0.76863
0.76078	0.78431	0.76863
0.76471	0.78824	0.77647
0.77255	0.79608	0.78039
0.77647	0.80000	0.78431
0.78431	0.80392	0.79216
0.78824	0.80784	0.79608
0.79608	0.81569	0.80392
0.80784	0.82745	0.81569
0.81961	0.83922	0.82745
0.83137	0.84706	0.83922
0.84314	0.85882	0.84706
0.85490	0.86667	0.85882
0.86667	0.87843	0.87451
0.80000	0.81961	0.80784
0.80000	0.81961	0.80784
0.80000	0.81961	0.80784
0.80392	0.82353	0.81176
0.80392	0.82353	0.81176
0.81176	0.82745	0.81569
0.81569	0.83137	0.81961
0.81961	0.83922	0.82745
0.82745	0.84314	0.83529
0.83529	0.85098	0.83922
0.83922	0.85490	0.84706
0.84706	0.86275	0.85490
0.85490	0.87059	0.86275
0.86667	0.87843	0.87059
0.87843	0.88627	0.88235
0.89020	0.90196	0.89412
0.90196	0.91373	0.90588
0.84706	0.85882	0.85098
0.84706	0.85882	0.85098
0.84706	0.86275	0.85098
0.84706	0.86275	0.85490
0.85098	0.86275	0.85490
0.85098	0.86667	0.85882
0.85490	0.87059	0.86275
0.85882	0.87059	0.86275
0.86667	0.87843	0.87059
0.87451	0.88627	0.87843
0.87843	0.89020	0.88235
0.89020	0.89804	0.89412
0.89804	0.90588	0.90196
0.90588	0.91373	0.90980
0.91373	0.92157	0.91765
0.92549	0.93333	0.92941
0.94118	0.94510	0.94118
0.89020	0.90196	0.89412
0.89020	0.90196	0.89412
0.89020	0.90196	0.89412
0.89020	0.90196	0.89412
0.89412	0.90196	0.89804
0.89804	0.90588	0.90196
0.90196	0.90980	0.90196
0.90196	0.91373	0.90588
0.90588	0.91765	0.90980
0.91373	0.92157	0.91373
0.92157	0.92941	0.92549
0.92549	0.93333	0.92941
0.93725	0.94118	0.93725
0.94510	0.95294	0.94902
0.95686	0.96078	0.96078
0.96863	0.96863	0.96863
0.97647	0.97647	0.97647
0.00000	0.03137	0.01176
0.00000	0.04314	0.01569
0.00392	0.05882	0.02353
0.01569	0.09412	0.05098
0.05098	0.13725	0.09412
0.09804	0.18824	0.13725
0.14510	0.23529	0.18431
0.19608	0.28235	0.23137
0.24314	0.32549	0.27843
0.29020	0.36863	0.32157
0.33725	0.40784	0.36471
0.38039	0.44706	0.40784
0.42353	0.48627	0.44706
0.46275	0.52157	0.48627
0.50588	0.55686	0.52549
0.54510	0.59216	0.56471
0.58039	0.62353	0.59608
0.00392	0.06275	0.02745
0.00784	0.07451	0.03529
0.01961	0.09804	0.05490
0.04314	0.12941	0.08627
0.07451	0.16863	0.11765
0.11765	0.20784	0.16078
0.16471	0.25490	0.20392
0.21176	0.29804	0.24706
0.25882	0.34118	0.29412
0.29804	0.37647	0.33333
0.34510	0.41569	0.37647
0.38824	0.45490	0.41176
0.43137	0.49412	0.45490
0.47059	0.52941	0.49412
0.50980	0.56471	0.53333
0.54902	0.59608	0.56471
0.58431	0.62745	0.60000
0.04314	0.13333	0.08627
0.05098	0.14118	0.09412
0.06667	0.15686	0.10588
0.09020	0.18039	0.13333
0.12157	0.21176	0.16078
0.15686	0.24314	0.19608
0.19608	0.28235	0.23529
0.23922	0.32157	0.27451
0.28235	0.36078	0.31373
0.32157	0.39608	0.35294
0.36078	0.43137	0.38824
0.40392	0.46667	0.43137
0.44314	0.50196	0.46667
0.48235	0.53725	0.50588
0.52157	0.57255	0.54118
0.55686	0.60000	0.57255
0.59216	0.63529	0.60784
0.11765	0.20784	0.15686
0.12157	0.21176	0.16471
0.13333	0.22353	0.17255
0.15294	0.24314	0.19216
0.18039	0.26667	0.21961
0.20784	0.29412	0.24314
0.24314	0.32549	0.27451
0.27843	0.35686	0.30980
0.31765	0.39216	0.34510
0.34902	0.41961	0.38039
0.38431	0.45098	0.41176
0.42353	0.48627	0.45098
0.46275	0.51765	0.48235
0.49804	0.55294	0.52157
0.53725	0.58431	0.55686
0.56863	0.61176	0.58431
0.60000	0.64314	0.61569
0.20000	0.28235	0.23529
0.20392	0.29020	0.23922
0.21176	0.29804	0.24706
0.22353	0.30980	0.25882
0.24314	0.32549	0.27843
0.27059	0.34902	0.30196
0.29412	0.37255	0.32549
0.32549	0.40000	0.35686
0.35686	0.42745	0.38431
0.38431	0.45098	0.41176
0.41961	0.48235	0.44706
0.45490	0.51373	0.47843
0.48627	0.54118	0.50980
0.52157	0.57255	0.54118
0.55294	0.60000	0.57255
0.58824	0.63137	0.60392
0.61569	0.65490	0.63137
0.27843	0.35686	0.30980
0.28235	0.36078	0.31373
0.29020	0.36863	0.32157
0.29804	0.37647	0.32941
0.31373	0.38824	0.34510
0.32941	0.40392	0.36078
0.35294	0.42353	0.38039
0.37647	0.44314	0.40392
0.40392	0.46667	0.42745
0.42745	0.49020	0.45490
0.45882	0.51765	0.48235
0.49020	0.54510	0.50980
0.51765	0.56863	0.54118
0.54902	0.59608	0.56863
0.58039	0.62353	0.59608
0.60392	0.64706	0.62353
0.63529	0.67451	0.65098
0.35294	0.42353	0.38039
0.35686	0.42745	0.38431
0.36078	0.43137	0.38824
0.36863	0.43529	0.39608
0.38039	0.44706	0.40784
0.39216	0.45882	0.41961
0.41176	0.47451	0.43922
0.43137	0.49412	0.45490
0.45490	0.51373	0.47843
0.47451	0.52941	0.49804
0.50196	0.55294	0.52157
0.52941	0.57647	0.54902
0.55294	0.60000	0.57255
0.58039	0.62353	0.59608
0.60392	0.64706	0.61961
0.63137	0.66667	0.64706
0.65882	0.69412	0.67451
0.42353	0.48627	0.45098
0.42745	0.49020	0.45098
0.43137	0.49412	0.45490
0.43529	0.49804	0.46275
0.44706	0.50588	0.47059
0.45882	0.51765	0.48235
0.47059	0.52549	0.49412
0.48627	0.54118	0.50980
0.50588	0.55686	0.52549
0.52549	0.57647	0.54510
0.54510	0.59216	0.56471
0.56471	0.61176	0.58431
0.59216	0.63529	0.60784
0.61176	0.65098	0.62745
0.63529	0.67451	0.65098
0.66275	0.69412	0.67451
0.68235	0.71373	0.69412
0.49020	0.54510	0.51373
0.49412	0.54902	0.51373
0.49412	0.54902	0.51765
0.50196	0.55294	0.52157
0.50980	0.56078	0.52941
0.51765	0.56863	0.53725
0.52941	0.58039	0.54902
0.54510	0.59216	0.56078
0.55686	0.60000	0.57255
0.57255	0.61569	0.58824
0.59216	0.63529	0.60784
0.60784	0.64706	0.62353
0.62745	0.66667	0.64314
0.65098	0.68627	0.66275
0.66667	0.70196	0.68235
0.69020	0.72157	0.70196
0.71373	0.74118	0.72157
0.54902	0.59608	0.56863
0.54902	0.60000	0.56863
0.55294	0.60000	0.57255
0.55686	0.60392	0.57255
0.56471	0.60784	0.58039
0.56863	0.61569	0.58824
0.58039	0.62353	0.59608
0.59216	0.63529	0.60784
0.60000	0.64314	0.61569
0.61569	0.65490	0.63137
0.62745	0.66667	0.64314
0.64706	0.68235	0.66275
0.66667	0.69804	0.67843
0.67843	0.70980	0.69020
0.69804	0.72941	0.70980
0.72157	0.74902	0.72941
0.73725	0.76078	0.74510
0.60392	0.64706	0.61961
0.60392	0.64706	0.61961
0.60784	0.64706	0.62353
0.61176	0.65098	0.62745
0.61961	0.65882	0.63137
0.62353	0.66275	0.63922
0.63137	0.66667	0.64314
0.63922	0.67843	0.65490
0.65098	0.68627	0.66667
0.66275	0.69804	0.67843
0.67451	0.70588	0.68627
0.68627	0.72157	0.70196
0.70196	0.73333	0.71373
0.72157	0.74902	0.72941
0.73333	0.76078	0.74510
0.74902	0.77255	0.76078
0.77255	0.79216	0.78039
0.65882	0.69412	0.67451
0.66275	0.69804	0.67451
0.66275	0.69804	0.67843
0.66667	0.69804	0.67843
0.66667	0.70196	0.68235
0.67451	0.70588	0.68627
0.67843	0.70980	0.69020
0.68627	0.71765	0.69804
0.69804	0.72941	0.70980
0.70588	0.73333	0.71765
0.71765	0.74510	0.72941
0.72941	0.75686	0.73725
0.74118	0.76471	0.74902
0.75294	0.77647	0.76471
0.77255	0.79216	0.78039
0.78431	0.80392	0.79216
0.80000	0.81961	0.80784
0.70980	0.73725	0.72157
0.70980	0.74118	0.72157
0.71373	0.74118	0.72549
0.71373	0.74118	0.72549
0.71765	0.74510	0.72941
0.72157	0.74902	0.72941
0.72549	0.75294	0.73725
0.73333	0.75686	0.74118
0.73725	0.76471	0.74902
0.74510	0.77255	0.75686
0.75686	0.78039	0.76471
0.76863	0.79216	0.77647
0.78039	0.80000	0.78824
0.79216	0.81176	0.80000
0.80392	0.82353	0.81176
0.82353	0.83922	0.82745
0.83529	0.85098	0.84314
0.75294	0.77647	0.76471
0.75686	0.78039	0.76471
0.75686	0.78039	0.76471
0.75686	0.78039	0.76863
0.76078	0.78431	0.77255
0.76863	0.78824	0.77647
0.77255	0.79608	0.78039
0.77647	0.80000	0.78431
0.78431	0.80392	0.79216
0.78824	0.80784	0.79608
0.79608	0.81569	0.80392
0.80784	0.82745	0.81569
0.81961	0.83922	0.82745
0.83137	0.84706	0.83922
0.84314	0.85882	0.84706
0.85490	0.86667	0.85882
0.86667	0.87843	0.87451
0.80000	0.81961	0.80784
0.80000	0.81961	0.80784
0.80392	0.81961	0.80784
0.80392	0.82353	0.81176
0.80784	0.82353	0.81176
0.81176	0.83137	0.81961
0.81569	0.83137	0.82353
0.81961	0.83922	0.82745
0.82745	0.84314	0.83529
0.83529	0.85098	0.83922
0.83922	0.85490	0.84706
0.84706	0.86275	0.85490
0.85490	0.87059	0.86275
0.86667	0.87843	0.87059
0.87843	0.88627	0.88235
0.89020	0.90196	0.89412
0.90196	0.91373	0.90588
0.84706	0.85882	0.85098
0.84706	0.85882	0.85098
0.84706	0.86275	0.85098
0.84706	0.86275	0.85490
0.85098	0.86275	0.85490
0.85098	0.86667	0.85882
0.85490	0.87059	0.86275
0.85882	0.87451	0.86667
0.86667	0.87843	0.87059
0.87451	0.88235	0.87843
0.87843	0.89020	0.88235
0.89020	0.89804	0.89412
0.89804	0.90588	0.90196
0.90588	0.91373	0.90980
0.91373	0.92157	0.91765
0.92549	0.93333	0.92941
0.94118	0.94510	0.94118
0.89020	0.90196	0.89412
0.89020	0.90196	0.89412
0.89020	0.90196	0.89412
0.89020	0.90196	0.89412
0.89412	0.90196	0.89804
0.89804	0.90588	0.90196
0.90196	0.90980	0.90196
0.90196	0.91373	0.90588
0.90980	0.91765	0.90980
0.91373	0.92157	0.91373
0.92157	0.92941	0.92157
0.92549	0.93333	0.92941
0.93725	0.94118	0.93725
0.94510	0.95294	0.94902
0.95686	0.96078	0.96078
0.96471	0.96863	0.96863
0.97647	0.98039	0.97647
0.00000	0.03922	0.01569
0.00392	0.05098	0.01961
0.00784	0.06667	0.03137
0.01961	0.10196	0.05882
0.05490	0.14510	0.09804
0.10196	0.19216	0.14510
0.14902	0.23922	0.18824
0.20000	0.28627	0.23529
0.24706	0.32941	0.28235
0.29412	0.36863	0.32549
0.34118	0.41176	0.36863
0.38039	0.44706	0.40784
0.42353	0.48627	0.45098
0.46667	0.52157	0.49020
0.50588	0.56078	0.52941
0.54510	0.59216	0.56471
0.58039	0.62353	0.59608
0.00784	0.07059	0.03529
0.01176	0.08235	0.04314
0.02353	0.10588	0.06275
0.04706	0.13725	0.09020
0.08627	0.17647	0.12549
0.12157	0.21176	0.16471
0.16863	0.25490	0.20784
0.21569	0.29804	0.25098
0.26275	0.34118	0.29412
0.30196	0.38039	0.33333
0.34902	0.41961	0.37647
0.38824	0.45490	0.41569
0.43137	0.49412	0.45882
0.47451	0.52941	0.49412
0.51373	0.56471	0.53333
0.54902	0.59608	0.56863
