LUTGenerator/TEST/CUBE/Duotone/Green/Duotone_Green_Medium_sRGB.cube
TITLE Duotone_Green_Medium_sRGB.cube
LUT_3D_SIZE 5
DOMAIN_MIN 0.0 0.0 0.0
DOMAIN_MAX 1.0 1.0 1.0
0.00000	0.02745	0.01176
0.04706	0.13333	0.08627
0.24314	0.32549	0.27843
0.42353	0.48235	0.44706
0.58039	0.62353	0.59608
0.19608	0.28235	0.23137
0.24314	0.32549	0.27451
0.35294	0.42353	0.38039
0.48627	0.54118	0.50980
0.61569	0.65490	0.63137
0.49020	0.54510	0.51373
0.50588	0.56078	0.52941
0.55294	0.60000	0.57255
0.62745	0.66667	0.64314
0.70980	0.74118	0.72157
0.70588	0.73725	0.71765
0.71765	0.74510	0.72941
0.73725	0.76471	0.74902
0.78039	0.80000	0.78824
0.83529	0.85098	0.84314
0.89020	0.90196	0.89412
0.89412	0.90196	0.89804
0.90980	0.91765	0.90980
0.93725	0.94118	0.93725
0.97647	0.97647	0.97647
0.00392	0.05098	0.01961
0.06667	0.15686	0.10980
0.25490	0.33725	0.29020
0.42745	0.49020	0.45490
0.58039	0.62353	0.60000
0.20784	0.29412	0.24314
0.25490	0.33725	0.29020
0.36078	0.43137	0.38824
0.49020	0.54510	0.51373
0.61961	0.65882	0.63529
0.49412	0.54902	0.51373
0.51373	0.56471	0.53333
0.56078	0.60392	0.57647
0.62745	0.66667	0.64314
0.71373	0.74118	0.72549
0.70980	0.74118	0.72157
0.71765	0.74902	0.72941
0.74118	0.76471	0.74902
0.78039	0.80392	0.78824
0.83922	0.85490	0.84314
0.89020	0.90196	0.89412
0.89412	0.90588	0.89804
0.90980	0.91765	0.90980
0.93725	0.94118	0.94118
0.97647	0.98039	0.98039
0.05490	0.14510	0.09804
0.12941	0.21961	0.16863
0.28627	0.36471	0.32157
0.44706	0.50588	0.47059
0.59216	0.63529	0.60784
0.24706	0.32941	0.28235
0.28627	0.36471	0.32157
0.38431	0.45098	0.40784
0.50588	0.56078	0.52941
0.62745	0.66667	0.64314
0.50980	0.56078	0.52941
0.52549	0.57647	0.54510
0.56863	0.61569	0.58824
0.63922	0.67451	0.65490
0.72157	0.74902	0.73333
0.71765	0.74902	0.72941
0.72549	0.75294	0.73725
0.74510	0.77255	0.75686
0.78431	0.80784	0.79216
0.84314	0.85490	0.84706
0.89412	0.90196	0.89804
0.90196	0.90980	0.90196
0.91373	0.92157	0.91373
0.94510	0.94902	0.94510
0.98431	0.98431	0.98431
0.16863	0.25882	0.20784
0.21961	0.30588	0.25490
0.34118	0.41176	0.37255
0.47843	0.53333	0.50196
0.61176	0.65098	0.62353
0.30980	0.38431	0.34118
0.34118	0.41176	0.36863
0.42353	0.48627	0.44706
0.53333	0.58431	0.55294
0.64314	0.68235	0.65882
0.53725	0.58431	0.55686
0.54902	0.59608	0.56863
0.59216	0.63529	0.60784
0.65490	0.69020	0.67059
0.72941	0.75686	0.74118
0.72941	0.75686	0.74118
0.73333	0.76078	0.74510
0.75686	0.78039	0.76863
0.79216	0.81569	0.80000
0.84706	0.86275	0.85490
0.90196	0.90980	0.90588
0.90588	0.91373	0.90980
0.92157	0.92941	0.92549
0.94902	0.95294	0.95294
0.99216	0.99216	0.99216
0.28627	0.36471	0.31765
0.32157	0.39216	0.34902
0.40784	0.47059	0.43137
0.52157	0.57255	0.54118
0.63922	0.67451	0.65098
0.38039	0.44706	0.40784
0.40784	0.47059	0.43137
0.47451	0.52941	0.49804
0.56863	0.61176	0.58431
0.66667	0.70196	0.68235
0.56863	0.61569	0.58824
0.58431	0.62745	0.60000
0.61961	0.65882	0.63529
0.67843	0.70980	0.69020
0.74902	0.77255	0.75686
0.74510	0.77255	0.75686
0.75294	0.77647	0.76078
0.77647	0.80000	0.78431
0.81176	0.83137	0.81961
0.85882	0.87451	0.86667
0.91373	0.92157	0.91373
0.91765	0.92549	0.92157
0.93333	0.93725	0.93333
0.96078	0.96471	0.96471
1.00000	1.00000	1.00000
