LUTGenerator/TEST/CUBE/Duotone/Orange/Duotone_Orange_Strongest_sRGB.cube
TITLE Duotone_Orange_Strongest_sRGB.cube
LUT_3D_SIZE 5
DOMAIN_MIN 0.0 0.0 0.0
DOMAIN_MAX 1.0 1.0 1.0
0.09804	0.01961	0.00000
0.20000	0.08235	0.03922
0.39608	0.25098	0.21176
0.55686	0.42745	0.39608
0.69020	0.58824	0.56471
0.35294	0.21176	0.16863
0.39608	0.25098	0.21176
0.49804	0.36078	0.32549
0.61176	0.49020	0.46667
0.72157	0.62745	0.60784
0.61569	0.49804	0.47059
0.63137	0.51373	0.49020
0.67059	0.56471	0.54118
0.72941	0.63922	0.61961
0.80000	0.72941	0.71373
0.79608	0.72549	0.70980
0.80392	0.73725	0.72157
0.82353	0.76078	0.74510
0.85490	0.80000	0.78824
0.89412	0.85490	0.84706
0.92941	0.90196	0.89804
0.92941	0.90588	0.89804
0.94118	0.92157	0.91765
0.96078	0.94510	0.94118
0.98431	0.97647	0.97647
0.10980	0.02353	0.00392
0.22353	0.10196	0.05882
0.40784	0.26275	0.22353
0.56471	0.43529	0.40784
0.69412	0.59216	0.57255
0.36471	0.22353	0.18039
0.40784	0.26275	0.22353
0.50588	0.36471	0.33333
0.61961	0.49804	0.47451
0.72549	0.63137	0.61176
0.61961	0.50196	0.47843
0.63529	0.52157	0.49412
0.67451	0.56863	0.54510
0.73333	0.63922	0.62353
0.80000	0.72941	0.71765
0.80000	0.72941	0.71373
0.80784	0.73725	0.72549
0.82353	0.76078	0.74902
0.85490	0.80000	0.78824
0.89412	0.85490	0.84706
0.92941	0.90196	0.89804
0.93333	0.90588	0.90196
0.94510	0.92157	0.91765
0.95686	0.94510	0.94118
0.98431	0.98039	0.97647
0.21176	0.09412	0.05098
0.29020	0.15294	0.10980
0.43922	0.29804	0.26275
0.58039	0.45490	0.42353
0.70196	0.60392	0.58431
0.40000	0.25490	0.21961
0.43922	0.29804	0.26275
0.52549	0.38824	0.35686
0.63137	0.51373	0.49020
0.72941	0.63922	0.61961
0.63137	0.51765	0.49020
0.64706	0.53725	0.51373
0.68627	0.58039	0.56078
0.74118	0.65098	0.63529
0.80784	0.74118	0.72549
0.80784	0.73725	0.72549
0.81176	0.74510	0.72941
0.82745	0.76471	0.75294
0.85882	0.80392	0.79608
0.89804	0.85882	0.85098
0.93333	0.90588	0.90196
0.93725	0.91373	0.90980
0.94510	0.92549	0.92157
0.96471	0.94902	0.94510
0.98824	0.98431	0.98039
0.32941	0.18824	0.14902
0.37647	0.23529	0.19216
0.48627	0.34510	0.31373
0.60392	0.48235	0.45490
0.71765	0.62353	0.60392
0.45882	0.31765	0.28235
0.48627	0.34510	0.31373
0.55686	0.42745	0.39608
0.65490	0.54510	0.52157
0.74510	0.65882	0.64314
0.65490	0.54510	0.52157
0.66667	0.55686	0.53333
0.70196	0.60392	0.58039
0.75294	0.66667	0.65098
0.81961	0.75294	0.74118
0.81569	0.74902	0.73725
0.81961	0.75686	0.74118
0.83529	0.77647	0.76471
0.86275	0.81176	0.80392
0.90196	0.86667	0.85882
0.93725	0.91373	0.90980
0.94118	0.92157	0.91765
0.94902	0.93333	0.92941
0.96863	0.95686	0.95294
0.99216	0.98824	0.98824
0.43922	0.29804	0.25882
0.46667	0.32549	0.29020
0.54510	0.41569	0.38431
0.64706	0.53333	0.50980
0.74118	0.65098	0.63137
0.52549	0.38824	0.35686
0.54510	0.41569	0.38431
0.60000	0.47843	0.45098
0.68235	0.58039	0.55686
0.76078	0.68235	0.66275
0.68627	0.58039	0.56078
0.69412	0.59608	0.57255
0.72549	0.63529	0.61569
0.77255	0.69412	0.67843
0.82745	0.76471	0.75294
0.82745	0.76471	0.75294
0.83137	0.76863	0.75686
0.85098	0.79608	0.78431
0.87451	0.83137	0.82353
0.90980	0.87843	0.87059
0.94510	0.92549	0.92157
0.94902	0.92941	0.92549
0.95686	0.94118	0.94118
0.97647	0.96471	0.96471
1.00000	1.00000	1.00000
