LUTGenerator/TEST/CUBE/Duotone/Orange/Duotone_Orange_Subtle_sRGB.cube
TITLE Duotone_Orange_Subtle_sRGB.cube
LUT_3D_SIZE 5
DOMAIN_MIN 0.0 0.0 0.0
DOMAIN_MAX 1.0 1.0 1.0
0.11765	0.08235	0.07843
0.20392	0.16471	0.16078
0.38431	0.33725	0.32941
0.52941	0.48235	0.47451
0.64314	0.60392	0.59608
0.34510	0.30196	0.29412
0.38431	0.33725	0.32941
0.47451	0.42745	0.41961
0.57647	0.53333	0.52549
0.66667	0.63137	0.62353
0.58039	0.53725	0.52941
0.59216	0.55294	0.54510
0.62745	0.58824	0.58039
0.67451	0.63922	0.63529
0.73725	0.70980	0.70196
0.73725	0.70588	0.70196
0.74510	0.71373	0.70980
0.76078	0.73333	0.72941
0.79216	0.76863	0.76471
0.83529	0.81961	0.81569
0.88627	0.87059	0.87059
0.89020	0.87843	0.87843
0.90588	0.89804	0.89412
0.93333	0.92549	0.92549
0.97255	0.96863	0.96863
0.12941	0.09412	0.09020
0.23137	0.18824	0.18431
0.39608	0.34902	0.34118
0.53333	0.49020	0.48235
0.64314	0.60784	0.60000
0.35686	0.30980	0.30196
0.39608	0.34902	0.34118
0.48235	0.43529	0.42745
0.58039	0.53725	0.52941
0.67059	0.63529	0.62745
0.58431	0.54118	0.53333
0.59608	0.55294	0.54510
0.63137	0.58824	0.58431
0.67843	0.64314	0.63529
0.74118	0.70980	0.70588
0.73725	0.70980	0.70196
0.74510	0.71765	0.70980
0.76078	0.73725	0.72941
0.79216	0.76863	0.76471
0.83922	0.81961	0.81569
0.88627	0.87451	0.87451
0.89412	0.88235	0.88235
0.90980	0.89804	0.89804
0.93333	0.92549	0.92549
0.97255	0.97255	0.97255
0.21961	0.18039	0.17255
0.29020	0.24706	0.23922
0.42745	0.38039	0.36863
0.54902	0.50588	0.49804
0.65098	0.61569	0.60784
0.39216	0.34510	0.33333
0.42745	0.38039	0.37255
0.49804	0.45098	0.44314
0.59216	0.55294	0.54118
0.67451	0.63922	0.63137
0.59608	0.55294	0.54510
0.60392	0.56471	0.55686
0.63922	0.60000	0.59216
0.68627	0.65098	0.64314
0.74510	0.71765	0.71373
0.74510	0.71765	0.70980
0.74902	0.72157	0.71765
0.76863	0.74118	0.73725
0.79608	0.77255	0.76863
0.84314	0.82745	0.82353
0.89412	0.88235	0.87843
0.89804	0.88627	0.88627
0.91373	0.90588	0.90196
0.94118	0.93725	0.93333
0.97647	0.97647	0.97647
0.32549	0.27843	0.27059
0.36863	0.32157	0.31373
0.46667	0.41961	0.40784
0.56863	0.52549	0.51765
0.66275	0.62745	0.61961
0.44314	0.39608	0.38431
0.46667	0.41961	0.40784
0.52941	0.48235	0.47451
0.61176	0.56863	0.56078
0.69020	0.65490	0.65098
0.61176	0.57255	0.56471
0.61961	0.58039	0.57255
0.65098	0.61176	0.60784
0.69412	0.66275	0.65490
0.75686	0.72941	0.72157
0.75294	0.72549	0.72157
0.75686	0.72941	0.72549
0.77647	0.74902	0.74510
0.80392	0.78039	0.77647
0.85098	0.83529	0.83137
0.90196	0.89020	0.89020
0.90588	0.89804	0.89412
0.92157	0.90980	0.90980
0.94902	0.94118	0.94118
0.98824	0.98431	0.98431
0.42353	0.37647	0.36863
0.45098	0.40392	0.39608
0.51765	0.47059	0.46275
0.60000	0.56078	0.55294
0.68235	0.65098	0.64314
0.49804	0.45098	0.44314
0.51765	0.47059	0.46275
0.56863	0.52549	0.51765
0.63529	0.60000	0.59216
0.70588	0.67451	0.66667
0.63922	0.60000	0.59216
0.64706	0.60784	0.60000
0.67059	0.63529	0.63137
0.71373	0.68235	0.67451
0.76863	0.74118	0.73725
0.76471	0.74118	0.73725
0.76863	0.74510	0.74118
0.78824	0.76471	0.76078
0.81569	0.79608	0.79216
0.85882	0.84706	0.84314
0.91373	0.90588	0.90196
0.91765	0.90980	0.90588
0.92941	0.92549	0.92157
0.95686	0.95294	0.95294
1.00000	1.00000	1.00000
