LUTGenerator/TEST/CUBE/Duotone/Orange/Duotone_Orange_Medium_sRGB.cube
TITLE Duotone_Orange_Medium_sRGB.cube
LUT_3D_SIZE 5
DOMAIN_MIN 0.0 0.0 0.0
DOMAIN_MAX 1.0 1.0 1.0
0.10980	0.06275	0.05490
0.19608	0.14118	0.12941
0.37255	0.30980	0.29412
0.51765	0.45490	0.44314
0.63529	0.58431	0.57255
0.33725	0.27059	0.25882
0.37647	0.30980	0.29412
0.46275	0.40000	0.38824
0.56863	0.50980	0.49804
0.66275	0.61569	0.60392
0.56863	0.51373	0.50196
0.58431	0.52941	0.51765
0.61961	0.56471	0.55294
0.66667	0.62353	0.61176
0.73333	0.69804	0.69020
0.72941	0.69412	0.68627
0.73725	0.70196	0.69412
0.75294	0.72157	0.71373
0.78824	0.75686	0.75294
0.83137	0.81176	0.80392
0.88235	0.86667	0.86667
0.89020	0.87451	0.87451
0.90588	0.89412	0.89020
0.93333	0.92157	0.92157
0.97255	0.97255	0.96863
0.12549	0.07451	0.06667
0.22353	0.16078	0.15294
0.38824	0.32157	0.30588
0.52549	0.46275	0.45098
0.63529	0.58431	0.57647
0.34510	0.28235	0.26667
0.38824	0.32157	0.30588
0.47059	0.40784	0.39216
0.57255	0.51373	0.50196
0.66275	0.61569	0.60784
0.57255	0.51765	0.50588
0.58824	0.53333	0.52157
0.61961	0.56863	0.55686
0.67059	0.62353	0.61569
0.73333	0.69804	0.69020
0.73333	0.69412	0.69020
0.74118	0.70196	0.69804
0.75686	0.72157	0.71765
0.78824	0.75686	0.75294
0.83529	0.81176	0.80784
0.88627	0.87059	0.86667
0.89020	0.87843	0.87451
0.90588	0.89412	0.89020
0.93333	0.92549	0.92157
0.97255	0.97255	0.97255
0.21176	0.15294	0.14510
0.28235	0.21961	0.20392
0.41569	0.34902	0.33725
0.54118	0.47843	0.46667
0.64314	0.59216	0.58431
0.38039	0.31373	0.30196
0.41569	0.34902	0.33725
0.48627	0.42353	0.41176
0.58431	0.52941	0.51765
0.67059	0.62353	0.61176
0.58431	0.52941	0.51765
0.59608	0.54118	0.52941
0.63137	0.58039	0.56863
0.67843	0.63137	0.62353
0.74118	0.70588	0.69804
0.74118	0.70196	0.69804
0.74510	0.70980	0.70196
0.76078	0.72549	0.72157
0.79216	0.76471	0.75686
0.83922	0.81569	0.81176
0.89020	0.87843	0.87451
0.89804	0.88235	0.87843
0.90980	0.89804	0.89804
0.94118	0.92941	0.92941
0.97647	0.97647	0.97647
0.31373	0.25098	0.23529
0.35686	0.29020	0.27843
0.45490	0.39216	0.37647
0.56078	0.50196	0.49020
0.65490	0.60784	0.60000
0.43137	0.36471	0.35294
0.45490	0.39216	0.37647
0.51765	0.45490	0.44314
0.60000	0.54510	0.53725
0.68235	0.63922	0.63137
0.60392	0.54902	0.53725
0.61176	0.56078	0.54902
0.64314	0.59216	0.58431
0.69020	0.64706	0.63922
0.74902	0.71373	0.70980
0.74902	0.71373	0.70588
0.75294	0.71765	0.71373
0.76863	0.73725	0.73333
0.79608	0.76863	0.76471
0.84706	0.82745	0.82353
0.90196	0.88627	0.88627
0.90588	0.89020	0.89020
0.91765	0.90588	0.90588
0.94510	0.93725	0.93725
0.98824	0.98824	0.98431
0.41569	0.34902	0.33333
0.43922	0.37255	0.36078
0.50588	0.44314	0.43137
0.59216	0.53725	0.52549
0.67843	0.63137	0.62353
0.48627	0.42353	0.41176
0.50588	0.44314	0.43137
0.55686	0.49804	0.48627
0.62745	0.57647	0.56471
0.69804	0.65882	0.65098
0.63137	0.58039	0.56863
0.63922	0.58824	0.57647
0.66275	0.61569	0.60784
0.70588	0.66667	0.65882
0.76078	0.72941	0.72157
0.76078	0.72549	0.72157
0.76471	0.73333	0.72549
0.78431	0.75294	0.74902
0.81176	0.78824	0.78431
0.85490	0.83922	0.83529
0.90980	0.89804	0.89804
0.91373	0.90588	0.90196
0.92941	0.91765	0.91765
0.95686	0.95294	0.94902
1.00000	1.00000	1.00000
