LUTGenerator/TEST/CUBE/Duotone/Orange/Duotone_Orange_Subtle_sRGB.cube
TITLE Duotone_Orange_Subtle_sRGB.cube
LUT_3D_SIZE 17
DOMAIN_MIN 0.0 0.0 0.0
DOMAIN_MAX 1.0 1.0 1.0
0.11765	0.08235	0.07843
0.12157	0.08627	0.08235
0.13333	0.09412	0.09020
0.15686	0.11765	0.11373
0.20392	0.16471	0.16078
0.25490	0.21176	0.20392
0.29804	0.25490	0.24706
0.34510	0.29804	0.29020
0.38431	0.33725	0.32941
0.42745	0.38039	0.37255
0.45882	0.41176	0.40392
0.49412	0.44706	0.43922
0.52941	0.48235	0.47451
0.56078	0.51373	0.50588
0.59216	0.54902	0.54118
0.61961	0.58039	0.57255
0.64314	0.60392	0.59608
0.13725	0.09804	0.09412
0.14510	0.10588	0.10196
0.16471	0.12549	0.12157
0.19608	0.15686	0.14902
0.23529	0.19216	0.18431
0.27451	0.23137	0.22353
0.31765	0.27059	0.26275
0.35686	0.30980	0.30196
0.40000	0.35294	0.34510
0.43529	0.38824	0.38039
0.46667	0.41961	0.41176
0.50196	0.45490	0.44706
0.53725	0.49020	0.48235
0.56471	0.52157	0.51373
0.59608	0.55294	0.54510
0.61961	0.58039	0.57255
0.64706	0.60784	0.60000
0.19608	0.15686	0.15294
0.20784	0.16471	0.16078
0.22353	0.18431	0.17647
0.25098	0.20784	0.20000
0.27843	0.23529	0.22745
0.30980	0.26667	0.25882
0.34510	0.29804	0.29020
0.38039	0.33333	0.32157
0.41961	0.37255	0.36471
0.45098	0.40392	0.39216
0.48235	0.43137	0.42353
0.51373	0.46667	0.45882
0.54510	0.50196	0.49412
0.57255	0.52941	0.52157
0.60000	0.56078	0.55294
0.62745	0.58824	0.58039
0.65098	0.61176	0.60392
0.27059	0.22745	0.21961
0.28235	0.23922	0.23137
0.29020	0.24706	0.23922
0.30980	0.26275	0.25490
0.32941	0.28627	0.27843
0.35294	0.30980	0.29804
0.38431	0.33725	0.32941
0.41569	0.36863	0.36078
0.44314	0.39608	0.38824
0.47059	0.42353	0.41569
0.49804	0.45490	0.44314
0.52941	0.48627	0.47451
0.55686	0.51373	0.50588
0.58431	0.54510	0.53333
0.61176	0.57255	0.56471
0.63529	0.60000	0.59216
0.65882	0.61961	0.61176
0.34510	0.30196	0.29412
0.34902	0.30588	0.29412
0.35686	0.30980	0.30196
0.36863	0.32157	0.31373
0.38431	0.33725	0.32941
0.40784	0.36078	0.34902
0.43137	0.38431	0.37255
0.45098	0.40392	0.39608
0.47451	0.42745	0.41961
0.49804	0.45098	0.44314
0.52549	0.47843	0.47059
0.55294	0.50980	0.50196
0.57647	0.53333	0.52549
0.60000	0.56078	0.55294
0.62353	0.58431	0.57647
0.64706	0.60784	0.60392
0.66667	0.63137	0.62353
0.41961	0.37255	0.36078
0.41961	0.37255	0.36471
0.42353	0.38039	0.36863
0.43137	0.38431	0.37647
0.44314	0.39608	0.38824
0.45882	0.40784	0.40000
0.47451	0.42745	0.41569
0.49020	0.44314	0.43529
0.51373	0.46667	0.45882
0.53333	0.49020	0.48235
0.55686	0.51373	0.50588
0.57647	0.53333	0.52549
0.60000	0.56078	0.55294
0.61961	0.58039	0.57255
0.63922	0.60392	0.59608
0.66275	0.62353	0.61961
0.68235	0.64706	0.63922
0.47451	0.42745	0.41569
0.47451	0.42745	0.41961
0.47843	0.43137	0.42353
0.48627	0.43922	0.43137
0.49412	0.44706	0.43922
0.50588	0.45882	0.45098
0.51765	0.47451	0.46667
0.53725	0.49412	0.48235
0.55294	0.50980	0.50196
0.56863	0.52549	0.51765
0.58824	0.54510	0.53725
0.60392	0.56471	0.55686
0.62353	0.58431	0.57647
0.64314	0.60392	0.59608
0.66275	0.62353	0.61569
0.67843	0.64314	0.63529
0.69804	0.66667	0.65882
0.52941	0.48235	0.47451
0.52941	0.48627	0.47843
0.53725	0.49020	0.48235
0.54118	0.49804	0.48627
0.54902	0.50196	0.49412
0.55686	0.51373	0.50588
0.56471	0.52157	0.51373
0.57647	0.53333	0.52549
0.59216	0.54902	0.54118
0.60392	0.56078	0.55294
0.61961	0.58039	0.57255
0.63529	0.59608	0.58824
0.65098	0.61176	0.60392
0.66275	0.62745	0.61961
0.68235	0.64706	0.63922
0.70196	0.66667	0.66275
0.71765	0.68627	0.67843
0.58039	0.53725	0.52941
0.58039	0.53725	0.52941
0.58431	0.54118	0.53333
0.58824	0.54510	0.53725
0.59216	0.55294	0.54510
0.60000	0.56078	0.55294
0.60784	0.56471	0.55686
0.61569	0.57647	0.56863
0.62745	0.58824	0.58039
0.63922	0.60000	0.59216
0.65098	0.61176	0.60392
0.66275	0.62353	0.61961
0.67451	0.63922	0.63529
0.69412	0.65882	0.65098
0.70588	0.67451	0.66667
0.72157	0.69020	0.68235
0.73725	0.70980	0.70196
0.61961	0.58039	0.57255
0.61961	0.58039	0.57255
0.62353	0.58431	0.57647
0.62745	0.58824	0.58039
0.63137	0.59216	0.58431
0.63922	0.60000	0.59216
0.64314	0.60392	0.59608
0.65098	0.61176	0.60784
0.65882	0.61961	0.61569
0.66667	0.63137	0.62353
0.67843	0.64314	0.63529
0.69020	0.65882	0.65098
0.70196	0.67059	0.66275
0.71373	0.68235	0.67843
0.72941	0.69804	0.69020
0.74510	0.71765	0.71373
0.76078	0.73333	0.72941
0.66275	0.62353	0.61569
0.66275	0.62353	0.61961
0.66275	0.62745	0.61961
0.66667	0.62745	0.61961
0.66667	0.63137	0.62353
0.67451	0.63922	0.63137
0.67843	0.64314	0.63529
0.68627	0.65098	0.64314
0.69412	0.65882	0.65098
0.70196	0.66667	0.66275
0.70980	0.67843	0.67059
0.71765	0.68627	0.68235
0.72941	0.70196	0.69412
0.74510	0.71765	0.70980
0.75686	0.72941	0.72549
0.76863	0.74118	0.73725
0.78431	0.75686	0.75294
0.70196	0.66667	0.65882
0.70196	0.66667	0.66275
0.70196	0.66667	0.66275
0.70196	0.67059	0.66275
0.70588	0.67451	0.66667
0.70980	0.67843	0.67059
0.71373	0.68235	0.67451
0.71765	0.68627	0.68235
0.72549	0.69804	0.69020
0.73333	0.70588	0.69804
0.74510	0.71373	0.70980
0.75294	0.72549	0.71765
0.76078	0.73333	0.72941
0.77255	0.74510	0.74118
0.78431	0.75686	0.75294
0.79608	0.77255	0.76863
0.80784	0.78431	0.78039
0.73725	0.70588	0.70196
0.73725	0.70588	0.70196
0.73725	0.70980	0.70196
0.74118	0.71373	0.70588
0.74510	0.71373	0.70980
0.74510	0.71765	0.71373
0.74902	0.72157	0.71765
0.75686	0.72941	0.72157
0.76078	0.73333	0.72941
0.76471	0.74118	0.73725
0.77255	0.74902	0.74510
0.78039	0.75686	0.75294
0.79216	0.76863	0.76471
0.80000	0.78039	0.77647
0.81176	0.79216	0.78824
0.82353	0.80784	0.80392
0.83529	0.81961	0.81569
0.77255	0.74510	0.74118
0.77255	0.74510	0.74118
0.77255	0.74902	0.74118
0.77647	0.75294	0.74510
0.78039	0.75294	0.74902
0.78039	0.75686	0.75294
0.78431	0.76078	0.75686
0.78824	0.76471	0.76078
0.79216	0.76863	0.76471
0.80000	0.77647	0.77255
0.80392	0.78431	0.78039
0.81176	0.79216	0.78824
0.82353	0.80392	0.80392
0.83529	0.81569	0.81569
0.84314	0.82745	0.82353
0.85098	0.83922	0.83529
0.86667	0.85098	0.84706
0.80784	0.78431	0.78039
0.80784	0.78431	0.78039
0.80784	0.78824	0.78431
0.81176	0.78824	0.78431
0.81176	0.79216	0.78824
0.81569	0.79608	0.79216
0.81961	0.80000	0.79608
0.82353	0.80784	0.80392
0.83137	0.81176	0.80784
0.83529	0.81961	0.81569
0.84314	0.82745	0.82353
0.84706	0.83137	0.83137
0.85490	0.83922	0.83922
0.86275	0.85098	0.84706
0.87451	0.86275	0.85882
0.88627	0.87451	0.87451
0.90196	0.89412	0.89020
0.84706	0.83137	0.82745
0.84706	0.83137	0.82745
0.84706	0.83137	0.82745
0.85098	0.83137	0.83137
0.85098	0.83529	0.83137
0.85098	0.83529	0.83529
0.85490	0.83922	0.83922
0.85882	0.84314	0.84314
0.86275	0.84706	0.84706
0.87059	0.85490	0.85490
0.87843	0.86275	0.86275
0.88627	0.87059	0.87059
0.89804	0.88627	0.88235
0.90588	0.89412	0.89412
0.91373	0.90588	0.90588
0.92549	0.91765	0.91765
0.93725	0.93333	0.92941
0.88627	0.87059	0.87059
0.88627	0.87451	0.87059
0.88627	0.87451	0.87059
0.89020	0.87843	0.87451
0.89020	0.87843	0.87843
0.89412	0.88235	0.88235
0.89804	0.88627	0.88627
0.90196	0.89412	0.89020
0.90588	0.89804	0.89412
0.91373	0.90588	0.90196
0.91765	0.90980	0.90980
0.92549	0.91765	0.91765
0.93333	0.92549	0.92549
0.94510	0.93725	0.93725
0.95294	0.94902	0.94510
0.96471	0.96078	0.95686
0.97255	0.96863	0.96863
0.11765	0.08235	0.07843
0.12157	0.08627	0.08235
0.13333	0.09804	0.09412
0.16078	0.12549	0.12157
0.20784	0.16863	0.16078
0.25490	0.21569	0.20784
0.30196	0.25490	0.24706
0.34510	0.29804	0.29020
0.38824	0.34118	0.32941
0.42745	0.38039	0.37255
0.46275	0.41569	0.40392
0.49412	0.44706	0.43922
0.52941	0.48235	0.47451
0.56078	0.51373	0.50588
0.59216	0.54902	0.54118
0.61961	0.58039	0.57255
0.64314	0.60392	0.59608
0.13725	0.10196	0.09804
0.14510	0.10980	0.10588
0.16471	0.12549	0.12157
0.20000	0.16078	0.15294
0.23529	0.19608	0.18824
0.27843	0.23529	0.22745
0.31765	0.27451	0.26667
0.35686	0.30980	0.30196
0.40000	0.35294	0.34510
0.43529	0.38824	0.38039
0.47059	0.41961	0.41176
0.50196	0.45490	0.44706
0.53725	0.49412	0.48235
0.56471	0.52157	0.51373
0.59608	0.55294	0.54510
0.61961	0.58039	0.57255
0.64706	0.60784	0.60000
0.20000	0.16078	0.15294
0.20784	0.16863	0.16078
0.22745	0.18431	0.18039
0.25098	0.20784	0.20000
0.27843	0.23529	0.22745
0.31373	0.26667	0.25882
0.34510	0.29804	0.29020
0.38039	0.33333	0.32549
0.41961	0.37255	0.36471
0.45098	0.40392	0.39608
0.48235	0.43529	0.42745
0.51373	0.46667	0.45882
0.54510	0.50196	0.49412
0.57255	0.52941	0.52157
0.60000	0.56078	0.55294
0.62745	0.58824	0.58039
0.65098	0.61176	0.60784
0.27451	0.23137	0.22353
0.28235	0.23922	0.23137
0.29412	0.24706	0.23922
0.30980	0.26275	0.25490
0.33333	0.28627	0.27843
0.35686	0.30980	0.30196
0.38431	0.33725	0.32941
0.41569	0.36863	0.36078
0.44706	0.39608	0.38824
0.47059	0.42353	0.41569
0.50196	0.45490	0.44706
0.52941	0.48627	0.47843
0.55686	0.51373	0.50588
0.58824	0.54510	0.53725
0.61176	0.57255	0.56471
0.63529	0.60000	0.59216
0.65882	0.61961	0.61569
0.34902	0.30196	0.29412
0.35294	0.30588	0.29804
0.35686	0.31373	0.30588
0.36863	0.32157	0.31373
0.38824	0.34118	0.32941
0.40784	0.36078	0.35294
0.43137	0.38431	0.37647
0.45098	0.40392	0.39608
0.47451	0.42745	0.41961
0.49804	0.45490	0.44314
0.52549	0.47843	0.47059
0.55686	0.50980	0.50196
0.57647	0.53333	0.52549
0.60000	0.56078	0.55294
0.62353	0.58431	0.57647
0.64706	0.60784	0.60392
0.66667	0.63137	0.62353
0.41961	0.37255	0.36078
0.41961	0.37255	0.36471
0.42745	0.38039	0.36863
0.43529	0.38824	0.37647
0.44314	0.39608	0.38824
0.45882	0.41176	0.40000
0.47451	0.42745	0.41961
0.49020	0.44706	0.43529
0.51373	0.46667	0.45882
0.53333	0.49020	0.48235
0.55686	0.51373	0.50588
0.57647	0.53333	0.52549
0.60000	0.56078	0.55294
0.61961	0.58039	0.57255
0.64314	0.60392	0.59608
0.66275	0.62353	0.61961
0.68235	0.64706	0.63922
0.47451	0.42745	0.41961
0.47843	0.42745	0.41961
0.47843	0.43137	0.42353
0.48627	0.43922	0.43137
0.49412	0.44706	0.43922
0.50588	0.45882	0.45098
0.51765	0.47451	0.46667
0.53725	0.49412	0.48235
0.55294	0.50980	0.50196
0.56863	0.52549	0.51765
0.58824	0.54510	0.53725
0.60392	0.56471	0.55686
0.62353	0.58431	0.57647
0.64314	0.60392	0.59608
0.66275	0.62353	0.61569
0.67843	0.64314	0.63529
0.69804	0.66667	0.65882
0.52941	0.48235	0.47451
0.52941	0.48627	0.47843
0.53725	0.49020	0.48235
0.54118	0.49804	0.49020
0.54902	0.50196	0.49412
0.55686	0.51373	0.50588
0.56471	0.52157	0.51373
0.57647	0.53333	0.52549
0.59216	0.54902	0.54118
0.60392	0.56078	0.55686
0.61961	0.58039	0.57255
0.63529	0.59608	0.58824
0.65098	0.61176	0.60392
0.66667	0.62745	0.61961
0.68235	0.64706	0.63922
0.70196	0.66667	0.66275
0.71765	0.68627	0.67843
0.58039	0.53725	0.52941
0.58039	0.53725	0.52941
0.58431	0.54118	0.53333
0.58824	0.54510	0.53725
0.59216	0.55294	0.54510
0.60000	0.56078	0.55294
0.60784	0.56863	0.56078
0.61961	0.57647	0.57255
0.62745	0.58824	0.58039
0.63922	0.60000	0.59216
0.65098	0.61176	0.60392
0.66275	0.62353	0.61961
0.67451	0.63922	0.63529
0.69412	0.65882	0.65098
0.70588	0.67451	0.66667
0.72157	0.69020	0.68235
0.73725	0.70980	0.70196
0.61961	0.58039	0.57255
0.62353	0.58039	0.57255
0.62353	0.58431	0.57647
0.62745	0.58824	0.58039
0.63137	0.59216	0.58431
0.63922	0.60000	0.59216
0.64314	0.60392	0.59608
0.65098	0.61176	0.60784
0.65882	0.62353	0.61569
0.66667	0.63137	0.62353
0.67843	0.64314	0.63529
0.69020	0.65882	0.65098
0.70196	0.67059	0.66275
0.71373	0.68235	0.67843
0.72941	0.69804	0.69020
0.74510	0.71765	0.71373
0.76078	0.73333	0.72941
0.66275	0.62353	0.61569
0.66275	0.62353	0.61961
0.66275	0.62745	0.61961
0.66667	0.62745	0.62353
0.67059	0.63137	0.62353
0.67451	0.63922	0.63137
0.67843	0.64314	0.63529
0.68627	0.65098	0.64314
0.69412	0.65882	0.65098
0.70196	0.66667	0.66275
0.70980	0.67843	0.67059
0.72157	0.69020	0.68235
0.72941	0.70196	0.69412
0.74510	0.71765	0.70980
0.75686	0.72941	0.72549
0.76863	0.74118	0.73725
0.78039	0.75686	0.75294
0.69804	0.66667	0.65882
0.70196	0.66667	0.66275
0.70196	0.67059	0.66275
0.70196	0.67059	0.66667
0.70588	0.67451	0.66667
0.70980	0.67843	0.67059
0.71373	0.68235	0.67843
0.71765	0.68627	0.68235
0.72941	0.69804	0.69020
0.73333	0.70588	0.69804
0.74510	0.71373	0.70980
0.75294	0.72549	0.71765
0.76078	0.73333	0.72941
0.77255	0.74510	0.74118
0.78431	0.75686	0.75294
0.79608	0.77255	0.76863
0.80784	0.78431	0.78039
0.73725	0.70588	0.70196
0.73725	0.70588	0.70196
0.73725	0.70980	0.70196
0.74118	0.71373	0.70588
0.74510	0.71373	0.70980
0.74510	0.71765	0.71373
0.74902	0.72157	0.71765
0.75686	0.72941	0.72157
0.76078	0.73333	0.72941
0.76471	0.74118	0.73725
0.77255	0.74902	0.74510
0.78039	0.75686	0.75294
0.79216	0.76863	0.76471
0.80000	0.78039	0.77647
0.81176	0.79216	0.78824
0.82353	0.80784	0.80392
0.83529	0.81961	0.81569
0.77255	0.74510	0.74118
0.77255	0.74902	0.74118
0.77255	0.74902	0.74118
0.77647	0.74902	0.74510
0.78039	0.75294	0.74902
0.78039	0.75686	0.75294
0.78431	0.76078	0.75686
0.78824	0.76471	0.76078
0.79216	0.77255	0.76863
0.80000	0.77647	0.77255
0.80392	0.78431	0.78039
0.81569	0.79608	0.79216
0.82353	0.80392	0.80392
0.83529	0.81961	0.81569
0.84314	0.82745	0.82353
0.85490	0.83922	0.83529
0.86667	0.85098	0.84706
0.80784	0.78431	0.78039
0.80784	0.78431	0.78039
0.80784	0.78824	0.78431
0.81176	0.79216	0.78824
0.81176	0.79216	0.78824
0.81569	0.79608	0.79216
0.81961	0.80000	0.79608
0.82353	0.80784	0.80392
0.83137	0.81176	0.80784
0.83529	0.81961	0.81569
0.84314	0.82353	0.82353
0.85098	0.83137	0.83137
0.85490	0.83922	0.83922
0.86275	0.85098	0.84706
0.87451	0.86275	0.85882
0.88627	0.87451	0.87451
0.90196	0.89412	0.89020
0.84706	0.83137	0.82745
0.84706	0.83137	0.82745
0.84706	0.83137	0.82745
0.85098	0.83137	0.83137
0.85098	0.83529	0.83137
0.85098	0.83529	0.83529
0.85490	0.83922	0.83922
0.85882	0.84314	0.84314
0.86275	0.84706	0.84706
0.87059	0.85490	0.85490
0.87843	0.86275	0.86275
0.88627	0.87059	0.87059
0.89804	0.88627	0.88235
0.90588	0.89412	0.89412
0.91373	0.90588	0.90588
0.92549	0.91765	0.91765
0.93725	0.92941	0.92941
0.88627	0.87451	0.87059
0.88627	0.87451	0.87059
0.88627	0.87451	0.87451
0.89020	0.87843	0.87451
0.89020	0.88235	0.87843
0.89804	0.88627	0.88235
0.89804	0.88627	0.88627
0.90196	0.89412	0.89020
0.90588	0.89804	0.89412
0.91373	0.90588	0.90196
0.91765	0.90980	0.90980
0.92549	0.91765	0.91765
0.93333	0.92549	0.92549
0.94510	0.94118	0.93725
0.95294	0.94902	0.94510
0.96471	0.96078	0.95686
0.97255	0.97255	0.97255
0.12157	0.08627	0.08235
0.12549	0.09020	0.08627
0.13725	0.10196	0.09804
0.16863	0.12941	0.12549
0.21176	0.17255	0.16471
0.25882	0.21569	0.20784
0.30588	0.25882	0.25098
0.34510	0.30196	0.29412
0.38824	0.34118	0.33333
0.42745	0.38039	0.37255
0.46275	0.41569	0.40784
0.49804	0.45098	0.44314
0.52941	0.48627	0.47451
0.56078	0.51765	0.50980
0.59216	0.54902	0.54118
0.61961	0.58039	0.57255
0.64314	0.60392	0.59608
0.14118	0.10588	0.10196
0.15294	0.11373	0.10980
0.17255	0.13333	0.12549
0.20392	0.16471	0.15686
0.23922	0.19608	0.19216
0.28235	0.23922	0.23137
0.32157	0.27451	0.26667
0.36078	0.31373	0.30588
0.40000	0.35294	0.34510
0.43529	0.38824	0.38039
0.47059	0.42353	0.41569
0.50196	0.45490	0.44706
0.53725	0.49412	0.48627
0.56471	0.52157	0.51373
0.59608	0.55294	0.54510
0.61961	0.58039	0.57255
0.64706	0.60784	0.60000
0.20392	0.16471	0.15686
0.21176	0.17255	0.16471
0.23137	0.18824	0.18039
0.25490	0.21176	0.20392
0.28235	0.23922	0.23137
0.31373	0.27059	0.26275
0.34902	0.30196	0.29412
0.38431	0.33725	0.32941
0.41961	0.37255	0.36471
0.45098	0.40392	0.39608
0.48235	0.43529	0.42745
0.51373	0.46667	0.45882
0.54902	0.50196	0.49412
0.57255	0.52941	0.52157
0.60000	0.56078	0.55294
0.62745	0.58824	0.58039
0.65098	0.61176	0.60784
0.28235	0.23529	0.22745
0.28627	0.24314	0.23529
0.29412	0.25098	0.24314
0.31373	0.26667	0.25882
0.33725	0.29020	0.28235
0.35686	0.30980	0.30196
0.38431	0.33725	0.32941
0.41961	0.37255	0.36471
0.44706	0.40000	0.39216
0.47059	0.42353	0.41569
0.50196	0.45490	0.44706
0.52941	0.48627	0.47843
0.55686	0.51373	0.50588
0.58824	0.54510	0.53725
0.61176	0.57255	0.56471
0.63922	0.60000	0.59216
0.65882	0.61961	0.61569
0.34902	0.30196	0.29412
0.35294	0.30588	0.29804
0.36078	0.31373	0.30588
0.37255	0.32549	0.31765
0.38824	0.34118	0.33333
0.40784	0.36078	0.35294
0.43137	0.38431	0.37647
0.45490	0.40784	0.39608
0.47843	0.43137	0.41961
0.50196	0.45490	0.44706
0.52549	0.48235	0.47059
0.55686	0.50980	0.50196
0.57647	0.53333	0.52549
0.60392	0.56078	0.55294
0.62353	0.58431	0.58039
0.64706	0.61176	0.60392
0.66667	0.63137	0.62353
0.41961	0.37255	0.36471
0.42353	0.37647	0.36863
0.42745	0.38039	0.37255
0.43529	0.38824	0.38039
0.44706	0.39608	0.38824
0.45882	0.41176	0.40392
0.47451	0.42745	0.41961
0.49412	0.44706	0.43922
0.51373	0.46667	0.45882
0.53725	0.49020	0.48235
0.55686	0.51373	0.50588
0.58039	0.53333	0.52549
0.60000	0.56078	0.55294
0.61961	0.58039	0.57255
0.64314	0.60392	0.59608
0.66275	0.62353	0.61961
0.68235	0.64706	0.63922
0.47451	0.42745	0.41961
0.47843	0.43137	0.41961
0.48235	0.43529	0.42353
0.48627	0.43922	0.43137
0.49412	0.45098	0.43922
0.50588	0.46275	0.45098
0.52157	0.47451	0.46667
0.53725	0.49412	0.48627
0.55686	0.50980	0.50196
0.56863	0.52549	0.51765
0.58824	0.54510	0.53725
0.60784	0.56471	0.55686
0.62353	0.58431	0.57647
0.64314	0.60392	0.59608
0.66275	0.62353	0.61569
0.67843	0.64314	0.63922
0.69804	0.66667	0.65882
0.52941	0.48627	0.47843
0.53333	0.49020	0.47843
0.53725	0.49412	0.48627
0.54118	0.49804	0.49020
0.54902	0.50588	0.49804
0.55686	0.51373	0.50588
0.56471	0.52157	0.51373
0.57647	0.53333	0.52549
0.59216	0.54902	0.54118
0.60392	0.56471	0.55686
0.61961	0.58039	0.57255
0.63529	0.59608	0.58824
0.65098	0.61176	0.60784
0.66667	0.62745	0.62353
0.68235	0.64706	0.64314
0.70196	0.66667	0.66275
0.71765	0.68627	0.67843
0.58039	0.53725	0.52941
0.58039	0.53725	0.52941
0.58431	0.54118	0.53333
0.58824	0.54510	0.53725
0.59608	0.55294	0.54510
0.60000	0.56078	0.55294
0.60784	0.56863	0.56078
0.61961	0.57647	0.57255
0.62745	0.58824	0.58039
0.63922	0.60000	0.59216
0.65098	0.61176	0.60392
0.66275	0.62745	0.61961
0.67451	0.63922	0.63529
0.69412	0.65882	0.65098
0.70588	0.67451	0.66667
0.72157	0.69020	0.68627
0.73725	0.70980	0.70588
0.61961	0.58039	0.57255
0.62353	0.58039	0.57255
0.62353	0.58431	0.57647
0.62745	0.58824	0.58039
0.63137	0.59216	0.58431
0.63922	0.60000	0.59216
0.64314	0.60392	0.60000
0.65098	0.61176	0.60784
0.65882	0.62353	0.61569
0.66667	0.63137	0.62353
0.67843	0.64314	0.63529
0.69412	0.65882	0.65098
0.70196	0.67059	0.66275
0.71373	0.68235	0.67843
0.72941	0.69804	0.69020
0.74510	0.71765	0.70980
0.76078	0.73333	0.72941
0.66275	0.62353	0.61961
0.66275	0.62353	0.61961
0.66275	0.62745	0.61961
0.66667	0.62745	0.62353
0.67059	0.63137	0.62745
0.67451	0.63922	0.63137
0.67843	0.64314	0.63529
0.68627	0.65098	0.64314
0.69412	0.65882	0.65098
0.70196	0.67059	0.66275
0.70980	0.67843	0.67059
0.72157	0.69020	0.68235
0.72941	0.70196	0.69412
0.74510	0.71765	0.71373
0.75686	0.72941	0.72549
0.76863	0.74510	0.73725
0.78431	0.76078	0.75686
0.70196	0.66667	0.66275
0.70196	0.66667	0.66275
0.70196	0.67059	0.66275
0.70196	0.67059	0.66667
0.70588	0.67451	0.66667
0.70980	0.67843	0.67059
0.71373	0.68235	0.67843
0.71765	0.68627	0.68235
0.72941	0.69804	0.69020
0.73333	0.70588	0.69804
0.74510	0.71765	0.70980
0.75294	0.72549	0.72157
0.76078	0.73725	0.72941
0.77255	0.74510	0.74118
0.78431	0.76078	0.75686
0.79608	0.77255	0.76863
0.80784	0.78824	0.78431
0.73725	0.70588	0.70196
0.73725	0.70980	0.70196
0.73725	0.70980	0.70196
0.74118	0.71373	0.70588
0.74510	0.71765	0.70980
0.74510	0.71765	0.70980
0.74902	0.72157	0.71765
0.75686	0.72941	0.72157
0.76078	0.73333	0.72941
0.76471	0.74118	0.73725
0.77255	0.74902	0.74510
0.78039	0.75686	0.75294
0.79216	0.76863	0.76471
0.80000	0.78039	0.77647
0.81176	0.79216	0.78824
0.82745	0.80784	0.80392
0.83529	0.81961	0.81569
0.77255	0.74510	0.74118
0.77255	0.74902	0.74118
0.77255	0.74902	0.74510
0.77647	0.75294	0.74510
0.78039	0.75294	0.74902
0.78039	0.75686	0.75294
0.78431	0.76078	0.75686
0.78824	0.76471	0.76078
0.79216	0.77255	0.76863
0.80000	0.77647	0.77255
0.80392	0.78431	0.78039
0.81569	0.79608	0.79216
0.82353	0.80392	0.80392
0.83529	0.81961	0.81569
0.84314	0.82745	0.82353
0.85490	0.83922	0.83529
0.86667	0.85098	0.84706
0.80784	0.78431	0.78039
0.80784	0.78824	0.78431
0.80784	0.78824	0.78431
0.81176	0.79216	0.78824
0.81176	0.79216	0.78824
0.81569	0.79608	0.79216
0.81961	0.80000	0.79608
0.82353	0.80784	0.80392
0.83137	0.81569	0.81176
0.83529	0.81961	0.81569
0.84314	0.82745	0.82353
0.85098	0.83137	0.83137
0.85490	0.83922	0.83922
0.86275	0.85098	0.84706
0.87451	0.86275	0.85882
0.88627	0.87451	0.87451
0.90196	0.89412	0.89020
0.84706	0.83137	0.82745
0.84706	0.83137	0.82745
0.84706	0.83137	0.83137
0.85098	0.83137	0.83137
0.85098	0.83529	0.83137
0.85490	0.83922	0.83529
0.85490	0.83922	0.83922
0.85882	0.84314	0.84314
0.86275	0.84706	0.84706
0.87059	0.85490	0.85490
0.87843	0.86275	0.86275
0.88627	0.87059	0.87059
0.89804	0.88627	0.88235
0.90588	0.89412	0.89412
0.91765	0.90588	0.90588
0.92549	0.91765	0.91765
0.93725	0.93333	0.92941
0.88627	0.87451	0.87059
0.88627	0.87451	0.87059
0.88627	0.87451	0.87451
0.89020	0.87843	0.87451
0.89020	0.88235	0.87843
0.89804	0.88627	0.88235
0.89804	0.89020	0.88627
0.90196	0.89412	0.89020
0.90980	0.89804	0.89804
0.91373	0.90588	0.90588
0.91765	0.90980	0.90980
0.92549	0.91765	0.91765
0.93333	0.92549	0.92549
0.94510	0.94118	0.93725
0.95294	0.94902	0.94510
0.96471	0.95686	0.95686
0.97255	0.97255	0.96863
0.12549	0.08627	0.08627
0.12941	0.09412	0.09020
0.14510	0.10980	0.10588
0.17647	0.13725	0.12941
0.22353	0.18039	0.17255
0.26275	0.21961	0.21176
0.30980	0.26275	0.25490
0.34902	0.30588	0.29412
0.39216	0.34510	0.33333
0.43137	0.38431	0.37255
0.46275	0.41569	0.40784
0.49804	0.45098	0.44314
0.53333	0.48627	0.47843
0.56078	0.51765	0.50980
0.59216	0.54902	0.54118
0.61961	0.58039	0.57255
0.64314	0.60784	0.60000
0.14902	0.10980	0.10588
0.16078	0.12157	0.11765
0.17647	0.13725	0.13333
0.21176	0.16863	0.16471
0.25098	0.20784	0.20000
0.28627	0.24314	0.23529
0.32549	0.27843	0.27059
0.36078	0.31765	0.30588
0.40392	0.35686	0.34902
0.43922	0.39216	0.38431
0.47059	0.42353	0.41569
0.50196	0.45882	0.45098
0.54118	0.49412	0.48627
0.56863	0.52157	0.51373
0.59608	0.55686	0.54902
0.61961	0.58039	0.57255
