LUTGenerator/TEST/CUBE/Duotone/Orange/Duotone_Orange_Strong_sRGB.cube
TITLE Duotone_Orange_Strong_sRGB.cube
LUT_3D_SIZE 17
DOMAIN_MIN 0.0 0.0 0.0
DOMAIN_MAX 1.0 1.0 1.0
0.10588	0.02745	0.01176
0.11373	0.03529	0.01569
0.12549	0.04706	0.02353
0.15686	0.07059	0.04706
0.20392	0.10980	0.08627
0.25490	0.15686	0.12941
0.30196	0.20000	0.17647
0.34902	0.25098	0.22745
0.39216	0.29412	0.27451
0.43137	0.33725	0.31765
0.46667	0.38039	0.36078
0.50196	0.41961	0.40392
0.54118	0.46667	0.45098
0.57255	0.50196	0.49020
0.60784	0.54510	0.53333
0.63137	0.57647	0.56471
0.65882	0.60784	0.60000
0.12941	0.04706	0.02745
0.14118	0.05882	0.03529
0.16078	0.07451	0.05098
0.19608	0.10196	0.07843
0.23137	0.13725	0.10980
0.27451	0.17647	0.15294
0.32157	0.21961	0.19608
0.36078	0.26275	0.23922
0.40392	0.30980	0.28627
0.43922	0.34902	0.32941
0.47843	0.39216	0.37255
0.50980	0.43137	0.41176
0.54510	0.47451	0.45882
0.57647	0.50980	0.49412
0.61176	0.55294	0.53725
0.63529	0.58039	0.57255
0.66275	0.61176	0.60392
0.19608	0.10588	0.07843
0.20392	0.10980	0.08627
0.22353	0.12549	0.10196
0.24706	0.14902	0.12549
0.27843	0.18039	0.15294
0.31373	0.21176	0.18824
0.34902	0.25098	0.22745
0.38431	0.28627	0.26667
0.42353	0.32941	0.30980
0.45490	0.36471	0.34510
0.49020	0.40784	0.38824
0.52549	0.44706	0.43137
0.55686	0.48627	0.47059
0.58824	0.52157	0.50980
0.61569	0.55686	0.54510
0.63922	0.58824	0.57647
0.66667	0.61961	0.61176
0.27451	0.17255	0.14902
0.28235	0.18431	0.15686
0.29020	0.19216	0.16863
0.30980	0.21176	0.18431
0.33333	0.23529	0.21176
0.35686	0.25882	0.23529
0.38824	0.29020	0.27059
0.41961	0.32941	0.30588
0.45098	0.36078	0.34118
0.48235	0.39608	0.37647
0.50588	0.42745	0.41176
0.54118	0.46667	0.45490
0.57255	0.50196	0.48627
0.60000	0.53725	0.52549
0.62745	0.57255	0.56078
0.65098	0.60000	0.59216
0.67451	0.63137	0.61961
0.34902	0.25098	0.22745
0.35294	0.25490	0.23137
0.36078	0.26275	0.23922
0.37647	0.27843	0.25490
0.39216	0.29412	0.27451
0.41176	0.31765	0.29412
0.43529	0.34118	0.32157
0.45882	0.36863	0.34902
0.48627	0.40000	0.38431
0.50588	0.42745	0.40784
0.53725	0.46275	0.44706
0.56471	0.49804	0.48235
0.59216	0.52549	0.51373
0.61569	0.55686	0.54902
0.63922	0.58824	0.57647
0.66275	0.61569	0.60784
0.68627	0.64314	0.63529
0.41961	0.32941	0.30588
0.42353	0.33333	0.30980
0.42745	0.33725	0.31765
0.43922	0.34510	0.32549
0.44706	0.36078	0.34118
0.46275	0.37647	0.35686
0.48235	0.40000	0.38039
0.49804	0.41961	0.40000
0.52549	0.44706	0.43137
0.54510	0.47059	0.45882
0.56863	0.50196	0.48627
0.59216	0.52549	0.51373
0.61569	0.55686	0.54510
0.63529	0.58431	0.57255
0.65882	0.60784	0.60000
0.67843	0.63529	0.62745
0.69804	0.65882	0.65098
0.48235	0.40000	0.38039
0.48627	0.40000	0.38431
0.49020	0.40784	0.38824
0.49804	0.41176	0.39608
0.50196	0.41961	0.40392
0.51373	0.43529	0.41961
0.53333	0.45490	0.43922
0.54902	0.47451	0.45882
0.56471	0.49412	0.48235
0.58039	0.51373	0.50196
0.60392	0.54118	0.52941
0.61961	0.56471	0.55294
0.63922	0.58824	0.57647
0.65882	0.60784	0.60000
0.67843	0.63529	0.62745
0.69412	0.65490	0.64706
0.71765	0.67843	0.67451
0.54118	0.46667	0.45098
0.54510	0.47059	0.45490
0.54510	0.47451	0.45882
0.55294	0.47843	0.46667
0.56078	0.49020	0.47451
0.56863	0.49804	0.48627
0.57647	0.50980	0.49412
0.59216	0.52549	0.51373
0.60784	0.54510	0.53333
0.61961	0.56078	0.54902
0.63529	0.58039	0.56863
0.65098	0.60000	0.58824
0.66667	0.61961	0.61176
0.68235	0.63922	0.63137
0.69804	0.65882	0.65098
0.71765	0.68235	0.67451
0.72941	0.69804	0.69020
0.59216	0.52941	0.51765
0.59608	0.53333	0.51765
0.60000	0.53725	0.52157
0.60392	0.54118	0.52941
0.60784	0.54902	0.53725
0.61569	0.55686	0.54510
0.62353	0.56471	0.55294
0.63137	0.57647	0.56471
0.63922	0.58824	0.57647
0.65490	0.60392	0.59216
0.66667	0.61961	0.61176
0.67843	0.63529	0.62745
0.69412	0.65098	0.64314
0.70980	0.67059	0.66667
0.72157	0.68627	0.68235
0.73725	0.70588	0.69804
0.75294	0.72157	0.71765
0.63922	0.58431	0.57255
0.63922	0.58431	0.57647
0.63922	0.58824	0.57647
0.64314	0.58824	0.57647
0.64706	0.59608	0.58431
0.65490	0.60392	0.59216
0.65882	0.60784	0.60000
0.66667	0.61961	0.61176
0.67451	0.63137	0.62353
0.68627	0.64314	0.63529
0.69412	0.65490	0.64706
0.70980	0.67059	0.66275
0.72157	0.68627	0.67843
0.72941	0.69804	0.69020
0.74510	0.71373	0.70980
0.76078	0.73333	0.72549
0.77255	0.74510	0.74118
0.67843	0.63529	0.62745
0.67843	0.63529	0.62745
0.67843	0.63529	0.62745
0.68235	0.63922	0.63137
0.68627	0.64314	0.63529
0.69020	0.64706	0.63922
0.69412	0.65490	0.64706
0.70196	0.66275	0.65490
0.70980	0.67451	0.66667
0.71765	0.68235	0.67451
0.72549	0.69020	0.68627
0.73333	0.70196	0.69804
0.74510	0.71373	0.70980
0.76078	0.73333	0.72549
0.76863	0.74510	0.73725
0.78039	0.75686	0.75294
0.79216	0.77255	0.76863
0.71765	0.68235	0.67451
0.71765	0.68235	0.67451
0.71765	0.68235	0.67451
0.72157	0.68627	0.67843
0.72157	0.68627	0.68235
0.72549	0.69020	0.68627
0.72941	0.69412	0.69020
0.73333	0.70196	0.69804
0.74118	0.70980	0.70196
0.74510	0.71765	0.70980
0.75686	0.72941	0.72549
0.76471	0.73725	0.73333
0.77255	0.74902	0.74510
0.78039	0.76078	0.75294
0.79216	0.77255	0.76863
0.80392	0.78431	0.78431
0.81569	0.79608	0.79216
0.74902	0.72157	0.71373
0.74902	0.72157	0.71765
0.75294	0.72157	0.71765
0.75294	0.72549	0.72157
0.75686	0.72941	0.72549
0.76078	0.72941	0.72549
0.76471	0.73725	0.73333
0.76863	0.74118	0.73725
0.77255	0.74902	0.74510
0.77647	0.75294	0.74902
0.78431	0.76078	0.75686
0.79216	0.76863	0.76471
0.80392	0.78039	0.77647
0.80784	0.78824	0.78431
0.81961	0.80000	0.80000
0.83137	0.81569	0.81176
0.84314	0.83137	0.82745
0.78431	0.76078	0.75686
0.78431	0.76078	0.75686
0.78431	0.76078	0.75686
0.78824	0.76471	0.76078
0.78824	0.76863	0.76471
0.79216	0.76863	0.76471
0.79608	0.77255	0.76863
0.80000	0.78039	0.77647
0.80392	0.78431	0.78039
0.80784	0.78824	0.78431
0.81176	0.79216	0.79216
0.82353	0.80392	0.80000
0.82745	0.81176	0.81176
0.83922	0.82745	0.82353
0.85098	0.83922	0.83529
0.86275	0.85098	0.84706
0.87059	0.85882	0.85882
0.81569	0.79608	0.79216
0.81569	0.79608	0.79216
0.81569	0.79608	0.79216
0.81961	0.80000	0.79608
0.81961	0.80392	0.80000
0.82353	0.80392	0.80392
0.82353	0.80784	0.80392
0.83137	0.81176	0.81176
0.83529	0.81961	0.81569
0.84314	0.82745	0.82353
0.85098	0.83529	0.83137
0.85490	0.84314	0.83922
0.86275	0.85098	0.84706
0.87059	0.85882	0.85882
0.88235	0.87059	0.87059
0.89412	0.88235	0.88235
0.90588	0.89804	0.89804
0.85490	0.83922	0.83922
0.85490	0.84314	0.83922
0.85490	0.84314	0.83922
0.85490	0.84314	0.83922
0.85882	0.84706	0.84314
0.85882	0.84706	0.84706
0.86275	0.85098	0.84706
0.86667	0.85490	0.85098
0.87059	0.85882	0.85882
0.87451	0.86275	0.86275
0.88235	0.87451	0.87059
0.89020	0.87843	0.87843
0.89804	0.89020	0.88627
0.90588	0.90196	0.89804
0.91765	0.90980	0.90980
0.92549	0.92157	0.92157
0.94118	0.93333	0.93333
0.89020	0.88235	0.87843
0.89020	0.88235	0.87843
0.89020	0.88235	0.88235
0.89412	0.88627	0.88235
0.89412	0.88627	0.88627
0.89804	0.89020	0.88627
0.90196	0.89412	0.89020
0.90588	0.89804	0.89804
0.90980	0.90196	0.90196
0.91373	0.90588	0.90588
0.92157	0.91373	0.91373
0.92941	0.92157	0.92157
0.93333	0.92941	0.92549
0.94510	0.94118	0.94118
0.95294	0.94902	0.94902
0.96471	0.96078	0.96078
0.97647	0.97255	0.97255
0.10588	0.02745	0.01176
0.11373	0.03529	0.01961
0.12941	0.04706	0.02745
0.16078	0.07451	0.05098
0.20784	0.11373	0.09020
0.25882	0.16078	0.13333
0.30196	0.20392	0.18039
0.34902	0.25098	0.22745
0.39216	0.29804	0.27451
0.43137	0.33725	0.31765
0.46667	0.38039	0.36078
0.50196	0.41961	0.40392
0.54118	0.46667	0.45098
0.57255	0.50196	0.49020
0.60784	0.54510	0.53333
0.63137	0.57647	0.56471
0.65882	0.60784	0.60000
0.13333	0.05098	0.02745
0.14118	0.05882	0.03529
0.16078	0.07451	0.05098
0.20000	0.10588	0.08235
0.23529	0.13725	0.11373
0.27843	0.18039	0.15686
0.32157	0.22353	0.20000
0.36078	0.26275	0.24314
0.40392	0.30980	0.28627
0.43922	0.34902	0.32941
0.47843	0.39216	0.37647
0.50980	0.43137	0.41176
0.54902	0.47451	0.45882
0.57647	0.50980	0.49804
0.61176	0.55294	0.54118
0.63529	0.58431	0.57255
0.66275	0.61176	0.60392
0.20000	0.10588	0.08235
0.20784	0.11373	0.09020
0.22353	0.12941	0.10588
0.24706	0.15294	0.12549
0.28235	0.18039	0.15686
0.31373	0.21569	0.18824
0.34902	0.25098	0.22745
0.38431	0.29020	0.26667
0.42353	0.33333	0.30980
0.45490	0.36471	0.34902
0.49020	0.40784	0.39216
0.52549	0.44706	0.43137
0.55686	0.48627	0.47059
0.58824	0.52157	0.50980
0.61569	0.55686	0.54902
0.63922	0.58824	0.57647
0.66667	0.61961	0.61176
0.27451	0.17647	0.15294
0.28235	0.18431	0.16078
0.29412	0.19216	0.16863
0.30980	0.21176	0.18824
0.33725	0.23529	0.21176
0.35686	0.25882	0.23922
0.38824	0.29020	0.27059
0.41961	0.32941	0.30588
0.45098	0.36078	0.34118
0.48235	0.39608	0.38039
0.50980	0.42745	0.41176
0.54118	0.47059	0.45490
0.56863	0.50196	0.48627
0.60000	0.53725	0.52549
0.62745	0.57255	0.56078
0.65098	0.60000	0.59216
0.67451	0.63137	0.61961
0.35294	0.25490	0.23137
0.35686	0.25490	0.23529
0.36471	0.26667	0.24314
0.37647	0.27843	0.25490
0.39216	0.29804	0.27451
0.41176	0.31765	0.29412
0.43529	0.34510	0.32157
0.45882	0.36863	0.34902
0.48627	0.40392	0.38431
0.50588	0.42745	0.41176
0.53725	0.46275	0.44706
0.56863	0.49804	0.48235
0.59216	0.52941	0.51373
0.61569	0.55686	0.54510
0.63922	0.58824	0.57647
0.66275	0.61569	0.60784
0.68627	0.64314	0.63529
0.42353	0.32941	0.30980
0.42353	0.33333	0.30980
0.43137	0.33725	0.31765
0.43922	0.34510	0.32549
0.45098	0.36078	0.34118
0.46275	0.37647	0.35686
0.48235	0.40000	0.38039
0.49804	0.41961	0.40000
0.52549	0.44706	0.43137
0.54510	0.47451	0.45882
0.56863	0.50196	0.48627
0.59216	0.52549	0.51373
0.61569	0.55686	0.54510
0.63922	0.58431	0.57255
0.65882	0.60784	0.60000
0.67843	0.63529	0.62745
0.69804	0.65882	0.65098
0.48627	0.40000	0.38039
0.48627	0.40392	0.38431
0.49020	0.40784	0.38824
0.49804	0.41569	0.39608
0.50196	0.42353	0.40392
0.51373	0.43529	0.41961
0.53333	0.45490	0.43922
0.54902	0.47451	0.45882
0.56471	0.49804	0.48235
0.58039	0.51373	0.50196
0.60392	0.54118	0.52941
0.61961	0.56471	0.55294
0.63922	0.58824	0.57647
0.65882	0.60784	0.60000
0.67843	0.63529	0.62745
0.69412	0.65490	0.64706
0.71765	0.68235	0.67451
0.54118	0.46667	0.45098
0.54510	0.47059	0.45490
0.54902	0.47451	0.45882
0.55294	0.47843	0.46667
0.56078	0.49020	0.47451
0.56863	0.50196	0.48627
0.57647	0.50980	0.49412
0.59216	0.52549	0.51373
0.60784	0.54510	0.53333
0.61961	0.56078	0.54902
0.63529	0.58039	0.56863
0.65098	0.60000	0.58824
0.66667	0.61961	0.61176
0.68235	0.63922	0.63137
0.69804	0.65882	0.65098
0.71765	0.68235	0.67451
0.72941	0.69804	0.69020
0.59216	0.52941	0.51765
0.59608	0.53333	0.51765
0.60000	0.53725	0.52157
0.60392	0.54118	0.52941
0.60784	0.54902	0.53725
0.61569	0.55686	0.54510
0.62353	0.56471	0.55686
0.63137	0.57647	0.56471
0.63922	0.58824	0.57647
0.65490	0.60392	0.59608
0.66667	0.61961	0.61176
0.67843	0.63529	0.62745
0.69412	0.65490	0.64706
0.70980	0.67059	0.66667
0.72157	0.68627	0.68235
0.73725	0.70588	0.69804
0.75294	0.72157	0.71765
0.63922	0.58431	0.57255
0.63922	0.58431	0.57647
0.63922	0.58824	0.57647
0.64314	0.58824	0.58039
0.64706	0.59608	0.58431
0.65490	0.60392	0.59216
0.65882	0.60784	0.60000
0.66667	0.61961	0.61176
0.67843	0.63137	0.62353
0.68627	0.64314	0.63529
0.69412	0.65490	0.64706
0.70980	0.67059	0.66275
0.72157	0.68627	0.67843
0.72941	0.69804	0.69020
0.74510	0.71373	0.70980
0.76078	0.73333	0.72549
0.77255	0.74510	0.74118
0.67843	0.63529	0.62745
0.67843	0.63529	0.62745
0.67843	0.63529	0.62745
0.68235	0.63922	0.63137
0.68627	0.64706	0.63529
0.69020	0.64706	0.63922
0.69412	0.65490	0.64706
0.70196	0.66275	0.65490
0.70980	0.67451	0.66667
0.71765	0.68235	0.67451
0.72549	0.69020	0.68627
0.73333	0.70196	0.69804
0.74510	0.71373	0.70980
0.75686	0.72941	0.72549
0.76863	0.74510	0.74118
0.78039	0.75686	0.75294
0.79216	0.77255	0.76863
0.71765	0.68235	0.67451
0.71765	0.68235	0.67451
0.71765	0.68235	0.67451
0.72157	0.68627	0.67843
0.72157	0.68627	0.68235
0.72549	0.69020	0.68235
0.72941	0.69412	0.69020
0.73333	0.70196	0.69412
0.74118	0.70980	0.70196
0.74510	0.71765	0.70980
0.75686	0.72941	0.72549
0.76471	0.73725	0.73333
0.77255	0.74902	0.74510
0.78431	0.76078	0.75686
0.79216	0.77255	0.76863
0.80392	0.78431	0.78431
0.81569	0.79608	0.79216
0.74902	0.72157	0.71765
0.74902	0.72157	0.71765
0.75294	0.72157	0.71765
0.75294	0.72549	0.72157
0.75686	0.72941	0.72549
0.76078	0.73333	0.72549
0.76471	0.73725	0.73333
0.76863	0.74118	0.73725
0.77255	0.74902	0.74510
0.77647	0.75294	0.74902
0.78431	0.76078	0.75686
0.79216	0.76863	0.76471
0.80392	0.78039	0.77647
0.80784	0.78824	0.78431
0.81961	0.80000	0.80000
0.83137	0.81569	0.81176
0.84314	0.83137	0.82745
0.78431	0.76078	0.75686
0.78431	0.76078	0.75686
0.78431	0.76078	0.75686
0.78824	0.76471	0.76078
0.78824	0.76863	0.76471
0.79216	0.76863	0.76471
0.79608	0.77255	0.76863
0.80000	0.78039	0.77647
0.80392	0.78431	0.78039
0.80784	0.78824	0.78431
0.81176	0.79608	0.79216
0.82353	0.80392	0.80000
0.82745	0.81176	0.81176
0.83922	0.82353	0.82353
0.85098	0.83922	0.83529
0.86275	0.84706	0.84706
0.87059	0.85882	0.85882
0.81569	0.79608	0.79216
0.81569	0.79608	0.79216
0.81569	0.79608	0.79608
0.81961	0.80000	0.79608
0.81961	0.80392	0.80000
0.82353	0.80784	0.80392
0.82353	0.80784	0.80392
0.83137	0.81569	0.81176
0.83529	0.81961	0.81569
0.84314	0.82745	0.82353
0.85098	0.83529	0.83529
0.85490	0.84314	0.83922
0.86275	0.85098	0.84706
0.87059	0.85882	0.85882
0.88235	0.87059	0.87059
0.89412	0.88235	0.88235
0.90588	0.89804	0.89804
0.85490	0.83922	0.83922
0.85490	0.84314	0.83922
0.85490	0.84314	0.83922
0.85490	0.84314	0.84314
0.85882	0.84706	0.84314
0.85882	0.84706	0.84706
0.86275	0.85098	0.84706
0.86667	0.85490	0.85098
0.87059	0.85882	0.85882
0.87451	0.86667	0.86275
0.88235	0.87451	0.87059
0.89020	0.87843	0.87843
0.89804	0.89020	0.88627
0.90588	0.90196	0.89804
0.91765	0.90980	0.90980
0.92549	0.92157	0.92157
0.93725	0.93333	0.93333
0.89020	0.88235	0.87843
0.89020	0.88235	0.87843
0.89020	0.88235	0.88235
0.89412	0.88627	0.88235
0.89412	0.88627	0.88627
0.89804	0.89020	0.88627
0.90196	0.89412	0.89020
0.90588	0.89804	0.89804
0.90980	0.90196	0.90196
0.91373	0.90588	0.90588
0.92157	0.91373	0.91373
0.92549	0.92157	0.92157
0.93333	0.92941	0.92941
0.94510	0.94118	0.94118
0.95294	0.94902	0.94902
0.96471	0.96078	0.96078
0.97647	0.97255	0.97255
0.10980	0.03137	0.01569
0.11765	0.03922	0.01961
0.13333	0.05098	0.03137
0.16471	0.07843	0.05098
0.21176	0.11765	0.09412
0.25882	0.16078	0.13725
0.30588	0.20784	0.18039
0.34902	0.25098	0.22745
0.39608	0.29804	0.27451
0.43137	0.34118	0.32157
0.47059	0.38431	0.36471
0.50196	0.42353	0.40784
0.54118	0.46667	0.45490
0.57255	0.50588	0.49020
0.60784	0.54510	0.53333
0.63529	0.58039	0.56863
0.65882	0.60784	0.60000
0.13725	0.05490	0.03137
0.14510	0.06275	0.03922
0.16863	0.08235	0.05882
0.20392	0.10980	0.08627
0.23922	0.14118	0.11765
0.28235	0.18431	0.15686
0.32549	0.22353	0.20000
0.36471	0.26667	0.24706
0.40392	0.30980	0.29020
0.43922	0.34902	0.32941
0.47843	0.39608	0.37647
0.50980	0.43137	0.41569
0.54902	0.47451	0.46275
0.58039	0.50980	0.49804
0.61176	0.55294	0.54118
0.63922	0.58431	0.57255
0.66275	0.61569	0.60392
0.20392	0.10980	0.08627
0.21176	0.11765	0.09412
0.22745	0.13333	0.10588
0.25490	0.15686	0.12941
0.28235	0.18431	0.15686
0.31765	0.21961	0.19608
0.35294	0.25490	0.23137
0.38824	0.29020	0.27059
0.42353	0.33333	0.31373
0.45490	0.36863	0.34902
0.49412	0.40784	0.39216
0.52549	0.44706	0.43137
0.55686	0.48627	0.47451
0.58824	0.52157	0.50980
0.61569	0.55686	0.54510
0.64314	0.58824	0.57647
0.66667	0.61961	0.61176
0.28235	0.18039	0.15686
0.28627	0.18824	0.16078
0.29412	0.19608	0.17255
0.31373	0.21569	0.19216
0.33725	0.23922	0.21569
0.36078	0.26275	0.23922
0.39216	0.29412	0.27451
0.42353	0.32941	0.30980
0.45098	0.36078	0.34510
0.48235	0.39608	0.38039
0.50980	0.42745	0.41176
0.54510	0.47059	0.45490
0.57255	0.50196	0.48627
0.60000	0.54118	0.52941
0.62745	0.57255	0.56078
0.65098	0.60000	0.59216
0.67843	0.63137	0.62353
0.35294	0.25490	0.23137
0.35686	0.25882	0.23529
0.36863	0.27059	0.24706
0.37647	0.27843	0.25882
0.39608	0.29804	0.27843
0.41176	0.31765	0.29804
0.43529	0.34510	0.32549
0.45882	0.37255	0.35294
0.48627	0.40392	0.38431
0.50980	0.42745	0.41176
0.54118	0.46275	0.45098
0.56863	0.49804	0.48235
0.59216	0.52941	0.51373
0.61961	0.56078	0.54902
0.63922	0.58824	0.57647
0.66667	0.61569	0.60784
0.68627	0.64314	0.63529
0.42353	0.32941	0.30980
0.42745	0.33333	0.31373
0.43137	0.34118	0.31765
0.43922	0.34902	0.32941
0.45098	0.36078	0.34118
0.46275	0.37647	0.35686
0.48627	0.40000	0.38039
0.50196	0.41961	0.40392
0.52549	0.44706	0.43137
0.54510	0.47451	0.45882
0.56863	0.50196	0.48627
0.59216	0.52941	0.51373
0.61569	0.55686	0.54510
0.63922	0.58431	0.57255
0.65882	0.60784	0.60000
0.67843	0.63529	0.62745
0.69804	0.65882	0.65098
0.48627	0.40000	0.38431
0.48627	0.40392	0.38431
0.49020	0.40784	0.39216
0.49804	0.41569	0.39608
0.50196	0.42353	0.40784
0.51373	0.43529	0.41961
0.53333	0.45882	0.44314
0.54902	0.47451	0.46275
0.56863	0.49804	0.48235
0.58039	0.51373	0.50196
0.60392	0.54118	0.52941
0.62353	0.56471	0.55294
0.63922	0.58824	0.57647
0.65882	0.60784	0.60000
0.67843	0.63529	0.62745
0.69412	0.65490	0.64706
0.71765	0.68235	0.67451
0.54118	0.47059	0.45490
0.54510	0.47059	0.45490
0.54902	0.47451	0.45882
0.55294	0.48235	0.46667
0.56078	0.49020	0.47451
0.56863	0.50196	0.48627
0.57647	0.50980	0.49804
0.59216	0.52549	0.51373
0.60784	0.54510	0.53333
0.61961	0.56078	0.54902
0.63529	0.58039	0.56863
0.65098	0.60000	0.58824
0.66667	0.61961	0.61176
0.68235	0.63922	0.63137
0.69804	0.65882	0.65098
0.71765	0.68235	0.67451
0.73333	0.69804	0.69412
0.59608	0.53333	0.51765
0.59608	0.53333	0.52157
0.60000	0.53725	0.52549
0.60392	0.54118	0.52941
0.60784	0.54902	0.53725
0.61569	0.55686	0.54510
0.62353	0.56863	0.55686
0.63137	0.57647	0.56471
0.64314	0.58824	0.58039
0.65490	0.60392	0.59608
0.66667	0.61961	0.61176
0.67843	0.63529	0.62745
0.69412	0.65490	0.64706
0.70980	0.67451	0.66667
0.72157	0.68627	0.68235
0.73725	0.70588	0.69804
0.75294	0.72549	0.71765
0.63922	0.58431	0.57647
0.63922	0.58824	0.57647
0.63922	0.58824	0.57647
0.64314	0.58824	0.58039
0.64706	0.59608	0.58824
0.65490	0.60392	0.59216
0.65882	0.60784	0.60000
0.66667	0.61961	0.61176
0.67843	0.63137	0.62353
0.68627	0.64314	0.63529
0.69412	0.65490	0.64706
0.70980	0.67059	0.66667
0.72157	0.68627	0.67843
0.72941	0.69804	0.69020
0.74510	0.71373	0.70980
0.76078	0.72941	0.72549
0.77255	0.74902	0.74510
0.67843	0.63529	0.62745
0.67843	0.63529	0.62745
0.67843	0.63529	0.62745
0.68235	0.63922	0.63137
0.68627	0.64314	0.63529
0.69020	0.64706	0.63922
0.69412	0.65490	0.64706
0.70196	0.66667	0.65882
0.70980	0.67451	0.66667
0.71765	0.68235	0.67451
0.72549	0.69020	0.68627
0.73725	0.70196	0.69804
0.74510	0.71373	0.70980
0.76078	0.73333	0.72549
0.76863	0.74510	0.74118
0.78039	0.75686	0.75294
0.79216	0.77255	0.76863
0.71765	0.68235	0.67451
0.71765	0.68235	0.67451
0.72157	0.68235	0.67843
0.72157	0.68627	0.67843
0.72157	0.68627	0.68235
0.72549	0.69020	0.68627
0.72941	0.69412	0.69020
0.73333	0.70196	0.69412
0.74118	0.70980	0.70196
0.74510	0.71765	0.70980
0.75686	0.72941	0.72549
0.76471	0.74118	0.73333
0.77255	0.74902	0.74510
0.78431	0.76078	0.75686
0.79216	0.77255	0.76863
0.80784	0.78824	0.78431
0.81569	0.79608	0.79216
0.74902	0.72157	0.71765
0.75294	0.72157	0.71765
0.75294	0.72157	0.71765
0.75294	0.72549	0.72157
0.75686	0.72941	0.72549
0.76078	0.73333	0.72549
0.76471	0.73725	0.73333
0.76863	0.74118	0.73725
0.77255	0.74902	0.74510
0.77647	0.75294	0.74902
0.78431	0.76078	0.75686
0.79216	0.77255	0.76863
0.80392	0.78039	0.77647
0.80784	0.78824	0.78824
0.81961	0.80392	0.80000
0.83137	0.81569	0.81176
0.84314	0.83137	0.82745
0.78431	0.76078	0.75686
0.78431	0.76078	0.75686
0.78431	0.76078	0.75686
0.78824	0.76471	0.76078
0.79216	0.76863	0.76471
0.79216	0.76863	0.76471
0.79608	0.77647	0.77255
0.80000	0.78039	0.77647
0.80392	0.78431	0.78039
0.80784	0.78824	0.78431
0.81176	0.79608	0.79216
0.82353	0.80392	0.80000
0.83137	0.81176	0.81176
0.83922	0.82745	0.82353
0.85098	0.83922	0.83529
0.86275	0.85098	0.84706
0.87059	0.86275	0.85882
0.81569	0.79608	0.79216
0.81569	0.79608	0.79216
0.81569	0.79608	0.79608
0.81961	0.80000	0.79608
0.81961	0.80392	0.80000
0.82353	0.80784	0.80392
0.82353	0.80784	0.80392
0.83137	0.81569	0.81176
0.83529	0.81961	0.81961
0.84314	0.82745	0.82353
0.85098	0.83529	0.83529
0.85490	0.84314	0.84314
0.86275	0.85098	0.84706
0.87059	0.85882	0.85882
0.88235	0.87059	0.87059
0.89412	0.88235	0.88235
0.90588	0.89804	0.89804
0.85490	0.84314	0.83922
0.85490	0.84314	0.83922
0.85490	0.84314	0.83922
0.85490	0.84314	0.84314
0.85882	0.84706	0.84314
0.86275	0.84706	0.84706
0.86275	0.85098	0.85098
0.86667	0.85490	0.85098
0.87059	0.85882	0.85882
0.87451	0.86667	0.86275
0.88235	0.87451	0.87059
0.89020	0.87843	0.87843
0.89804	0.89020	0.89020
0.90980	0.90196	0.89804
0.91765	0.90980	0.90980
0.92941	0.92157	0.92157
0.94118	0.93333	0.93333
0.89020	0.88235	0.87843
0.89020	0.88235	0.87843
0.89412	0.88235	0.88235
0.89412	0.88627	0.88235
0.89412	0.88627	0.88627
0.89804	0.89020	0.89020
0.90196	0.89412	0.89412
0.90588	0.89804	0.89804
0.90980	0.90196	0.90196
0.91373	0.90588	0.90588
0.92157	0.91373	0.91373
0.92941	0.92157	0.92157
0.93333	0.92941	0.92941
0.94510	0.94118	0.94118
0.95294	0.94902	0.94902
0.96471	0.96078	0.96078
0.97647	0.97255	0.97255
0.11373	0.03529	0.01961
0.12549	0.04314	0.02353
0.14118	0.05882	0.03529
0.17255	0.08627	0.06275
0.21961	0.12549	0.09804
0.26275	0.16471	0.14118
0.30980	0.21176	0.18431
0.35294	0.25490	0.23137
0.39608	0.30196	0.27843
0.43529	0.34118	0.32157
0.47451	0.38824	0.36863
0.50588	0.42353	0.40784
0.54510	0.47059	0.45490
0.57255	0.50588	0.49412
0.60784	0.54902	0.53725
0.63529	0.58039	0.56863
0.65882	0.61176	0.60000
0.14510	0.06275	0.03922
0.15686	0.07059	0.04706
0.17647	0.08627	0.06275
0.21176	0.11765	0.09020
0.24706	0.14902	0.12549
0.28627	0.18824	0.16078
0.32941	0.22745	0.20392
0.36863	0.27059	0.24706
0.40784	0.31373	0.29020
0.44314	0.35294	0.33333
0.48235	0.39608	0.38039
0.50980	0.43137	0.41569
0.54902	0.47843	0.46275
0.58039	0.51373	0.49804
0.61176	0.55294	0.54118
0.63922	0.58431	0.57255
