LUTGenerator/TEST/CUBE/Duotone/Orange/Duotone_Orange_Strongest_sRGB.cube
TITLE Duotone_Orange_Strongest_sRGB.cube
LUT_3D_SIZE 17
DOMAIN_MIN 0.0 0.0 0.0
DOMAIN_MAX 1.0 1.0 1.0
0.09804	0.01961	0.00000
0.10196	0.01961	0.00392
0.11373	0.02745	0.00392
0.14118	0.04314	0.01176
0.20000	0.08235	0.03922
0.25098	0.12157	0.07843
0.29804	0.16078	0.12157
0.34902	0.20784	0.16863
0.39608	0.25098	0.21176
0.43922	0.29804	0.26275
0.47843	0.34118	0.30588
0.52157	0.38431	0.35294
0.55686	0.42745	0.39608
0.59216	0.47059	0.43922
0.62745	0.51373	0.48627
0.66275	0.55294	0.52941
0.69020	0.58824	0.56471
0.11765	0.02745	0.00392
0.12549	0.03137	0.00784
0.14902	0.04706	0.01569
0.18824	0.07451	0.03137
0.22745	0.10588	0.06275
0.27451	0.14118	0.09804
0.32157	0.18039	0.13725
0.36471	0.22353	0.18039
0.40784	0.26667	0.22745
0.44706	0.30588	0.27059
0.48627	0.34902	0.31373
0.52549	0.39216	0.36078
0.56471	0.43922	0.40784
0.59608	0.47451	0.44706
0.63137	0.51765	0.49412
0.66275	0.55686	0.53333
0.69412	0.59216	0.57255
0.18824	0.07451	0.03137
0.20000	0.08235	0.03922
0.21569	0.09412	0.05098
0.24314	0.11765	0.07451
0.27451	0.14118	0.09804
0.31373	0.17255	0.12941
0.35294	0.20784	0.16863
0.38824	0.24706	0.20392
0.43137	0.28627	0.25098
0.46667	0.32549	0.29020
0.50196	0.36471	0.33333
0.54118	0.40784	0.37647
0.57647	0.45098	0.41961
0.60784	0.48627	0.45882
0.64314	0.52941	0.50588
0.67059	0.56471	0.54118
0.70196	0.60000	0.58039
0.27059	0.13725	0.09412
0.27843	0.14510	0.10196
0.29020	0.15294	0.10980
0.30980	0.17255	0.12941
0.33333	0.19216	0.15294
0.36078	0.21961	0.18039
0.39216	0.25098	0.21176
0.42745	0.28627	0.24706
0.46275	0.32157	0.28235
0.49412	0.35294	0.32157
0.52549	0.39216	0.35686
0.55686	0.42745	0.40000
0.58824	0.46667	0.43922
0.62353	0.50588	0.47843
0.65490	0.54510	0.52157
0.68235	0.58039	0.55686
0.70980	0.61176	0.58824
0.35294	0.21176	0.16863
0.35686	0.21569	0.17255
0.36471	0.22353	0.18039
0.37647	0.23529	0.19608
0.39608	0.25098	0.21176
0.41961	0.27451	0.23529
0.44314	0.30196	0.26667
0.46667	0.32941	0.29020
0.49804	0.36078	0.32549
0.52549	0.38824	0.35686
0.55294	0.42353	0.39216
0.58431	0.45882	0.43137
0.61176	0.49020	0.46667
0.64314	0.53333	0.50588
0.67059	0.56471	0.54118
0.69804	0.59608	0.57647
0.72157	0.62745	0.60784
0.42745	0.28627	0.24706
0.43137	0.29020	0.25098
0.43922	0.29804	0.25882
0.44706	0.30588	0.27059
0.45882	0.31765	0.28235
0.47451	0.33333	0.29804
0.49804	0.35686	0.32157
0.51765	0.38039	0.34902
0.54118	0.40784	0.37647
0.56471	0.43529	0.40392
0.58824	0.46275	0.43529
0.61176	0.49412	0.46667
0.64314	0.52941	0.50196
0.66275	0.55686	0.53333
0.69020	0.58824	0.56471
0.71373	0.61569	0.59608
0.73725	0.64706	0.62745
0.49804	0.35686	0.32157
0.49804	0.36078	0.32549
0.50196	0.36471	0.32941
0.50980	0.37255	0.33725
0.52157	0.38431	0.35294
0.52941	0.39608	0.36471
0.54902	0.41569	0.38431
0.56471	0.43922	0.40784
0.58431	0.45882	0.43137
0.60000	0.47843	0.45098
0.62353	0.50980	0.48235
0.65098	0.53725	0.51373
0.66667	0.56078	0.53725
0.69020	0.58824	0.56863
0.71373	0.61569	0.59608
0.73333	0.64314	0.62353
0.75686	0.67059	0.65490
0.55686	0.42745	0.39608
0.56078	0.43137	0.40000
0.56471	0.43922	0.40784
0.57255	0.44314	0.41569
0.57647	0.45098	0.42353
0.58824	0.46275	0.43529
0.59608	0.47451	0.44706
0.61176	0.49020	0.46275
0.62745	0.51373	0.48627
0.64706	0.53333	0.50980
0.66275	0.55686	0.53333
0.68235	0.57647	0.55294
0.70196	0.60000	0.58039
0.71765	0.62353	0.60392
0.73725	0.64706	0.62745
0.75686	0.67451	0.65490
0.77255	0.69412	0.67843
0.61569	0.49804	0.47059
0.61961	0.49804	0.47451
0.61961	0.50196	0.47843
0.62353	0.50980	0.48235
0.63137	0.51373	0.49020
0.64314	0.52941	0.50196
0.65098	0.53725	0.51373
0.66275	0.55294	0.52941
0.67059	0.56471	0.54118
0.68627	0.58039	0.56078
0.70196	0.60000	0.58039
0.71373	0.61961	0.59608
0.72941	0.63922	0.61961
0.74902	0.66275	0.64314
0.76078	0.67843	0.66275
0.78039	0.70196	0.68627
0.80000	0.72941	0.71373
0.66667	0.55686	0.53333
0.66667	0.55686	0.53333
0.67059	0.56078	0.53725
0.67059	0.56471	0.54118
0.67843	0.57255	0.54902
0.68235	0.58039	0.55686
0.69020	0.58824	0.56863
0.70196	0.60000	0.58039
0.70980	0.61176	0.59216
0.72157	0.62745	0.60784
0.73333	0.63922	0.62353
0.74902	0.66275	0.64314
0.76078	0.67843	0.66275
0.77255	0.69412	0.67843
0.78824	0.71373	0.69804
0.80784	0.74118	0.72549
0.82353	0.75686	0.74510
0.71373	0.61569	0.59608
0.71373	0.61569	0.59608
0.71373	0.61961	0.60000
0.71765	0.62353	0.60392
0.72157	0.63137	0.61176
0.72941	0.63529	0.61961
0.73333	0.64314	0.62353
0.74118	0.65098	0.63529
0.74902	0.66275	0.64706
0.75686	0.67451	0.65882
0.76863	0.68627	0.67059
0.77647	0.70196	0.68627
0.78824	0.71765	0.70196
0.80784	0.73725	0.72549
0.81961	0.75294	0.74118
0.82745	0.76471	0.75294
0.84314	0.78824	0.77647
0.75686	0.67451	0.65490
0.75686	0.67451	0.65882
0.76078	0.67451	0.65882
0.76078	0.67843	0.66275
0.76078	0.67843	0.66275
0.76863	0.68627	0.67059
0.77255	0.69412	0.67843
0.77647	0.70196	0.68627
0.78824	0.71373	0.69804
0.79216	0.72157	0.70588
0.80392	0.73725	0.72157
0.81176	0.74902	0.73333
0.82353	0.76078	0.74510
0.83137	0.77255	0.76078
0.84314	0.78824	0.77647
0.85490	0.80392	0.79216
0.86667	0.81961	0.81176
0.79608	0.72549	0.70980
0.79608	0.72549	0.71373
0.80000	0.72941	0.71373
0.80000	0.73333	0.71765
0.80392	0.73725	0.72157
0.80784	0.73725	0.72549
0.81176	0.74510	0.73333
0.81961	0.75294	0.74118
0.82353	0.76078	0.74510
0.82745	0.76471	0.75294
0.83529	0.77647	0.76471
0.84314	0.78431	0.77255
0.85490	0.80000	0.78824
0.86275	0.81176	0.80000
0.87059	0.82353	0.81176
0.88235	0.83529	0.82745
0.89412	0.85490	0.84706
0.83137	0.77255	0.76078
0.83137	0.77255	0.76078
0.83529	0.77647	0.76471
0.83529	0.77647	0.76471
0.83922	0.78039	0.76863
0.84314	0.78431	0.77255
0.84314	0.78824	0.77647
0.85098	0.79608	0.78431
0.85490	0.80000	0.78824
0.85882	0.80784	0.79608
0.86275	0.81569	0.80784
0.87059	0.82353	0.81569
0.87843	0.83529	0.82745
0.89020	0.84706	0.83922
0.89804	0.85882	0.85490
0.90588	0.87059	0.86275
0.91373	0.88235	0.87843
0.86667	0.81961	0.80784
0.86667	0.81961	0.81176
0.87059	0.82353	0.81176
0.87059	0.82353	0.81176
0.87059	0.82353	0.81569
0.87451	0.82745	0.81961
0.87843	0.83137	0.82353
0.87843	0.83529	0.82745
0.88627	0.84314	0.83529
0.89020	0.85098	0.84314
0.89412	0.85882	0.85098
0.90196	0.86667	0.85882
0.90588	0.87451	0.86667
0.91373	0.88235	0.87451
0.92157	0.89412	0.88627
0.92941	0.90196	0.89804
0.93725	0.91373	0.90980
0.89804	0.86275	0.85490
0.89804	0.86275	0.85490
0.90196	0.86275	0.85882
0.90196	0.86667	0.85882
0.90196	0.86667	0.86275
0.90588	0.87059	0.86275
0.90588	0.87059	0.86667
0.90980	0.87451	0.87059
0.91373	0.88235	0.87451
0.91373	0.88627	0.87843
0.92157	0.89412	0.88627
0.92941	0.90196	0.89412
0.93333	0.90980	0.90588
0.94118	0.91765	0.91373
0.94510	0.92941	0.92549
0.95294	0.93725	0.93333
0.96078	0.94510	0.94510
0.92941	0.90196	0.89804
0.92941	0.90196	0.89804
0.92941	0.90196	0.89804
0.92941	0.90196	0.89804
0.92941	0.90588	0.89804
0.93333	0.90980	0.90588
0.93725	0.91373	0.90980
0.93725	0.91373	0.90980
0.94118	0.92157	0.91765
0.94510	0.92549	0.92157
0.94902	0.92941	0.92549
0.95294	0.93725	0.93333
0.96078	0.94510	0.94118
0.96863	0.95686	0.95294
0.97255	0.96078	0.96078
0.97647	0.96863	0.96863
0.98431	0.97647	0.97647
0.09804	0.01961	0.00000
0.10196	0.01961	0.00392
0.11765	0.02745	0.00392
0.14902	0.04706	0.01176
0.20000	0.08235	0.03922
0.25490	0.12549	0.08235
0.30196	0.16471	0.12157
0.34902	0.20784	0.16863
0.39608	0.25098	0.21176
0.43922	0.29804	0.26275
0.48235	0.34118	0.30588
0.52157	0.38431	0.35294
0.55686	0.42745	0.39608
0.59216	0.47059	0.43922
0.62745	0.51373	0.48627
0.66275	0.55686	0.53333
0.69020	0.58824	0.56863
0.11765	0.02745	0.00784
0.12941	0.03529	0.00784
0.15294	0.05098	0.01569
0.19216	0.07843	0.03529
0.23137	0.10588	0.06275
0.27451	0.14510	0.10196
0.32157	0.18431	0.14118
0.36471	0.22353	0.18431
0.40784	0.26667	0.22745
0.45098	0.30980	0.27059
0.49020	0.34902	0.31765
0.52941	0.39216	0.36078
0.56471	0.43922	0.40784
0.60000	0.47451	0.44706
0.63137	0.51765	0.49412
0.66275	0.55686	0.53333
0.69412	0.59216	0.57255
0.19216	0.07843	0.03529
0.20392	0.08627	0.04314
0.21961	0.09804	0.05490
0.24706	0.11765	0.07451
0.27843	0.14510	0.10196
0.31373	0.17647	0.13333
0.35294	0.21176	0.16863
0.39216	0.24706	0.20784
0.43137	0.29020	0.25098
0.46667	0.32549	0.29020
0.50588	0.36471	0.33333
0.54118	0.41176	0.38039
0.57647	0.45098	0.41961
0.60784	0.48627	0.45882
0.64314	0.52941	0.50588
0.67059	0.56471	0.54118
0.70196	0.60392	0.58039
0.27451	0.14118	0.09804
0.27843	0.14510	0.10196
0.29412	0.15686	0.11373
0.31373	0.17255	0.12941
0.33725	0.19608	0.15294
0.36471	0.21961	0.18039
0.39216	0.25098	0.21176
0.42745	0.28627	0.24706
0.46275	0.32157	0.28235
0.49412	0.35686	0.32157
0.52549	0.39216	0.36078
0.55686	0.42745	0.40000
0.59216	0.46667	0.43922
0.62353	0.50588	0.48235
0.65490	0.54510	0.52157
0.68235	0.58039	0.55686
0.70980	0.61176	0.58824
0.35294	0.21176	0.16863
0.36078	0.21569	0.17647
0.36471	0.22353	0.18431
0.38039	0.23529	0.19608
0.39608	0.25490	0.21569
0.41961	0.27843	0.23922
0.44314	0.30196	0.26667
0.47059	0.32941	0.29412
0.49804	0.36078	0.32549
0.52549	0.39216	0.35686
0.55294	0.42353	0.39216
0.58431	0.45882	0.43137
0.61176	0.49412	0.46667
0.64706	0.53333	0.50588
0.67059	0.56471	0.54118
0.69804	0.59608	0.57647
0.72157	0.62745	0.60784
0.43137	0.28627	0.25098
0.43529	0.29020	0.25490
0.43922	0.29804	0.26275
0.44706	0.30588	0.27059
0.46275	0.32157	0.28235
0.47451	0.33333	0.29804
0.49804	0.35686	0.32549
0.51765	0.38039	0.34902
0.54118	0.40784	0.37647
0.56471	0.43529	0.40784
0.58824	0.46667	0.43529
0.61176	0.49412	0.46667
0.64314	0.52941	0.50196
0.66667	0.55686	0.53333
0.69020	0.58824	0.56471
0.71373	0.61569	0.59608
0.73725	0.64706	0.62745
0.49804	0.35686	0.32549
0.49804	0.36078	0.32549
0.50196	0.36471	0.32941
0.50980	0.37255	0.33725
0.52157	0.38431	0.35294
0.52941	0.39608	0.36471
0.54902	0.41569	0.38431
0.56471	0.43922	0.40784
0.58431	0.45882	0.43137
0.60000	0.47843	0.45098
0.62353	0.50980	0.48235
0.65098	0.53725	0.51373
0.67059	0.56078	0.53725
0.69020	0.58824	0.56863
0.71373	0.61569	0.59608
0.73333	0.64314	0.62353
0.75686	0.67059	0.65490
0.55686	0.42745	0.39608
0.56078	0.43137	0.40000
0.56471	0.43922	0.40784
0.57255	0.44314	0.41569
0.57647	0.45098	0.42353
0.58824	0.46275	0.43529
0.59608	0.47451	0.44706
0.61176	0.49020	0.46667
0.62745	0.51373	0.48627
0.64706	0.53333	0.50980
0.66275	0.55686	0.53333
0.68235	0.57647	0.55294
0.70196	0.60000	0.58039
0.71765	0.62353	0.60392
0.73725	0.64706	0.63137
0.75686	0.67451	0.65882
0.77255	0.69412	0.67843
0.61569	0.49804	0.47059
0.61961	0.50196	0.47451
0.61961	0.50196	0.47843
0.62353	0.50980	0.48235
0.63137	0.51765	0.49020
0.64314	0.52941	0.50196
0.65098	0.54118	0.51373
0.66275	0.55294	0.52941
0.67059	0.56471	0.54118
0.68627	0.58431	0.56078
0.70196	0.60000	0.58039
0.71373	0.61961	0.59608
0.72941	0.63922	0.61961
0.74902	0.66275	0.64706
0.76078	0.68235	0.66275
0.78039	0.70588	0.69020
0.80000	0.72941	0.71373
0.66667	0.55686	0.53333
0.66667	0.56078	0.53725
0.66667	0.56078	0.53725
0.67451	0.56863	0.54510
0.67843	0.57255	0.54902
0.68235	0.58039	0.56078
0.69020	0.58824	0.56863
0.70196	0.60000	0.58039
0.70980	0.61176	0.59216
0.72157	0.62745	0.60784
0.73333	0.64314	0.62353
0.74902	0.66275	0.64314
0.76078	0.67843	0.66275
0.77255	0.69412	0.67843
0.78824	0.71373	0.69804
0.80784	0.74118	0.72549
0.81961	0.75686	0.74510
0.71373	0.61569	0.59608
0.71373	0.61961	0.59608
0.71765	0.61961	0.60000
0.71765	0.62353	0.60392
0.72157	0.63137	0.61176
0.72941	0.63922	0.61961
0.73333	0.64314	0.62353
0.74118	0.65098	0.63529
0.74902	0.66275	0.64706
0.75686	0.67451	0.65882
0.76863	0.68627	0.67059
0.78039	0.70196	0.68627
0.79216	0.71765	0.70196
0.80784	0.73725	0.72549
0.81961	0.75294	0.74118
0.82745	0.76863	0.75294
0.84314	0.78824	0.77647
0.75686	0.67451	0.65490
0.75686	0.67451	0.65882
0.76078	0.67451	0.65882
0.76078	0.67843	0.66275
0.76078	0.68235	0.66275
0.76863	0.68627	0.67059
0.77255	0.69412	0.67843
0.77647	0.70196	0.68627
0.78824	0.71373	0.69804
0.79216	0.72157	0.70588
0.80392	0.73725	0.72157
0.81569	0.74902	0.73333
0.82353	0.76078	0.74510
0.83137	0.77255	0.76078
0.84314	0.78824	0.77647
0.85490	0.80392	0.79216
0.86667	0.81961	0.81176
0.79608	0.72549	0.70980
0.79608	0.72549	0.70980
0.80000	0.72941	0.71373
0.80000	0.73333	0.71765
0.80392	0.73725	0.72157
0.80784	0.74118	0.72549
0.81176	0.74510	0.73333
0.81961	0.75294	0.74118
0.82353	0.76078	0.74510
0.82745	0.76471	0.75294
0.83529	0.77647	0.76471
0.84314	0.78431	0.77255
0.85490	0.80000	0.78824
0.86275	0.81176	0.80000
0.87059	0.82353	0.81176
0.88235	0.83922	0.82745
0.89412	0.85490	0.84706
0.83137	0.77255	0.76078
0.83137	0.77255	0.76078
0.83529	0.77647	0.76471
0.83529	0.77647	0.76471
0.83922	0.78039	0.76863
0.84314	0.78431	0.77255
0.84314	0.78824	0.77647
0.85098	0.79608	0.78431
0.85490	0.80000	0.78824
0.85882	0.80784	0.80000
0.86667	0.81569	0.80784
0.87059	0.82353	0.81569
0.87843	0.83529	0.82745
0.89020	0.84706	0.83922
0.89804	0.85882	0.85098
0.90588	0.87059	0.86275
0.91373	0.88235	0.87843
0.86667	0.81961	0.81176
0.86667	0.81961	0.81176
0.87059	0.82353	0.81176
0.87059	0.82353	0.81176
0.87059	0.82353	0.81569
0.87451	0.82745	0.81961
0.87843	0.83137	0.82353
0.88235	0.83922	0.82745
0.88627	0.84314	0.83529
0.89020	0.85098	0.84314
0.89412	0.85882	0.85098
0.90196	0.86667	0.85882
0.90588	0.87451	0.86667
0.91373	0.88235	0.87843
0.92157	0.89412	0.88627
0.92941	0.90196	0.89804
0.93725	0.91373	0.90980
0.89804	0.86275	0.85490
0.90196	0.86275	0.85490
0.90196	0.86275	0.85882
0.90196	0.86667	0.85882
0.90196	0.86667	0.85882
0.90588	0.87059	0.86275
0.90588	0.87451	0.86667
0.90980	0.87843	0.87059
0.91373	0.88235	0.87451
0.91765	0.88627	0.87843
0.92157	0.89412	0.88627
0.92941	0.90196	0.89804
0.93333	0.90980	0.90588
0.94118	0.91765	0.91373
0.94510	0.92549	0.92549
0.95294	0.93725	0.93333
0.96078	0.94510	0.94510
0.92941	0.90196	0.89804
0.92941	0.90196	0.89804
0.92941	0.90196	0.89804
0.92941	0.90196	0.89804
0.92941	0.90588	0.89804
0.93333	0.90980	0.90588
0.93725	0.91373	0.90980
0.94118	0.91765	0.90980
0.94118	0.92157	0.91765
0.94510	0.92549	0.92157
0.94902	0.92941	0.92549
0.95294	0.93725	0.93333
0.96078	0.94510	0.94118
0.96863	0.95686	0.95294
0.97255	0.96078	0.96078
0.98039	0.97255	0.96863
0.98431	0.97647	0.97647
0.10196	0.01961	0.00392
0.10588	0.02353	0.00392
0.12157	0.02745	0.00784
0.15686	0.05098	0.01569
0.20784	0.09020	0.04706
0.25882	0.12941	0.08627
0.30588	0.16863	0.12549
0.35294	0.21176	0.16863
0.39608	0.25490	0.21569
0.44314	0.30196	0.26275
0.48235	0.34118	0.30588
0.52157	0.38824	0.35294
0.55686	0.42745	0.40000
0.59216	0.47059	0.44314
0.62745	0.51373	0.48627
0.66275	0.55686	0.53333
0.69020	0.58824	0.56863
0.12157	0.03137	0.00784
0.13333	0.03922	0.01176
0.15686	0.05490	0.01569
0.19608	0.07843	0.03922
0.23529	0.10980	0.06667
0.27843	0.14510	0.10196
0.32549	0.18431	0.14118
0.36863	0.22353	0.18431
0.41176	0.26667	0.23137
0.45098	0.30980	0.27451
0.49020	0.35294	0.31765
0.52941	0.39216	0.36078
0.56863	0.43922	0.41176
0.60000	0.47451	0.44706
0.63529	0.51765	0.49412
0.66667	0.55686	0.53333
0.69412	0.59608	0.57255
0.19608	0.07843	0.03922
0.20784	0.09020	0.04706
0.22353	0.10196	0.05882
0.25098	0.12157	0.07843
0.27843	0.14510	0.10196
0.31765	0.18039	0.13725
0.35294	0.21176	0.17255
0.39216	0.25098	0.21176
0.43529	0.29020	0.25490
0.46667	0.32549	0.29020
0.50588	0.36863	0.33333
0.54118	0.41176	0.38039
0.57647	0.45098	0.42353
0.60784	0.48627	0.45882
0.64314	0.53333	0.50588
0.67059	0.56471	0.54118
0.70196	0.60392	0.58039
0.27843	0.14510	0.10196
0.28235	0.14902	0.10588
0.29804	0.16078	0.11765
0.31765	0.17647	0.13333
0.33725	0.19608	0.15686
0.36471	0.22353	0.18039
0.39608	0.25098	0.21176
0.43137	0.28627	0.25098
0.46275	0.32157	0.28627
0.49412	0.35686	0.32157
0.52549	0.39216	0.36078
0.56078	0.43137	0.40000
0.59216	0.46667	0.43922
0.62353	0.50588	0.48235
0.65490	0.54510	0.52157
0.68235	0.58039	0.55686
0.70980	0.61176	0.59216
0.35686	0.21569	0.17255
0.36078	0.21961	0.17647
0.36863	0.22745	0.18431
0.38039	0.23922	0.19608
0.39608	0.25490	0.21569
0.41961	0.27843	0.23922
0.44706	0.30588	0.26667
0.47059	0.32941	0.29412
0.49804	0.36078	0.32941
0.52549	0.39216	0.36078
0.55294	0.42353	0.39608
0.58431	0.46275	0.43137
0.61176	0.49412	0.46667
0.64706	0.53333	0.50980
0.67059	0.56471	0.54118
0.69804	0.59608	0.57647
0.72157	0.63137	0.61176
0.43137	0.29020	0.25098
0.43529	0.29412	0.25490
0.44314	0.29804	0.26275
0.45098	0.30588	0.27059
0.46275	0.32157	0.28627
0.47843	0.33725	0.30196
0.49804	0.35686	0.32549
0.51765	0.38431	0.34902
0.54118	0.41176	0.38039
0.56471	0.43922	0.40784
0.58824	0.46667	0.43529
0.61569	0.49412	0.46667
0.64314	0.52941	0.50588
0.66667	0.55686	0.53333
0.69020	0.58824	0.56863
0.71373	0.61961	0.60000
0.73725	0.64706	0.63137
0.49804	0.36078	0.32549
0.50196	0.36078	0.32941
0.50588	0.36471	0.33333
0.51373	0.37647	0.34118
0.52157	0.38431	0.35294
0.53333	0.40000	0.36863
0.54902	0.41961	0.38824
0.56863	0.43922	0.41176
0.58431	0.45882	0.43137
0.60000	0.47843	0.45098
0.62353	0.50980	0.48235
0.65098	0.53725	0.51373
0.67059	0.56078	0.53725
0.69020	0.58824	0.56863
0.71373	0.61569	0.59608
0.73333	0.64314	0.62353
0.75686	0.67451	0.65490
0.55686	0.43137	0.40000
0.56078	0.43529	0.40392
0.56863	0.43922	0.41176
0.57255	0.44314	0.41569
0.58039	0.45490	0.42353
0.58824	0.46275	0.43529
0.59608	0.47451	0.44706
0.61176	0.49412	0.46667
0.62745	0.51373	0.48627
0.64706	0.53725	0.50980
0.66275	0.55686	0.53333
0.68235	0.57647	0.55686
0.70196	0.60000	0.58039
0.71765	0.62353	0.60392
0.73725	0.64706	0.63137
0.75686	0.67451	0.65882
0.77647	0.69804	0.68235
0.61961	0.49804	0.47451
0.61961	0.50196	0.47451
0.62353	0.50588	0.47843
0.62745	0.50980	0.48235
0.63137	0.51765	0.49020
0.64314	0.52941	0.50196
0.65098	0.54118	0.51765
0.66275	0.55294	0.52941
0.67059	0.56471	0.54118
0.68627	0.58431	0.56078
0.70196	0.60000	0.58039
0.71373	0.61961	0.60000
0.72941	0.63922	0.61961
0.74902	0.66275	0.64706
0.76471	0.68235	0.66275
0.78039	0.70588	0.69020
0.80000	0.72941	0.71373
0.66667	0.55686	0.53333
0.66667	0.56078	0.53725
0.67059	0.56078	0.54118
0.67451	0.56863	0.54510
0.67843	0.57255	0.54902
0.68627	0.58039	0.56078
0.69412	0.58824	0.56863
0.70196	0.60392	0.58039
0.70980	0.61176	0.59216
0.72157	0.62745	0.60784
0.73333	0.64314	0.62353
0.74902	0.66275	0.64314
0.76078	0.67843	0.66275
0.77255	0.69412	0.67843
0.78824	0.71373	0.69804
0.80784	0.73725	0.72549
0.82353	0.75686	0.74510
0.71373	0.61569	0.59608
0.71373	0.61961	0.59608
0.71765	0.61961	0.60000
0.71765	0.62353	0.60392
0.72549	0.63137	0.61176
0.72941	0.63922	0.61961
0.73333	0.64314	0.62353
0.74118	0.65490	0.63529
0.74902	0.66275	0.64706
0.76078	0.67843	0.65882
0.76863	0.68627	0.67059
0.78039	0.70196	0.68627
0.79216	0.71765	0.70196
0.80784	0.73725	0.72549
0.81961	0.75294	0.74118
0.82745	0.76863	0.75686
0.84314	0.78824	0.77647
0.75686	0.67451	0.65490
0.75686	0.67451	0.65882
0.76078	0.67843	0.65882
0.76078	0.67843	0.66275
0.76471	0.68235	0.66275
0.76863	0.68627	0.67059
0.77255	0.69412	0.67843
0.77647	0.70196	0.68627
0.78824	0.71373	0.69804
0.79216	0.72157	0.70588
0.80392	0.73725	0.72157
0.81569	0.74902	0.73725
0.82353	0.76078	0.74510
0.83137	0.77255	0.76078
0.84314	0.78824	0.77647
0.85882	0.80392	0.79216
0.87059	0.81961	0.81176
0.79608	0.72549	0.71373
0.80000	0.72941	0.71373
0.80000	0.72941	0.71373
0.80392	0.73333	0.71765
0.80392	0.73725	0.72157
0.80784	0.74118	0.72549
0.81176	0.74510	0.73333
0.81961	0.75294	0.74118
0.82353	0.76078	0.74902
0.82745	0.76471	0.75294
0.83529	0.77647	0.76471
0.84314	0.78431	0.77647
0.85098	0.80000	0.78824
0.86275	0.81176	0.80392
0.87059	0.82353	0.81176
0.88235	0.83922	0.83137
0.89412	0.85490	0.84706
0.83137	0.77255	0.76078
0.83529	0.77647	0.76471
0.83529	0.77647	0.76471
0.83529	0.77647	0.76471
0.83922	0.78039	0.76863
0.84314	0.78431	0.77255
0.84314	0.78824	0.77647
0.85098	0.79608	0.78431
0.85490	0.80000	0.79216
0.85882	0.80784	0.80000
0.86667	0.81569	0.80784
0.87059	0.82745	0.81569
0.87843	0.83529	0.82745
0.89020	0.84706	0.83922
0.89804	0.86275	0.85490
0.90588	0.87059	0.86275
0.91373	0.88235	0.87843
0.86667	0.81961	0.81176
0.87059	0.81961	0.81176
0.87059	0.82353	0.81176
0.87059	0.82353	0.81176
0.87059	0.82353	0.81569
0.87451	0.82745	0.81961
0.87843	0.83137	0.82353
0.88235	0.83922	0.82745
0.88627	0.84314	0.83529
0.89020	0.85098	0.84314
0.89412	0.85882	0.85098
0.90196	0.86667	0.85882
0.90588	0.87451	0.86667
0.91373	0.88235	0.87843
0.92157	0.89412	0.88627
0.92941	0.90196	0.89804
0.93725	0.91373	0.90980
0.89804	0.86275	0.85490
0.90196	0.86275	0.85490
0.90196	0.86667	0.85882
0.90196	0.86667	0.85882
0.90196	0.86667	0.85882
0.90588	0.87059	0.86275
0.90588	0.87451	0.86667
0.90980	0.87843	0.87059
0.91373	0.88235	0.87451
0.91765	0.88627	0.87843
0.92157	0.89412	0.88627
0.92941	0.90196	0.89412
0.93333	0.90980	0.90588
0.94118	0.91765	0.91373
0.94510	0.92941	0.92549
0.95294	0.93725	0.93333
0.96078	0.94510	0.94510
0.92941	0.90196	0.89804
0.92941	0.90196	0.89804
0.92941	0.90196	0.89804
0.92941	0.90196	0.89804
0.92941	0.90588	0.90196
0.93333	0.90980	0.90588
0.93725	0.91373	0.90980
0.94118	0.91765	0.90980
0.94118	0.92157	0.91765
0.94510	0.92549	0.92157
0.94902	0.92941	0.92941
0.95294	0.93725	0.93333
0.96078	0.94510	0.94118
0.96863	0.95686	0.95294
0.97255	0.96078	0.96078
0.98039	0.97255	0.96863
0.98431	0.97647	0.97647
0.10196	0.01961	0.00392
0.10980	0.02353	0.00392
0.12549	0.03529	0.00784
0.16471	0.05882	0.01961
0.21176	0.09412	0.05098
0.26275	0.12941	0.08627
0.30980	0.17255	0.12941
0.35686	0.21569	0.17255
0.40000	0.25490	0.21961
0.44314	0.30196	0.26667
0.48235	0.34510	0.30980
0.52549	0.38824	0.35686
0.56078	0.43137	0.40000
0.59608	0.47059	0.44314
0.63137	0.51373	0.49020
0.66275	0.55686	0.53333
0.69412	0.59216	0.56863
0.13333	0.03529	0.00784
0.14510	0.04314	0.01176
0.17255	0.06275	0.02353
0.20392	0.08627	0.04314
0.24314	0.11765	0.07451
0.28627	0.14902	0.10588
0.32941	0.18824	0.14902
0.36863	0.22745	0.18824
0.41176	0.27059	0.23137
0.45098	0.30980	0.27451
0.49412	0.35686	0.32157
0.52941	0.39608	0.36471
0.56863	0.44314	0.41176
0.60000	0.47843	0.45098
0.63529	0.52157	0.49412
0.66667	0.55686	0.53333
