LUTGenerator/TEST/CUBE/Duotone/Orange/Duotone_Orange_Strong_sRGB.cube
TITLE Duotone_Orange_Strong_sRGB.cube
LUT_3D_SIZE 5
DOMAIN_MIN 0.0 0.0 0.0
DOMAIN_MAX 1.0 1.0 1.0
0.10588	0.02745	0.01176
0.20392	0.10980	0.08627
0.39216	0.29412	0.27451
0.54118	0.46667	0.45098
0.65882	0.60784	0.60000
0.34902	0.25098	0.22745
0.39216	0.29412	0.27451
0.48627	0.40000	0.38431
0.59216	0.52549	0.51373
0.68627	0.64314	0.63529
0.59216	0.52941	0.51765
0.60784	0.54902	0.53725
0.63922	0.58824	0.57647
0.69412	0.65098	0.64314
0.75294	0.72157	0.71765
0.74902	0.72157	0.71373
0.75686	0.72941	0.72549
0.77255	0.74902	0.74510
0.80392	0.78039	0.77647
0.84314	0.83137	0.82745
0.89020	0.88235	0.87843
0.89412	0.88627	0.88627
0.90980	0.90196	0.90196
0.93333	0.92941	0.92549
0.97647	0.97255	0.97255
0.12549	0.04706	0.02353
0.22745	0.13333	0.10980
0.40000	0.30588	0.28627
0.54510	0.47451	0.45882
0.65882	0.61176	0.60000
0.36078	0.26275	0.23922
0.40000	0.30588	0.28627
0.49020	0.40784	0.39216
0.59608	0.53333	0.51765
0.68627	0.64314	0.63529
0.60000	0.53725	0.52157
0.61176	0.55294	0.54118
0.64314	0.59216	0.58039
0.69412	0.65490	0.64706
0.75294	0.72549	0.72157
0.75294	0.72157	0.71765
0.75686	0.72941	0.72549
0.77255	0.74902	0.74510
0.80392	0.78431	0.78039
0.84706	0.83137	0.82745
0.89412	0.88235	0.88235
0.89804	0.89020	0.88627
0.90980	0.90588	0.90196
0.93725	0.92941	0.92941
0.97647	0.97647	0.97255
0.21961	0.12549	0.09804
0.29020	0.19216	0.16863
0.43137	0.33725	0.31765
0.56078	0.49020	0.47451
0.66667	0.61961	0.61176
0.39608	0.30196	0.27843
0.43137	0.33725	0.31765
0.50588	0.42745	0.40784
0.60784	0.54902	0.53725
0.69412	0.65490	0.64706
0.61176	0.54902	0.53725
0.61961	0.56471	0.55294
0.65490	0.60392	0.59216
0.70196	0.66275	0.65490
0.76078	0.73333	0.72549
0.75686	0.72941	0.72549
0.76078	0.73725	0.72941
0.77647	0.75294	0.74902
0.80784	0.78824	0.78431
0.85098	0.83922	0.83529
0.89804	0.88627	0.88627
0.90196	0.89020	0.89020
0.91373	0.90588	0.90588
0.94118	0.93725	0.93725
0.98039	0.97647	0.97647
0.32941	0.22745	0.20392
0.37255	0.27451	0.25490
0.47451	0.38824	0.37255
0.58431	0.51765	0.50588
0.68235	0.63922	0.62745
0.44706	0.35686	0.33725
0.47451	0.38824	0.37255
0.54118	0.46667	0.45098
0.62745	0.57255	0.56078
0.70588	0.66667	0.66275
0.62745	0.57255	0.56078
0.63922	0.58431	0.57647
0.66667	0.61961	0.61176
0.71373	0.67843	0.67059
0.76863	0.74118	0.73725
0.76471	0.74118	0.73333
0.77255	0.74510	0.74118
0.78431	0.76471	0.76078
0.81176	0.79216	0.78824
0.85490	0.84314	0.84314
0.90588	0.89804	0.89412
0.90980	0.90196	0.90196
0.92157	0.91765	0.91373
0.94902	0.94510	0.94510
0.98824	0.98824	0.98824
0.42745	0.33725	0.31765
0.45490	0.36863	0.34902
0.52941	0.45098	0.43529
0.61961	0.56078	0.54902
0.70196	0.66275	0.65490
0.50588	0.42353	0.40784
0.52941	0.45098	0.43529
0.58039	0.51373	0.50196
0.65098	0.60000	0.58824
0.72157	0.68627	0.68235
0.65490	0.60392	0.59216
0.66275	0.61176	0.60392
0.68627	0.64314	0.63529
0.72941	0.69412	0.68627
0.77647	0.75686	0.74902
0.77647	0.75294	0.74902
0.78039	0.75686	0.75294
0.80000	0.78039	0.77647
0.82353	0.80784	0.80392
0.86667	0.85490	0.85490
0.91373	0.90588	0.90588
0.91765	0.91373	0.90980
0.93333	0.92549	0.92549
0.96078	0.95686	0.95686
1.00000	1.00000	1.00000
