LUTGenerator/TEST/CUBE/Seasons/crispwinter_linear_sRGB.cube
TITLE crispwinter_linear_sRGB.cube
LUT_3D_SIZE 5
DOMAIN_MIN 0.0 0.0 0.0
DOMAIN_MAX 1.0 1.0 1.0
0.00000	0.00000	0.00000
0.23922	0.00000	0.00000
0.50980	0.00000	0.00000
0.79216	0.00000	0.00000
1.00000	0.00000	0.00000
0.00000	0.28235	0.00000
0.22353	0.27451	0.00000
0.50588	0.27059	0.00000
0.79216	0.25490	0.00000
1.00000	0.23137	0.00000
0.00000	0.57255	0.00000
0.21176	0.57255	0.00000
0.49020	0.56471	0.00000
0.78431	0.54510	0.00000
1.00000	0.52157	0.00000
0.00000	0.85882	0.00000
0.17647	0.85490	0.00000
0.45490	0.85098	0.00000
0.76863	0.84314	0.00000
1.00000	0.83137	0.00000
0.00000	1.00000	0.00000
0.09412	1.00000	0.00000
0.39216	1.00000	0.00000
0.74510	1.00000	0.00000
1.00000	1.00000	0.00000
0.00000	0.00000	0.34902
0.23529	0.00000	0.34510
0.50980	0.00000	0.33725
0.79216	0.00000	0.32549
1.00000	0.00000	0.30588
0.00000	0.27843	0.33725
0.22353	0.27451	0.33333
0.50588	0.26667	0.32549
0.79216	0.25098	0.31373
1.00000	0.22745	0.29412
0.00000	0.57255	0.32549
0.20784	0.57255	0.32157
0.49020	0.56078	0.31373
0.78039	0.54510	0.29804
1.00000	0.51765	0.27843
0.00000	0.85882	0.29804
0.17255	0.85490	0.29412
0.45490	0.85098	0.28627
0.76863	0.84314	0.27059
1.00000	0.83137	0.24314
0.00000	1.00000	0.25098
0.08235	1.00000	0.24314
0.39216	1.00000	0.23529
0.74118	1.00000	0.21176
1.00000	1.00000	0.16863
0.00000	0.00000	0.67059
0.23137	0.00000	0.66667
0.50588	0.00000	0.65882
0.79216	0.00000	0.64706
1.00000	0.00000	0.62353
0.00000	0.27843	0.66667
0.21961	0.27059	0.66275
0.50196	0.26275	0.65490
0.78824	0.24706	0.64314
1.00000	0.22353	0.61569
0.00000	0.56863	0.65098
0.20392	0.56863	0.64706
0.48627	0.56078	0.64314
0.78039	0.54118	0.62745
1.00000	0.51373	0.60000
0.00000	0.85490	0.61961
0.16863	0.85490	0.61961
0.45098	0.85098	0.61176
0.76471	0.84314	0.59216
1.00000	0.83137	0.56471
0.00000	1.00000	0.56863
0.07451	1.00000	0.56471
0.38824	1.00000	0.55686
0.74118	1.00000	0.53333
1.00000	1.00000	0.49804
0.00000	0.00000	0.95686
0.22745	0.00000	0.95294
0.50196	0.00000	0.94902
0.78824	0.00000	0.94118
1.00000	0.00000	0.92941
0.00000	0.27059	0.95294
0.21176	0.26667	0.95294
0.49412	0.25882	0.94902
0.78431	0.24314	0.94118
1.00000	0.21569	0.92941
0.00000	0.56471	0.94510
0.19608	0.56078	0.94510
0.47843	0.55294	0.94118
0.77647	0.53725	0.93333
1.00000	0.50980	0.92157
0.00000	0.85490	0.92941
0.16078	0.85098	0.92941
0.44314	0.84706	0.92549
0.76078	0.83922	0.91765
1.00000	0.82745	0.90588
0.00000	1.00000	0.90588
0.05098	1.00000	0.90588
0.37647	1.00000	0.89804
0.73725	1.00000	0.89020
1.00000	1.00000	0.87843
0.00000	0.00000	1.00000
0.21961	0.00000	1.00000
0.49020	0.00000	1.00000
0.78431	0.00000	1.00000
1.00000	0.00000	1.00000
0.00000	0.26275	1.00000
0.20392	0.25490	1.00000
0.48627	0.25098	1.00000
0.78039	0.23137	1.00000
1.00000	0.20392	1.00000
0.00000	0.55294	1.00000
0.18824	0.55294	1.00000
0.47059	0.54118	1.00000
0.77255	0.52549	1.00000
1.00000	0.49804	1.00000
0.00000	0.84706	1.00000
0.14510	0.84706	1.00000
0.43137	0.84314	1.00000
0.75686	0.83529	1.00000
1.00000	0.82353	1.00000
0.00000	1.00000	1.00000
0.00000	1.00000	1.00000
0.36078	1.00000	1.00000
0.73333	1.00000	1.00000
1.00000	1.00000	1.00000
