LUTGenerator/TEST/CUBE/Seasons/crispwinter_linear_sRGB.cube
TITLE crispwinter_linear_sRGB.cube
LUT_3D_SIZE 9
DOMAIN_MIN 0.0 0.0 0.0
DOMAIN_MAX 1.0 1.0 1.0
0.00000	0.00000	0.00000
0.11765	0.00000	0.00000
0.23922	0.00000	0.00000
0.36078	0.00000	0.00000
0.50980	0.00000	0.00000
0.65490	0.00000	0.00000
0.79216	0.00000	0.00000
0.92157	0.00000	0.00000
1.00000	0.00000	0.00000
0.00000	0.14510	0.00000
0.10980	0.14118	0.00000
0.23529	0.14118	0.00000
0.35686	0.14118	0.00000
0.50980	0.13725	0.00000
0.65490	0.13333	0.00000
0.79216	0.12549	0.00000
0.92157	0.11765	0.00000
1.00000	0.11373	0.00000
0.00000	0.28235	0.00000
0.10980	0.28235	0.00000
0.22353	0.27451	0.00000
0.34902	0.27451	0.00000
0.50588	0.27059	0.00000
0.65098	0.26275	0.00000
0.79216	0.25490	0.00000
0.92157	0.24314	0.00000
1.00000	0.23137	0.00000
0.00000	0.41961	0.00000
0.10980	0.41961	0.00000
0.22353	0.41569	0.00000
0.34118	0.41176	0.00000
0.49804	0.40392	0.00000
0.64706	0.39608	0.00000
0.78824	0.38431	0.00000
0.91765	0.36863	0.00000
1.00000	0.34510	0.00000
0.00000	0.57255	0.00000
0.10196	0.57255	0.00000
0.21176	0.57255	0.00000
0.32549	0.56863	0.00000
0.49020	0.56471	0.00000
0.64314	0.55686	0.00000
0.78431	0.54510	0.00000
0.91373	0.53333	0.00000
1.00000	0.52157	0.00000
0.00000	0.71765	0.00000
0.09020	0.71765	0.00000
0.19216	0.71765	0.00000
0.30588	0.71373	0.00000
0.47451	0.71373	0.00000
0.63137	0.70588	0.00000
0.77647	0.70196	0.00000
0.90980	0.69412	0.00000
1.00000	0.68235	0.00000
0.00000	0.85882	0.00000
0.07843	0.85882	0.00000
0.17647	0.85490	0.00000
0.27451	0.85490	0.00000
0.45490	0.85098	0.00000
0.61961	0.85098	0.00000
0.76863	0.84314	0.00000
0.90196	0.83922	0.00000
1.00000	0.83137	0.00000
0.00000	0.99216	0.00000
0.05098	0.99216	0.00000
0.14118	0.98824	0.00000
0.23137	0.98824	0.00000
0.43137	0.98431	0.00000
0.60392	0.98431	0.00000
0.75686	0.98039	0.00000
0.89412	0.97647	0.00000
1.00000	0.96863	0.00000
0.00000	1.00000	0.00000
0.03137	1.00000	0.00000
0.09412	1.00000	0.00000
0.15294	1.00000	0.00000
0.39216	1.00000	0.00000
0.58431	1.00000	0.00000
0.74510	1.00000	0.00000
0.88627	1.00000	0.00000
1.00000	1.00000	0.00000
0.00000	0.00000	0.18431
0.11765	0.00000	0.18039
0.23922	0.00000	0.18039
0.35686	0.00000	0.18039
0.50980	0.00000	0.17647
0.65490	0.00000	0.17255
0.79216	0.00000	0.16863
0.92157	0.00000	0.16078
1.00000	0.00000	0.15686
0.00000	0.14118	0.17647
0.10980	0.13725	0.17255
0.23529	0.13725	0.17255
0.35686	0.13725	0.17255
0.50980	0.13333	0.16863
0.65490	0.12941	0.16471
0.79216	0.12549	0.16078
0.92157	0.11765	0.15294
1.00000	0.10980	0.14902
0.00000	0.28235	0.17647
0.10980	0.27843	0.17255
0.22353	0.27451	0.17255
0.34902	0.27451	0.17255
0.50588	0.26667	0.16863
0.65098	0.26275	0.16471
0.79216	0.25490	0.16078
0.92157	0.24314	0.15294
1.00000	0.22745	0.14902
0.00000	0.41961	0.17647
0.10980	0.41961	0.17255
0.22353	0.41569	0.17255
0.33725	0.41176	0.17255
0.49804	0.40392	0.16863
0.64706	0.39608	0.16471
0.78824	0.38431	0.16078
0.91765	0.36863	0.15294
1.00000	0.34510	0.14902
0.00000	0.57255	0.16863
0.09804	0.57255	0.16471
0.20784	0.57255	0.16471
0.32549	0.56863	0.16471
0.49020	0.56471	0.16078
0.64314	0.55686	0.15686
0.78431	0.54510	0.15294
0.91373	0.53333	0.14510
1.00000	0.51765	0.14118
0.00000	0.71765	0.16078
0.09020	0.71765	0.15686
0.19216	0.71765	0.15686
0.30588	0.71373	0.15686
0.47451	0.70980	0.15294
0.63137	0.70588	0.14902
0.77647	0.70196	0.14510
0.90980	0.69412	0.13725
1.00000	0.68235	0.12941
0.00000	0.85882	0.15294
0.07843	0.85882	0.14902
0.17255	0.85882	0.14902
0.27451	0.85490	0.14902
0.45490	0.85098	0.14510
0.61961	0.85098	0.14118
0.76863	0.84314	0.13725
0.90196	0.83922	0.12549
1.00000	0.83137	0.12157
0.00000	0.99216	0.13725
0.04706	0.98824	0.13333
0.14118	0.98824	0.13333
0.23137	0.98824	0.13333
0.43137	0.98431	0.12549
0.60392	0.98431	0.12157
0.75686	0.98039	0.11373
0.89412	0.97647	0.10196
1.00000	0.96863	0.09412
0.00000	1.00000	0.12549
0.02745	1.00000	0.12157
0.09020	1.00000	0.12157
0.15294	1.00000	0.12157
0.39216	1.00000	0.11373
0.58431	1.00000	0.10980
0.74510	1.00000	0.10196
0.88627	1.00000	0.08627
1.00000	1.00000	0.07843
0.00000	0.00000	0.34902
0.11765	0.00000	0.34902
0.23529	0.00000	0.34510
0.35686	0.00000	0.34510
0.50980	0.00000	0.33725
0.65490	0.00000	0.33333
0.79216	0.00000	0.32549
0.92157	0.00000	0.31765
1.00000	0.00000	0.30588
0.00000	0.14118	0.34510
0.10980	0.13725	0.34510
0.23137	0.13725	0.34118
0.35686	0.13725	0.34118
0.50980	0.13333	0.33333
0.65490	0.12941	0.32941
0.79216	0.12549	0.32157
0.92157	0.11765	0.31373
1.00000	0.10980	0.30196
0.00000	0.27843	0.33725
0.10980	0.27843	0.33725
0.22353	0.27451	0.33333
0.34902	0.27451	0.33333
0.50588	0.26667	0.32549
0.65098	0.25882	0.32157
0.79216	0.25098	0.31373
0.92157	0.23922	0.30196
1.00000	0.22745	0.29412
0.00000	0.41961	0.33725
0.10980	0.41961	0.33725
0.22353	0.41569	0.33333
0.33725	0.40784	0.33333
0.49804	0.40392	0.32549
0.64706	0.39608	0.32157
0.78824	0.38039	0.31373
0.91765	0.36471	0.30196
1.00000	0.34510	0.29412
0.00000	0.57255	0.32549
0.09804	0.57255	0.32549
0.20784	0.57255	0.32157
0.32549	0.56863	0.32157
0.49020	0.56078	0.31373
0.64314	0.55686	0.30588
0.78039	0.54510	0.29804
0.91373	0.53333	0.29020
1.00000	0.51765	0.27843
0.00000	0.71765	0.31373
0.09020	0.71765	0.30980
0.19216	0.71765	0.30588
0.30588	0.71373	0.30588
0.47451	0.70980	0.29804
0.63137	0.70588	0.29412
0.77647	0.70196	0.28627
0.90980	0.69412	0.27451
1.00000	0.68235	0.25882
0.00000	0.85882	0.29804
0.07843	0.85882	0.29804
0.17255	0.85490	0.29412
0.27451	0.85490	0.29412
0.45490	0.85098	0.28627
0.61961	0.84706	0.27843
0.76863	0.84314	0.27059
0.90196	0.83922	0.25490
1.00000	0.83137	0.24314
0.00000	0.98824	0.27843
0.04706	0.99216	0.27451
0.13725	0.98824	0.27059
0.22745	0.98824	0.27059
0.42745	0.98431	0.26275
0.60392	0.98431	0.25098
0.75686	0.98039	0.24314
0.89412	0.97647	0.22745
1.00000	0.96863	0.21176
0.00000	1.00000	0.25098
0.02745	1.00000	0.25098
0.08235	1.00000	0.24314
0.14902	1.00000	0.24314
0.39216	1.00000	0.23529
0.58431	1.00000	0.22353
0.74118	1.00000	0.21176
0.88235	1.00000	0.19216
1.00000	1.00000	0.16863
0.00000	0.00000	0.51373
0.11765	0.00000	0.51373
0.23529	0.00000	0.50980
0.35294	0.00000	0.50588
0.50980	0.00000	0.50196
0.65490	0.00000	0.49412
0.79216	0.00000	0.48235
0.92157	0.00000	0.47059
1.00000	0.00000	0.45490
0.00000	0.14118	0.51373
0.10980	0.13725	0.50980
0.23137	0.13725	0.50980
0.35294	0.13725	0.50588
0.50588	0.13333	0.50196
0.65490	0.12941	0.49412
0.79216	0.12549	0.48235
0.92157	0.11765	0.47059
1.00000	0.10980	0.45098
0.00000	0.27843	0.50588
0.10980	0.27843	0.50588
0.22353	0.27451	0.50588
0.34510	0.27451	0.49804
0.50196	0.26667	0.49412
0.65098	0.25882	0.48627
0.78824	0.25098	0.47451
0.92157	0.23922	0.46275
1.00000	0.22745	0.44706
0.00000	0.41569	0.49804
0.10980	0.41569	0.49804
0.22353	0.41176	0.49412
0.33725	0.40784	0.49020
0.49804	0.40000	0.48627
0.64706	0.39216	0.47843
0.78431	0.38039	0.46667
0.91765	0.36471	0.45098
1.00000	0.34118	0.43529
0.00000	0.57255	0.49020
0.09804	0.57255	0.48627
0.20784	0.56863	0.48627
0.32157	0.56471	0.47843
0.48627	0.56078	0.47451
0.63922	0.55294	0.46667
0.78039	0.54510	0.45490
0.91373	0.53333	0.43922
1.00000	0.51765	0.41961
0.00000	0.71765	0.47451
0.09020	0.71765	0.47059
0.18824	0.71765	0.47059
0.30196	0.71373	0.46275
0.47451	0.70980	0.45882
0.63137	0.70588	0.45098
0.77647	0.69804	0.43529
0.90980	0.69020	0.41961
1.00000	0.68235	0.40000
0.00000	0.85882	0.45098
0.07843	0.85490	0.44706
0.17255	0.85490	0.44706
0.27059	0.85490	0.43922
0.45490	0.85098	0.43137
0.61961	0.84706	0.42353
0.76863	0.84314	0.40784
0.90196	0.83529	0.39216
1.00000	0.83137	0.36863
0.00000	0.98824	0.41961
0.04706	0.98824	0.41961
0.13725	0.98824	0.41569
0.22353	0.98824	0.40784
0.42745	0.98431	0.40392
0.60392	0.98431	0.39216
0.75686	0.98039	0.37647
0.89412	0.97647	0.35686
1.00000	0.96863	0.32941
0.00000	1.00000	0.38039
0.02745	1.00000	0.37647
0.08235	1.00000	0.37255
0.14118	1.00000	0.36471
0.38824	1.00000	0.35686
0.58431	1.00000	0.34510
0.74118	1.00000	0.32549
0.88235	1.00000	0.29804
1.00000	1.00000	0.26275
0.00000	0.00000	0.67059
0.11373	0.00000	0.67059
0.23137	0.00000	0.66667
0.35294	0.00000	0.66667
0.50588	0.00000	0.65882
0.65490	0.00000	0.65490
0.79216	0.00000	0.64706
0.92157	0.00000	0.63529
1.00000	0.00000	0.62353
0.00000	0.14118	0.67059
0.10588	0.13725	0.66667
0.23137	0.13725	0.66667
0.34902	0.13725	0.66275
0.50588	0.13333	0.65882
0.65098	0.12941	0.65490
0.79216	0.12549	0.64314
0.92157	0.11373	0.63529
1.00000	0.10980	0.61961
0.00000	0.27843	0.66667
0.10588	0.27451	0.66667
0.21961	0.27059	0.66275
0.34510	0.27059	0.65882
0.50196	0.26275	0.65490
0.65098	0.25490	0.65098
0.78824	0.24706	0.64314
0.91765	0.23529	0.63137
1.00000	0.22353	0.61569
0.00000	0.41569	0.65882
0.10588	0.41176	0.65882
0.21961	0.41176	0.65882
0.33333	0.40392	0.65490
0.49412	0.40000	0.65098
0.64706	0.38824	0.64314
0.78431	0.37647	0.63529
0.91765	0.36078	0.62353
1.00000	0.34118	0.61176
0.00000	0.56863	0.65098
0.09804	0.56863	0.65098
0.20392	0.56863	0.64706
0.32157	0.56471	0.64706
0.48627	0.56078	0.64314
0.63922	0.55294	0.63529
0.78039	0.54118	0.62745
0.91373	0.52941	0.61569
1.00000	0.51373	0.60000
0.00000	0.71765	0.63922
0.08627	0.71765	0.63922
0.18824	0.71373	0.63529
0.29804	0.71373	0.63137
0.47059	0.70980	0.62745
0.63137	0.70588	0.61961
0.77647	0.69804	0.61176
0.90980	0.69020	0.60000
1.00000	0.68235	0.58431
0.00000	0.85490	0.61961
0.07451	0.85490	0.61961
0.16863	0.85490	0.61961
0.26667	0.85490	0.61569
0.45098	0.85098	0.61176
0.61961	0.84706	0.60392
0.76471	0.84314	0.59216
0.90196	0.83529	0.58039
1.00000	0.83137	0.56471
0.00000	0.98824	0.59608
0.04314	0.98824	0.59608
0.13333	0.98824	0.59608
0.21961	0.98824	0.59216
0.42353	0.98431	0.58824
0.60392	0.98039	0.57647
0.75294	0.98039	0.56863
0.89412	0.97255	0.55294
1.00000	0.96863	0.53725
0.00000	1.00000	0.56863
0.02353	1.00000	0.56863
0.07451	1.00000	0.56471
0.13333	1.00000	0.56078
0.38824	1.00000	0.55686
0.58431	1.00000	0.54510
0.74118	1.00000	0.53333
0.88235	1.00000	0.51765
1.00000	1.00000	0.49804
0.00000	0.00000	0.81569
0.11373	0.00000	0.81569
0.23137	0.00000	0.81176
0.34902	0.00000	0.81176
0.50588	0.00000	0.80784
0.65098	0.00000	0.80392
0.78824	0.00000	0.79608
0.92157	0.00000	0.78824
1.00000	0.00000	0.78039
0.00000	0.13725	0.81176
0.10588	0.13725	0.81176
0.22745	0.13333	0.81176
0.34510	0.13333	0.80784
0.50196	0.13333	0.80784
0.65098	0.12549	0.80392
0.78824	0.12157	0.79608
0.92157	0.11373	0.78824
1.00000	0.10588	0.78039
0.00000	0.27451	0.81176
0.10588	0.27451	0.81176
0.21569	0.26667	0.80784
0.34118	0.26667	0.80784
0.49804	0.25882	0.80392
0.64706	0.25490	0.80000
0.78824	0.24706	0.79608
0.91765	0.23529	0.78824
1.00000	0.21961	0.77647
0.00000	0.41176	0.80784
0.10588	0.41176	0.80784
0.21569	0.40784	0.80392
0.32941	0.40392	0.80392
0.49412	0.39608	0.80000
0.64314	0.38824	0.79608
0.78431	0.37255	0.78824
0.91765	0.35686	0.78039
1.00000	0.33333	0.77255
0.00000	0.56863	0.80000
0.09412	0.56471	0.80000
0.20000	0.56471	0.80000
0.31765	0.56078	0.79608
0.48235	0.55686	0.79216
0.63922	0.54902	0.78824
0.78039	0.54118	0.78431
0.91373	0.52941	0.77647
1.00000	0.51373	0.76471
0.00000	0.71373	0.79216
0.08627	0.71373	0.79216
0.18431	0.71373	0.78824
0.29412	0.70980	0.78824
0.46667	0.70588	0.78431
0.62745	0.70196	0.78039
0.77255	0.69804	0.77255
0.90588	0.69020	0.76471
1.00000	0.67843	0.75686
0.00000	0.85490	0.78039
0.07451	0.85490	0.78039
0.16078	0.85490	0.77647
0.26275	0.85098	0.77647
0.44706	0.85098	0.77255
0.61569	0.84706	0.76863
0.76471	0.83922	0.76078
0.90196	0.83529	0.75294
1.00000	0.82745	0.74510
0.00000	0.98824	0.76471
0.03922	0.98824	0.76471
0.12549	0.98824	0.76471
0.21569	0.98431	0.76078
0.41961	0.98431	0.75686
0.60000	0.98039	0.75294
0.75294	0.97647	0.74510
0.89412	0.97255	0.73725
1.00000	0.96863	0.72549
0.00000	1.00000	0.74510
0.01961	1.00000	0.74510
0.06275	1.00000	0.74510
0.12157	1.00000	0.74118
0.38431	1.00000	0.73725
0.58039	1.00000	0.73333
0.74118	1.00000	0.72549
0.88235	1.00000	0.71765
1.00000	1.00000	0.70588
0.00000	0.00000	0.95686
0.10980	0.00000	0.95686
0.22745	0.00000	0.95294
0.34510	0.00000	0.95294
0.50196	0.00000	0.94902
0.65098	0.00000	0.94902
0.78824	0.00000	0.94118
0.91765	0.00000	0.93725
1.00000	0.00000	0.92941
0.00000	0.13725	0.95686
0.10196	0.13333	0.95686
0.22353	0.13333	0.95294
0.34118	0.13333	0.95294
0.49804	0.12941	0.94902
0.64706	0.12549	0.94510
0.78824	0.12157	0.94118
0.91765	0.10980	0.93725
1.00000	0.10588	0.92941
0.00000	0.27059	0.95294
0.10196	0.27059	0.95294
0.21176	0.26667	0.95294
0.33725	0.26667	0.94902
0.49412	0.25882	0.94902
0.64706	0.25098	0.94510
0.78431	0.24314	0.94118
0.91765	0.23137	0.93333
1.00000	0.21569	0.92941
0.00000	0.40784	0.94902
0.10196	0.40784	0.94902
0.21569	0.40392	0.94902
0.32549	0.39608	0.94902
0.49020	0.39216	0.94510
0.64314	0.38039	0.94118
0.78039	0.36863	0.93725
0.91373	0.35294	0.93333
1.00000	0.32941	0.92549
0.00000	0.56471	0.94510
0.09412	0.56471	0.94510
0.19608	0.56078	0.94510
0.30980	0.55686	0.94118
0.47843	0.55294	0.94118
0.63529	0.54510	0.93725
0.77647	0.53725	0.93333
0.90980	0.52549	0.92549
1.00000	0.50980	0.92157
0.00000	0.71373	0.94118
0.08235	0.71373	0.93725
0.18039	0.70980	0.93725
0.29020	0.70980	0.93725
0.46275	0.70588	0.93333
0.62745	0.70196	0.92941
0.77255	0.69412	0.92549
0.90588	0.68627	0.92157
1.00000	0.67451	0.91373
0.00000	0.85490	0.92941
0.07059	0.85098	0.92941
0.16078	0.85098	0.92941
0.25490	0.85098	0.92549
0.44314	0.84706	0.92549
0.61569	0.84314	0.92157
0.76078	0.83922	0.91765
0.89804	0.83529	0.90980
1.00000	0.82745	0.90588
0.00000	0.98824	0.91765
0.03529	0.98824	0.91765
0.12157	0.98431	0.91765
0.20392	0.98431	0.91765
0.41569	0.98039	0.91373
0.60000	0.98039	0.90980
0.75294	0.97647	0.90588
0.89020	0.97255	0.89804
1.00000	0.96471	0.89412
0.00000	1.00000	0.90588
0.01569	1.00000	0.90588
0.05098	1.00000	0.90588
0.09804	1.00000	0.90196
0.37647	1.00000	0.89804
0.58039	1.00000	0.89804
0.73725	1.00000	0.89020
0.88235	1.00000	0.88627
1.00000	1.00000	0.87843
0.00000	0.00000	1.00000
0.10980	0.00000	1.00000
0.22353	0.00000	1.00000
0.34118	0.00000	1.00000
0.49804	0.00000	1.00000
0.64706	0.00000	1.00000
0.78431	0.00000	1.00000
0.91765	0.00000	1.00000
1.00000	0.00000	1.00000
0.00000	0.13333	1.00000
0.09804	0.12941	1.00000
0.21961	0.12941	1.00000
0.33725	0.12941	1.00000
0.49412	0.12549	1.00000
0.64706	0.12157	1.00000
0.78431	0.11765	1.00000
0.91765	0.10588	1.00000
1.00000	0.10196	1.00000
0.00000	0.26667	1.00000
0.09804	0.26667	1.00000
0.20784	0.26275	1.00000
0.32941	0.26275	1.00000
0.49020	0.25490	1.00000
0.64314	0.24706	1.00000
0.78431	0.23922	1.00000
0.91373	0.22353	1.00000
1.00000	0.21176	1.00000
0.00000	0.40000	1.00000
0.09804	0.40000	1.00000
0.20784	0.39608	1.00000
0.31765	0.39216	1.00000
0.48627	0.38431	1.00000
0.63922	0.37647	1.00000
0.78039	0.36078	1.00000
0.91373	0.34510	1.00000
1.00000	0.32157	1.00000
0.00000	0.56078	1.00000
0.09020	0.56078	1.00000
0.19216	0.55686	1.00000
0.30588	0.55294	1.00000
0.47451	0.54902	1.00000
0.63137	0.54118	1.00000
0.77647	0.53333	1.00000
0.90980	0.51765	1.00000
1.00000	0.50196	1.00000
0.00000	0.70980	1.00000
0.07843	0.70980	1.00000
0.17255	0.70588	1.00000
0.28235	0.70588	1.00000
0.45882	0.70196	1.00000
0.62353	0.69804	1.00000
0.76863	0.69020	1.00000
0.90588	0.68235	1.00000
1.00000	0.67451	1.00000
0.00000	0.85098	1.00000
0.06667	0.85098	1.00000
0.15294	0.85098	1.00000
0.24706	0.84706	1.00000
0.43922	0.84706	1.00000
0.61176	0.84314	1.00000
0.76078	0.83922	1.00000
0.89804	0.83137	1.00000
1.00000	0.82353	1.00000
0.00000	0.98431	1.00000
0.02745	0.98431	1.00000
0.10980	0.98431	1.00000
0.19216	0.98431	1.00000
0.41176	0.98039	1.00000
0.59608	0.97647	1.00000
0.74902	0.97647	1.00000
0.89020	0.96863	1.00000
1.00000	0.96471	1.00000
0.00000	1.00000	1.00000
0.00392	1.00000	1.00000
0.02353	1.00000	1.00000
0.06275	1.00000	1.00000
0.36863	1.00000	1.00000
0.57647	1.00000	1.00000
0.73725	1.00000	1.00000
0.87843	1.00000	1.00000
1.00000	1.00000	1.00000
0.00000	0.00000	1.00000
0.10588	0.00000	1.00000
0.21961	0.00000	1.00000
0.33333	0.00000	1.00000
0.49020	0.00000	1.00000
0.64314	0.00000	1.00000
0.78431	0.00000	1.00000
0.91373	0.00000	1.00000
1.00000	0.00000	1.00000
0.00000	0.13333	1.00000
0.09804	0.12941	1.00000
0.21569	0.12941	1.00000
0.32941	0.12941	1.00000
0.49020	0.12549	1.00000
0.64314	0.12157	1.00000
0.78431	0.11373	1.00000
0.91373	0.10588	1.00000
1.00000	0.09804	1.00000
0.00000	0.26275	1.00000
0.09804	0.26275	1.00000
0.20392	0.25490	1.00000
0.32157	0.25490	1.00000
0.48627	0.25098	1.00000
0.63922	0.24314	1.00000
0.78039	0.23137	1.00000
0.91373	0.21961	1.00000
1.00000	0.20392	1.00000
0.00000	0.39608	1.00000
0.09804	0.39216	1.00000
0.20392	0.39216	1.00000
0.30980	0.38431	1.00000
0.47843	0.37647	1.00000
0.63529	0.36863	1.00000
0.77647	0.35294	1.00000
0.90980	0.33725	1.00000
1.00000	0.30980	1.00000
0.00000	0.55294	1.00000
0.08627	0.55294	1.00000
0.18824	0.55294	1.00000
0.29412	0.54902	1.00000
0.47059	0.54118	1.00000
0.62745	0.53725	1.00000
0.77255	0.52549	1.00000
0.90588	0.51373	1.00000
1.00000	0.49804	1.00000
0.00000	0.70588	1.00000
0.07451	0.70588	1.00000
0.16863	0.70588	1.00000
0.27451	0.70196	1.00000
0.45490	0.69804	1.00000
0.61961	0.69412	1.00000
0.76471	0.68627	1.00000
0.90196	0.67843	1.00000
1.00000	0.67059	1.00000
0.00000	0.84706	1.00000
0.06275	0.84706	1.00000
0.14510	0.84706	1.00000
0.23529	0.84706	1.00000
0.43137	0.84314	1.00000
0.60784	0.83922	1.00000
0.75686	0.83529	1.00000
0.89412	0.82745	1.00000
1.00000	0.82353	1.00000
0.00000	0.98431	1.00000
0.02353	0.98039	1.00000
0.09804	0.98039	1.00000
0.17647	0.98039	1.00000
0.40392	0.98039	1.00000
0.59216	0.97647	1.00000
0.74510	0.97255	1.00000
0.88627	0.96863	1.00000
1.00000	0.96471	1.00000
0.00000	1.00000	1.00000
0.00000	1.00000	1.00000
0.00000	1.00000	1.00000
0.00000	1.00000	1.00000
0.36078	1.00000	1.00000
0.57255	1.00000	1.00000
0.73333	1.00000	1.00000
0.87843	1.00000	1.00000
1.00000	1.00000	1.00000
