LUTGenerator/TEST/CUBE/Seasons/crispwinter_linear_sRGB.cube
TITLE crispwinter_linear_sRGB.cube
LUT_3D_SIZE 17
DOMAIN_MIN 0.0 0.0 0.0
DOMAIN_MAX 1.0 1.0 1.0
0.00000	0.00000	0.00000
0.05882	0.00000	0.00000
0.11765	0.00000	0.00000
0.18039	0.00000	0.00000
0.23922	0.00000	0.00000
0.29804	0.00000	0.00000
0.36078	0.00000	0.00000
0.42745	0.00000	0.00000
0.50980	0.00000	0.00000
0.58431	0.00000	0.00000
0.65490	0.00000	0.00000
0.72549	0.00000	0.00000
0.79216	0.00000	0.00000
0.85882	0.00000	0.00000
0.92157	0.00000	0.00000
0.98824	0.00000	0.00000
1.00000	0.00000	0.00000
0.00000	0.07451	0.00000
0.05098	0.07059	0.00000
0.11373	0.07059	0.00000
0.17647	0.07059	0.00000
0.23529	0.07059	0.00000
0.29804	0.07059	0.00000
0.35686	0.07059	0.00000
0.42745	0.07059	0.00000
0.50980	0.07059	0.00000
0.58431	0.07059	0.00000
0.65490	0.06667	0.00000
0.72549	0.06667	0.00000
0.79216	0.06275	0.00000
0.85882	0.06275	0.00000
0.92157	0.05882	0.00000
0.98431	0.05490	0.00000
1.00000	0.05490	0.00000
0.00000	0.14510	0.00000
0.05098	0.14118	0.00000
0.10980	0.14118	0.00000
0.17255	0.14118	0.00000
0.23529	0.14118	0.00000
0.29412	0.14118	0.00000
0.35686	0.14118	0.00000
0.42745	0.13725	0.00000
0.50980	0.13725	0.00000
0.58431	0.13725	0.00000
0.65490	0.13333	0.00000
0.72549	0.13333	0.00000
0.79216	0.12549	0.00000
0.85882	0.12157	0.00000
0.92157	0.11765	0.00000
0.98431	0.11765	0.00000
1.00000	0.11373	0.00000
0.00000	0.21176	0.00000
0.05098	0.21176	0.00000
0.10980	0.21176	0.00000
0.16863	0.20784	0.00000
0.23137	0.20784	0.00000
0.29412	0.20784	0.00000
0.35294	0.20784	0.00000
0.42353	0.20392	0.00000
0.50588	0.20392	0.00000
0.58039	0.20392	0.00000
0.65490	0.19608	0.00000
0.72549	0.19608	0.00000
0.79216	0.19216	0.00000
0.85882	0.18431	0.00000
0.92157	0.18039	0.00000
0.98431	0.17647	0.00000
1.00000	0.17255	0.00000
0.00000	0.28235	0.00000
0.05098	0.28235	0.00000
0.10980	0.28235	0.00000
0.16863	0.27843	0.00000
0.22353	0.27451	0.00000
0.29020	0.27451	0.00000
0.34902	0.27451	0.00000
0.42353	0.27451	0.00000
0.50588	0.27059	0.00000
0.58039	0.27059	0.00000
0.65098	0.26275	0.00000
0.72549	0.26275	0.00000
0.79216	0.25490	0.00000
0.85490	0.24706	0.00000
0.92157	0.24314	0.00000
0.98431	0.23922	0.00000
1.00000	0.23137	0.00000
0.00000	0.35294	0.00000
0.05098	0.34902	0.00000
0.10980	0.34902	0.00000
0.16863	0.34902	0.00000
0.22353	0.34510	0.00000
0.28235	0.34510	0.00000
0.34510	0.34510	0.00000
0.41961	0.34118	0.00000
0.50196	0.33725	0.00000
0.57647	0.33725	0.00000
0.65098	0.32941	0.00000
0.72157	0.32549	0.00000
0.78824	0.31765	0.00000
0.85490	0.31373	0.00000
0.92157	0.30588	0.00000
0.98431	0.29804	0.00000
1.00000	0.29020	0.00000
0.00000	0.41961	0.00000
0.05098	0.41961	0.00000
0.10980	0.41961	0.00000
0.16863	0.41961	0.00000
0.22353	0.41569	0.00000
0.28235	0.41569	0.00000
0.34118	0.41176	0.00000
0.41176	0.40784	0.00000
0.49804	0.40392	0.00000
0.57647	0.40000	0.00000
0.64706	0.39608	0.00000
0.72157	0.39216	0.00000
0.78824	0.38431	0.00000
0.85490	0.37647	0.00000
0.91765	0.36863	0.00000
0.98039	0.35686	0.00000
1.00000	0.34510	0.00000
0.00000	0.49412	0.00000
0.04706	0.49412	0.00000
0.10196	0.49412	0.00000
0.16078	0.49412	0.00000
0.21961	0.49020	0.00000
0.27843	0.49020	0.00000
0.33725	0.48627	0.00000
0.40784	0.48627	0.00000
0.49412	0.48235	0.00000
0.57255	0.47843	0.00000
0.64706	0.47059	0.00000
0.71765	0.46667	0.00000
0.78431	0.45882	0.00000
0.85098	0.45098	0.00000
0.91765	0.44314	0.00000
0.98039	0.43529	0.00000
1.00000	0.42353	0.00000
0.00000	0.57255	0.00000
0.04706	0.57255	0.00000
0.10196	0.57255	0.00000
0.15686	0.57255	0.00000
0.21176	0.57255	0.00000
0.26667	0.56863	0.00000
0.32549	0.56863	0.00000
0.40000	0.56471	0.00000
0.49020	0.56471	0.00000
0.56863	0.56078	0.00000
0.64314	0.55686	0.00000
0.71373	0.55294	0.00000
0.78431	0.54510	0.00000
0.85098	0.54118	0.00000
0.91373	0.53333	0.00000
0.98039	0.52941	0.00000
1.00000	0.52157	0.00000
0.00000	0.64706	0.00000
0.04706	0.64706	0.00000
0.10196	0.64706	0.00000
0.15686	0.64706	0.00000
0.21176	0.64706	0.00000
0.26275	0.64314	0.00000
0.31765	0.64314	0.00000
0.39216	0.63922	0.00000
0.48235	0.63922	0.00000
0.56078	0.63529	0.00000
0.63922	0.63137	0.00000
0.70980	0.62745	0.00000
0.78039	0.62353	0.00000
0.84706	0.61961	0.00000
0.91373	0.61569	0.00000
0.97647	0.61176	0.00000
1.00000	0.60392	0.00000
0.00000	0.71765	0.00000
0.03922	0.71765	0.00000
0.09020	0.71765	0.00000
0.14118	0.71765	0.00000
0.19216	0.71765	0.00000
0.25098	0.71765	0.00000
0.30588	0.71373	0.00000
0.38039	0.71373	0.00000
0.47451	0.71373	0.00000
0.55686	0.70980	0.00000
0.63137	0.70588	0.00000
0.70588	0.70588	0.00000
0.77647	0.70196	0.00000
0.84314	0.69804	0.00000
0.90980	0.69412	0.00000
0.97255	0.69020	0.00000
1.00000	0.68235	0.00000
0.00000	0.79216	0.00000
0.03922	0.78824	0.00000
0.09020	0.78824	0.00000
0.14118	0.78824	0.00000
0.19216	0.78824	0.00000
0.24314	0.78824	0.00000
0.29412	0.78824	0.00000
0.36863	0.78431	0.00000
0.46667	0.78431	0.00000
0.54902	0.78039	0.00000
0.62745	0.78039	0.00000
0.70196	0.77647	0.00000
0.77255	0.77647	0.00000
0.83922	0.77255	0.00000
0.90588	0.76863	0.00000
0.97255	0.76471	0.00000
1.00000	0.76078	0.00000
0.00000	0.85882	0.00000
0.03137	0.85882	0.00000
0.07843	0.85882	0.00000
0.12941	0.85882	0.00000
0.17647	0.85490	0.00000
0.22353	0.85490	0.00000
0.27451	0.85490	0.00000
0.35294	0.85490	0.00000
0.45490	0.85098	0.00000
0.54118	0.85098	0.00000
0.61961	0.85098	0.00000
0.69804	0.84706	0.00000
0.76863	0.84314	0.00000
0.83529	0.84314	0.00000
0.90196	0.83922	0.00000
0.96863	0.83529	0.00000
1.00000	0.83137	0.00000
0.00000	0.92549	0.00000
0.02745	0.92549	0.00000
0.06667	0.92549	0.00000
0.10980	0.92549	0.00000
0.15294	0.92549	0.00000
0.20392	0.92157	0.00000
0.25490	0.92157	0.00000
0.33725	0.92157	0.00000
0.44314	0.92157	0.00000
0.53333	0.91765	0.00000
0.61569	0.91765	0.00000
0.69020	0.91373	0.00000
0.76078	0.91373	0.00000
0.83137	0.90980	0.00000
0.89804	0.90980	0.00000
0.96471	0.90588	0.00000
1.00000	0.90196	0.00000
0.00000	0.99216	0.00000
0.01961	0.99216	0.00000
0.05098	0.99216	0.00000
0.09412	0.99216	0.00000
0.14118	0.98824	0.00000
0.18824	0.98824	0.00000
0.23137	0.98824	0.00000
0.31373	0.98824	0.00000
0.43137	0.98431	0.00000
0.52157	0.98431	0.00000
0.60392	0.98431	0.00000
0.68235	0.98039	0.00000
0.75686	0.98039	0.00000
0.82745	0.97647	0.00000
0.89412	0.97647	0.00000
0.96078	0.97255	0.00000
1.00000	0.96863	0.00000
0.00000	1.00000	0.00000
0.01176	1.00000	0.00000
0.04314	1.00000	0.00000
0.08627	1.00000	0.00000
0.12549	1.00000	0.00000
0.16078	1.00000	0.00000
0.20000	1.00000	0.00000
0.28627	1.00000	0.00000
0.41176	1.00000	0.00000
0.50980	1.00000	0.00000
0.59608	1.00000	0.00000
0.67451	1.00000	0.00000
0.74902	1.00000	0.00000
0.81961	1.00000	0.00000
0.89020	1.00000	0.00000
0.95686	1.00000	0.00000
1.00000	1.00000	0.00000
0.00000	1.00000	0.00000
0.01176	1.00000	0.00000
0.03137	1.00000	0.00000
0.06275	1.00000	0.00000
0.09412	1.00000	0.00000
0.12157	1.00000	0.00000
0.15294	1.00000	0.00000
0.25490	1.00000	0.00000
0.39216	1.00000	0.00000
0.49804	1.00000	0.00000
0.58431	1.00000	0.00000
0.66667	1.00000	0.00000
0.74510	1.00000	0.00000
0.81569	1.00000	0.00000
0.88627	1.00000	0.00000
0.95294	1.00000	0.00000
1.00000	1.00000	0.00000
0.00000	0.00000	0.10196
0.05490	0.00000	0.09804
0.11765	0.00000	0.09804
0.17647	0.00000	0.09804
0.23922	0.00000	0.09804
0.29804	0.00000	0.09804
0.35686	0.00000	0.09804
0.42745	0.00000	0.09804
0.50980	0.00000	0.09804
0.58431	0.00000	0.09804
0.65490	0.00000	0.09412
0.72549	0.00000	0.09412
0.79216	0.00000	0.09020
0.85882	0.00000	0.09020
0.92157	0.00000	0.08627
0.98431	0.00000	0.08235
1.00000	0.00000	0.08235
0.00000	0.07451	0.09804
0.05098	0.07059	0.09412
0.11373	0.07059	0.09412
0.17647	0.07059	0.09412
0.23529	0.07059	0.09412
0.29804	0.07059	0.09412
0.35686	0.07059	0.09412
0.42745	0.07059	0.09020
0.50980	0.06667	0.09020
0.58431	0.07059	0.09020
0.65490	0.06667	0.09020
0.72549	0.06667	0.09020
0.79216	0.06275	0.08627
0.85882	0.05882	0.08235
0.92157	0.05490	0.08235
0.98431	0.05490	0.07843
1.00000	0.05490	0.07843
0.00000	0.14118	0.09412
0.05098	0.14118	0.09412
0.10980	0.14118	0.09412
0.17255	0.14118	0.09412
0.23529	0.13725	0.09412
0.29412	0.13725	0.09412
0.35686	0.14118	0.09412
0.42745	0.13725	0.09020
0.50980	0.13725	0.09020
0.58431	0.13333	0.09020
0.65490	0.13333	0.09020
0.72549	0.13333	0.09020
0.79216	0.12941	0.08627
0.85882	0.12157	0.08235
0.92157	0.11765	0.08235
0.98431	0.11765	0.07843
1.00000	0.11373	0.07843
0.00000	0.21176	0.09804
0.05098	0.21176	0.09412
0.10980	0.21176	0.09412
0.16863	0.20784	0.09412
0.23137	0.20784	0.09412
0.29412	0.20784	0.09412
0.35294	0.20784	0.09412
0.42745	0.20392	0.09020
0.50588	0.20392	0.09020
0.58039	0.20000	0.09020
0.65490	0.19608	0.09020
0.72549	0.19608	0.09020
0.79216	0.19216	0.08627
0.85882	0.18431	0.08235
0.92157	0.18039	0.08235
0.98431	0.17647	0.07843
1.00000	0.17255	0.07843
0.00000	0.28235	0.09804
0.05098	0.28235	0.09412
0.10980	0.27843	0.09412
0.16863	0.27843	0.09412
0.22353	0.27451	0.09412
0.28627	0.27451	0.09412
0.34902	0.27451	0.09412
0.42353	0.27451	0.09020
0.50588	0.26667	0.09020
0.58039	0.27059	0.09020
0.65098	0.26275	0.09020
0.72549	0.26275	0.09020
0.79216	0.25490	0.08627
0.85490	0.24706	0.08235
0.92157	0.24314	0.08235
0.98431	0.23529	0.07843
1.00000	0.23137	0.07843
0.00000	0.35294	0.09804
0.05098	0.34902	0.09412
0.10980	0.34902	0.09412
0.16863	0.34902	0.09412
0.22353	0.34510	0.09412
0.28235	0.34510	0.09412
0.34510	0.34510	0.09412
0.41961	0.34118	0.09020
0.50196	0.33725	0.09020
0.57647	0.33333	0.09020
0.65098	0.32941	0.09020
0.72157	0.32549	0.09020
0.78824	0.31765	0.08627
0.85490	0.30980	0.08235
0.92157	0.30588	0.08235
0.98431	0.29804	0.07843
1.00000	0.28627	0.07843
0.00000	0.41961	0.09804
0.05098	0.41961	0.09412
0.10980	0.41961	0.09412
0.16863	0.41961	0.09412
0.22353	0.41569	0.09412
0.28235	0.41569	0.09412
0.33725	0.41176	0.09412
0.41569	0.40784	0.09020
0.49804	0.40392	0.09020
0.57647	0.40000	0.09020
0.64706	0.39608	0.09020
0.72157	0.39216	0.09020
0.78824	0.38431	0.08627
0.85490	0.37647	0.08235
0.91765	0.36863	0.08235
0.98039	0.35686	0.07843
1.00000	0.34510	0.07843
0.00000	0.49412	0.09020
0.04706	0.49412	0.09020
0.10196	0.49412	0.09020
0.16078	0.49412	0.09020
0.21961	0.49020	0.09020
0.27843	0.49020	0.09020
0.33725	0.48627	0.09020
0.40784	0.48235	0.08627
0.49412	0.47843	0.08627
0.57255	0.47451	0.08627
0.64706	0.47059	0.08235
0.71765	0.46667	0.08235
0.78431	0.45882	0.08235
0.85098	0.45098	0.07843
0.91765	0.44314	0.07451
0.98039	0.43529	0.07059
1.00000	0.42353	0.07451
0.00000	0.57255	0.09020
0.04706	0.57255	0.09020
0.10196	0.57255	0.09020
0.15686	0.57255	0.09020
0.20784	0.57255	0.09020
0.26667	0.56863	0.09020
0.32549	0.56863	0.09020
0.40000	0.56471	0.08627
0.49020	0.56471	0.08627
0.56863	0.56078	0.08627
0.64314	0.55686	0.08235
0.71373	0.55294	0.08235
0.78431	0.54510	0.08235
0.85098	0.54118	0.07843
0.91373	0.53333	0.07451
0.98039	0.52941	0.07451
1.00000	0.52157	0.07059
0.00000	0.64706	0.09020
0.04706	0.64706	0.09020
0.10196	0.64706	0.09020
0.15686	0.64706	0.09020
0.20784	0.64314	0.09020
0.26275	0.64314	0.09020
0.31765	0.64314	0.09020
0.39216	0.63922	0.08627
0.48235	0.63922	0.08627
0.56078	0.63529	0.08627
0.63922	0.63137	0.08235
0.70980	0.63137	0.08235
0.78039	0.62353	0.08235
0.84706	0.61961	0.07843
0.91373	0.61569	0.07451
0.97647	0.61176	0.07059
1.00000	0.60392	0.07451
0.00000	0.71765	0.08627
0.03922	0.71765	0.08235
0.09020	0.71765	0.08235
0.14118	0.71765	0.08235
0.19216	0.71765	0.08235
0.25098	0.71765	0.08235
0.30588	0.71373	0.08235
0.38039	0.71373	0.08235
0.47451	0.71373	0.08235
0.55686	0.70980	0.08235
0.63137	0.70588	0.07843
0.70588	0.70588	0.07843
0.77647	0.70196	0.07451
0.84314	0.69804	0.07059
0.90980	0.69412	0.07059
0.97255	0.69020	0.06667
1.00000	0.68235	0.06667
0.00000	0.78824	0.08627
0.03922	0.78824	0.08235
0.09020	0.78824	0.08235
0.14118	0.78824	0.08235
0.19216	0.78824	0.08235
0.24314	0.78824	0.08235
0.29412	0.78824	0.08235
0.36863	0.78431	0.08235
0.46667	0.78431	0.08235
0.54902	0.78039	0.08235
0.62745	0.78039	0.07843
0.70196	0.77647	0.07843
0.77255	0.77647	0.07451
0.83922	0.77255	0.07059
0.90588	0.76863	0.07059
0.97255	0.76471	0.06667
1.00000	0.76078	0.06667
0.00000	0.85882	0.08235
0.03137	0.85882	0.07843
0.07843	0.85882	0.07843
0.12549	0.85882	0.07843
0.17647	0.85882	0.07843
0.22353	0.85490	0.07843
0.27451	0.85490	0.07843
0.35294	0.85490	0.07451
0.45490	0.85098	0.07451
0.54118	0.85098	0.07451
0.61961	0.84706	0.07451
0.69804	0.84706	0.07451
0.76863	0.84314	0.07059
0.83529	0.84314	0.06667
0.90196	0.83922	0.06275
0.96863	0.83529	0.05882
1.00000	0.83137	0.05882
0.00000	0.92549	0.07451
0.02353	0.92549	0.07451
0.06667	0.92549	0.07451
0.10980	0.92549	0.07451
0.15294	0.92549	0.07451
0.20392	0.92157	0.07451
0.25490	0.92157	0.07451
0.33725	0.92157	0.07059
0.44314	0.92157	0.07059
0.53333	0.91765	0.07059
0.61569	0.91765	0.06667
0.69020	0.91373	0.06667
0.76078	0.91373	0.06275
0.83137	0.90980	0.05882
0.89804	0.90588	0.05490
0.96471	0.90588	0.05098
1.00000	0.90196	0.05098
0.00000	0.99216	0.07059
0.01569	0.99216	0.06667
0.05098	0.99216	0.06667
0.09412	0.98824	0.06667
0.14118	0.98824	0.06667
0.18824	0.98824	0.06667
0.23137	0.98824	0.06667
0.31373	0.98824	0.06275
0.43137	0.98824	0.06275
0.52157	0.98431	0.06275
0.60784	0.98431	0.05882
0.68235	0.98039	0.05882
0.75686	0.98039	0.05490
0.82745	0.97647	0.05098
0.89412	0.97647	0.04706
0.96078	0.97255	0.04314
1.00000	0.96863	0.04314
0.00000	1.00000	0.06275
0.00784	1.00000	0.05882
0.04314	1.00000	0.05882
0.08235	1.00000	0.05882
0.12157	1.00000	0.05882
0.16078	1.00000	0.05882
0.20000	1.00000	0.05882
0.28627	1.00000	0.05490
0.41176	1.00000	0.05490
0.50980	1.00000	0.05490
0.59608	1.00000	0.05098
0.67843	1.00000	0.05098
0.74902	1.00000	0.04706
0.81961	1.00000	0.04314
0.89020	1.00000	0.03922
0.95686	1.00000	0.03137
1.00000	1.00000	0.03137
0.00000	1.00000	0.06275
0.00784	1.00000	0.05882
0.03137	1.00000	0.05882
0.06275	1.00000	0.05882
0.09020	1.00000	0.05882
0.12157	1.00000	0.05882
0.15294	1.00000	0.05882
0.25098	1.00000	0.05490
0.39216	1.00000	0.05490
0.49804	1.00000	0.05490
0.58431	1.00000	0.05098
0.66667	1.00000	0.05098
0.74118	1.00000	0.04706
0.81569	1.00000	0.04314
0.88627	1.00000	0.03922
0.95294	1.00000	0.03137
1.00000	1.00000	0.03137
0.00000	0.00000	0.18431
0.05882	0.00000	0.18039
0.11765	0.00000	0.18039
0.17647	0.00000	0.18039
0.23922	0.00000	0.18039
0.29804	0.00000	0.18039
0.35686	0.00000	0.18039
0.42745	0.00000	0.17647
0.50980	0.00000	0.17647
0.58431	0.00000	0.17647
0.65490	0.00000	0.17255
0.72549	0.00000	0.17255
0.79216	0.00000	0.16863
0.85882	0.00000	0.16471
0.92157	0.00000	0.16078
0.98431	0.00000	0.16078
1.00000	0.00000	0.15686
0.00000	0.07451	0.18039
0.05098	0.07059	0.18039
0.11373	0.07059	0.17647
0.17647	0.07059	0.17647
0.23529	0.07059	0.17647
0.29804	0.07059	0.17647
0.35686	0.07059	0.17647
0.42745	0.06667	0.17255
0.50980	0.06667	0.17255
0.58431	0.06667	0.17255
0.65490	0.06667	0.17255
0.72549	0.06667	0.17255
0.79216	0.06275	0.16863
0.85882	0.05882	0.16471
0.92157	0.05490	0.16078
0.98431	0.05098	0.15686
1.00000	0.05490	0.15686
0.00000	0.14118	0.17647
0.05098	0.14118	0.17647
0.10980	0.13725	0.17255
0.17255	0.13725	0.17255
0.23529	0.13725	0.17255
0.29412	0.13725	0.17255
0.35686	0.13725	0.17255
0.42745	0.13333	0.16863
0.50980	0.13333	0.16863
0.58431	0.13333	0.16863
0.65490	0.12941	0.16471
0.72549	0.12941	0.16471
0.79216	0.12549	0.16078
0.85882	0.12157	0.15686
0.92157	0.11765	0.15294
0.98431	0.11373	0.15294
1.00000	0.10980	0.14902
0.00000	0.21176	0.17647
0.05098	0.21176	0.17647
0.10980	0.20784	0.17255
0.16471	0.20784	0.17255
0.23137	0.20784	0.17255
0.29412	0.20784	0.17255
0.35294	0.20784	0.17255
0.42353	0.20392	0.16863
0.50588	0.20000	0.16863
0.58039	0.20000	0.16863
0.65490	0.19608	0.16471
0.72549	0.19608	0.16471
0.79216	0.18824	0.16078
0.85882	0.18431	0.15686
0.92157	0.18039	0.15294
0.98431	0.17647	0.15294
1.00000	0.16863	0.14902
0.00000	0.28235	0.17647
0.05098	0.28235	0.17647
0.10980	0.27843	0.17255
0.16471	0.27843	0.17255
0.22353	0.27451	0.17255
0.28627	0.27451	0.17255
0.34902	0.27451	0.17255
0.42353	0.27059	0.16863
0.50588	0.26667	0.16863
0.58039	0.26667	0.16863
0.65098	0.26275	0.16471
0.72157	0.26275	0.16471
0.79216	0.25490	0.16078
0.85490	0.24706	0.15686
0.92157	0.24314	0.15294
0.98431	0.23529	0.15294
1.00000	0.22745	0.14902
0.00000	0.35294	0.17647
0.05098	0.34902	0.17647
0.10980	0.34902	0.17255
0.16471	0.34902	0.17255
0.22353	0.34510	0.17255
0.28235	0.34118	0.17255
0.34510	0.34118	0.17255
0.41961	0.34118	0.16863
0.50196	0.33333	0.16863
0.57647	0.33333	0.16863
0.65098	0.32941	0.16471
0.72157	0.32549	0.16471
0.78824	0.31765	0.16078
0.85490	0.30980	0.15686
0.92157	0.30588	0.15294
0.98431	0.29804	0.15294
1.00000	0.28627	0.14902
0.00000	0.41961	0.17647
0.05098	0.41961	0.17647
0.10980	0.41961	0.17255
0.16471	0.41569	0.17255
0.22353	0.41569	0.17255
0.28235	0.41569	0.17255
0.33725	0.41176	0.17255
0.41176	0.40784	0.16863
0.49804	0.40392	0.16863
0.57647	0.40000	0.16863
0.64706	0.39608	0.16471
0.71765	0.39216	0.16471
0.78824	0.38431	0.16078
0.85490	0.37647	0.15686
0.91765	0.36863	0.15294
0.98039	0.35686	0.15294
1.00000	0.34510	0.14902
0.00000	0.49412	0.16863
0.04706	0.49412	0.16863
0.09804	0.49412	0.16471
0.16078	0.49412	0.16471
0.21961	0.49020	0.16471
0.27843	0.49020	0.16471
0.33725	0.48627	0.16471
0.40784	0.48235	0.16078
0.49412	0.48235	0.16078
0.57255	0.47451	0.16078
0.64706	0.47059	0.15686
0.71765	0.46667	0.15686
0.78431	0.45882	0.15294
0.85098	0.45098	0.14902
0.91765	0.44314	0.14510
0.98039	0.43529	0.14510
1.00000	0.42353	0.14118
0.00000	0.57255	0.16863
0.04706	0.57255	0.16863
0.09804	0.57255	0.16471
0.15294	0.57255	0.16471
0.20784	0.57255	0.16471
0.26667	0.56863	0.16471
0.32549	0.56863	0.16471
0.40000	0.56471	0.16078
0.49020	0.56471	0.16078
0.56471	0.56078	0.16078
0.64314	0.55686	0.15686
0.71373	0.55294	0.15686
0.78431	0.54510	0.15294
0.85098	0.54118	0.14902
0.91373	0.53333	0.14510
0.98039	0.52941	0.14510
1.00000	0.51765	0.14118
0.00000	0.64706	0.16863
0.04706	0.64706	0.16863
0.09804	0.64706	0.16471
0.15294	0.64706	0.16471
0.20784	0.64314	0.16471
0.26275	0.64314	0.16471
0.31765	0.64314	0.16471
0.39216	0.63922	0.16078
0.48235	0.63922	0.16078
0.56078	0.63529	0.16078
0.63922	0.63137	0.15686
0.70980	0.62745	0.15686
0.78039	0.62353	0.15294
0.84706	0.61961	0.14902
0.91373	0.61569	0.14510
0.97647	0.61176	0.14510
1.00000	0.60392	0.14118
0.00000	0.71765	0.16078
0.03922	0.71765	0.16078
0.09020	0.71765	0.15686
0.14118	0.71765	0.15686
0.19216	0.71765	0.15686
0.24706	0.71765	0.15686
0.30588	0.71373	0.15686
0.38039	0.71373	0.15294
0.47451	0.70980	0.15294
0.55686	0.70980	0.15294
0.63137	0.70588	0.14902
0.70588	0.70588	0.14902
0.77647	0.70196	0.14510
0.84314	0.69804	0.14118
0.90980	0.69412	0.13725
0.97255	0.69020	0.13333
1.00000	0.68235	0.12941
0.00000	0.79216	0.16078
0.03922	0.78824	0.16078
0.09020	0.78824	0.15686
0.14118	0.78824	0.15686
0.19216	0.78824	0.15686
0.24314	0.78824	0.15686
0.29412	0.78824	0.15686
0.36863	0.78431	0.15294
0.46667	0.78431	0.15294
0.54902	0.78039	0.15294
0.62745	0.78039	0.14902
0.70196	0.77647	0.14902
0.77255	0.77647	0.14510
0.83922	0.77255	0.14118
0.90588	0.76863	0.13725
0.97255	0.76471	0.13333
1.00000	0.76078	0.12941
0.00000	0.85882	0.15294
0.03137	0.85882	0.15294
0.07843	0.85882	0.14902
0.12549	0.85882	0.14902
0.17255	0.85882	0.14902
0.21961	0.85490	0.14902
0.27451	0.85490	0.14902
0.35294	0.85490	0.14510
0.45490	0.85098	0.14510
0.54118	0.85098	0.14510
0.61961	0.85098	0.14118
0.69804	0.84706	0.14118
0.76863	0.84314	0.13725
0.83529	0.84314	0.12941
0.90196	0.83922	0.12549
0.96863	0.83529	0.12549
1.00000	0.83137	0.12157
0.00000	0.92549	0.14510
0.02353	0.92549	0.14510
0.06667	0.92549	0.14118
0.10980	0.92549	0.14118
0.15294	0.92549	0.14118
0.20392	0.92157	0.14118
0.25490	0.92157	0.14118
0.33725	0.92157	0.13725
0.44314	0.92157	0.13725
0.53333	0.91765	0.13725
0.61569	0.91765	0.13333
0.69020	0.91373	0.13333
0.76078	0.91373	0.12549
0.83137	0.90980	0.12157
0.89804	0.90980	0.11373
0.96471	0.90588	0.11373
1.00000	0.90196	0.10980
0.00000	0.99216	0.13725
0.01569	0.99216	0.13333
0.04706	0.98824	0.13333
0.09412	0.99216	0.13333
0.14118	0.98824	0.13333
0.18824	0.98824	0.13333
0.23137	0.98824	0.13333
0.31373	0.98824	0.12549
0.43137	0.98431	0.12549
0.52157	0.98431	0.12549
0.60392	0.98431	0.12157
0.68235	0.98039	0.12157
0.75686	0.98039	0.11373
0.82745	0.97647	0.10980
0.89412	0.97647	0.10196
0.96078	0.97255	0.09804
1.00000	0.96863	0.09412
0.00000	1.00000	0.13333
0.00784	1.00000	0.12941
0.03922	1.00000	0.12549
0.08235	1.00000	0.12549
0.12157	1.00000	0.12549
0.16078	1.00000	0.12549
0.20000	1.00000	0.12941
0.28627	1.00000	0.12157
0.41176	1.00000	0.12157
0.50980	1.00000	0.12157
0.59608	1.00000	0.11765
0.67843	1.00000	0.11765
0.74902	1.00000	0.10980
0.82353	1.00000	0.10196
0.89020	1.00000	0.09412
0.95686	1.00000	0.09020
1.00000	1.00000	0.08627
0.00000	1.00000	0.12549
0.00784	1.00000	0.12549
0.02745	1.00000	0.12157
0.05882	1.00000	0.12157
0.09020	1.00000	0.12157
0.12157	1.00000	0.12157
0.15294	1.00000	0.12157
0.25098	1.00000	0.11373
0.39216	1.00000	0.11373
0.49804	1.00000	0.11373
0.58431	1.00000	0.10980
0.66667	1.00000	0.10980
0.74510	1.00000	0.10196
0.81569	1.00000	0.09412
0.88627	1.00000	0.08627
0.95294	1.00000	0.08235
1.00000	1.00000	0.07843
0.00000	0.00000	0.26667
0.05882	0.00000	0.26667
0.11765	0.00000	0.26275
0.17647	0.00000	0.26275
0.23529	0.00000	0.26275
0.29804	0.00000	0.26275
0.35686	0.00000	0.26275
0.42745	0.00000	0.25882
0.50980	0.00000	0.25882
0.58431	0.00000	0.25490
0.65490	0.00000	0.25098
0.72549	0.00000	0.25098
0.79216	0.00000	0.24706
0.85882	0.00000	0.24314
0.92157	0.00000	0.23922
0.98431	0.00000	0.23529
1.00000	0.00000	0.23137
0.00000	0.07451	0.26275
0.05098	0.07059	0.26275
0.11373	0.07059	0.26275
0.17255	0.07059	0.25882
0.23529	0.07059	0.25882
0.29804	0.07059	0.25882
0.35686	0.07059	0.25882
0.42745	0.07059	0.25882
0.50980	0.06667	0.25490
0.58431	0.06667	0.25490
0.65490	0.06667	0.25098
0.72549	0.06667	0.25098
0.79216	0.06275	0.24706
0.85882	0.05882	0.23922
0.92157	0.05882	0.23529
0.98431	0.05490	0.23529
