LUTGenerator/TEST/CUBE/Seasons/fallcolors_linear_sRGB.cube
TITLE fallcolors_linear_sRGB.cube
LUT_3D_SIZE 17
DOMAIN_MIN 0.0 0.0 0.0
DOMAIN_MAX 1.0 1.0 1.0
0.21176	0.16863	0.12941
0.22745	0.16863	0.12941
0.25882	0.16471	0.12549
0.29804	0.16078	0.11765
0.34902	0.15294	0.10980
0.40392	0.14510	0.09804
0.45882	0.13725	0.08627
0.51765	0.12157	0.06667
0.58039	0.10588	0.03922
0.63922	0.08627	0.00000
0.69804	0.05098	0.00000
0.76078	0.00000	0.00000
0.82353	0.00000	0.00000
0.88627	0.00000	0.00000
0.94902	0.00000	0.00000
1.00000	0.00000	0.00000
1.00000	0.00000	0.00000
0.22745	0.19216	0.15294
0.22745	0.18824	0.12941
0.25882	0.18431	0.12549
0.29804	0.18039	0.11765
0.34902	0.17647	0.10980
0.40000	0.16863	0.09804
0.45882	0.16078	0.08235
0.51765	0.14902	0.06275
0.58039	0.13333	0.03137
0.63529	0.11765	0.00000
0.69804	0.09412	0.00000
0.76078	0.06275	0.00000
0.82353	0.00000	0.00000
0.88627	0.00000	0.00000
0.94902	0.00000	0.00000
1.00000	0.00000	0.00000
1.00000	0.00000	0.00000
0.25490	0.23137	0.18824
0.25490	0.22353	0.16863
0.25490	0.21569	0.12157
0.29804	0.21176	0.11765
0.34510	0.20784	0.10588
0.40000	0.20000	0.09412
0.45882	0.19608	0.07843
0.51765	0.18431	0.05490
0.57647	0.17255	0.01961
0.63529	0.16078	0.00000
0.69804	0.14510	0.00000
0.76078	0.12549	0.00000
0.82353	0.09804	0.00000
0.88627	0.05490	0.00000
0.94902	0.00000	0.00000
1.00000	0.00000	0.00000
1.00000	0.00000	0.00000
0.29412	0.27843	0.23137
0.29412	0.27451	0.21569
0.29412	0.26667	0.18431
0.29412	0.25490	0.11373
0.34118	0.25098	0.10196
0.39608	0.24706	0.08627
0.45490	0.23922	0.07059
0.51373	0.23137	0.03529
0.57647	0.22353	0.00000
0.63529	0.21569	0.00000
0.69804	0.20392	0.00000
0.76078	0.18824	0.00000
0.82353	0.17255	0.00000
0.88627	0.14902	0.00000
0.94902	0.12157	0.00000
1.00000	0.08235	0.00000
1.00000	0.00392	0.00000
0.34118	0.33333	0.28627
0.34118	0.32941	0.27059
0.34118	0.32549	0.24706
0.34118	0.31765	0.20000
0.34118	0.30196	0.09804
0.39608	0.29804	0.08235
0.45098	0.29412	0.05490
0.51373	0.28627	0.01569
0.57647	0.27843	0.00000
0.63137	0.27059	0.00000
0.69412	0.26275	0.00000
0.75686	0.25098	0.00000
0.81961	0.23922	0.00000
0.88235	0.22745	0.00000
0.94510	0.20784	0.00000
1.00000	0.18824	0.00000
1.00000	0.16078	0.00000
0.37647	0.38039	0.32157
0.37647	0.38039	0.30980
0.37255	0.38039	0.29020
0.37255	0.37647	0.25098
0.36863	0.36471	0.18039
0.39216	0.35294	0.06667
0.44706	0.34902	0.03922
0.50980	0.34510	0.00000
0.57255	0.33725	0.00000
0.63137	0.33333	0.00000
0.69412	0.32549	0.00000
0.75686	0.31765	0.00000
0.81961	0.30588	0.00000
0.88235	0.29412	0.00000
0.94510	0.28235	0.00000
1.00000	0.27059	0.00000
1.00000	0.25490	0.00000
0.39216	0.41176	0.33725
0.39216	0.41176	0.32549
0.38824	0.41176	0.30588
0.38431	0.41569	0.27059
0.37647	0.41961	0.20392
0.39608	0.41176	0.11765
0.44314	0.40784	0.00784
0.50588	0.40392	0.00000
0.56471	0.40000	0.00000
0.62745	0.39216	0.00000
0.69020	0.38431	0.00000
0.75294	0.38039	0.00000
0.81569	0.37255	0.00000
0.87843	0.36471	0.00000
0.94118	0.35294	0.00000
1.00000	0.34510	0.00000
1.00000	0.32941	0.00000
0.41176	0.44706	0.35294
0.41569	0.44706	0.35294
0.41961	0.45098	0.34510
0.42353	0.45490	0.33725
0.41569	0.45882	0.29020
0.41176	0.46275	0.19608
0.43922	0.46667	0.02353
0.49804	0.46275	0.00000
0.56078	0.45882	0.00000
0.61961	0.45490	0.00000
0.68627	0.45098	0.00000
0.74902	0.44314	0.00000
0.81176	0.43529	0.00000
0.87843	0.43137	0.00000
0.94118	0.42353	0.00000
1.00000	0.41176	0.00000
1.00000	0.40392	0.00000
0.43529	0.48235	0.37647
0.43922	0.48235	0.37647
0.44706	0.48627	0.37647
0.45098	0.49020	0.37255
0.45882	0.49412	0.36078
0.45882	0.50588	0.31765
0.45882	0.51765	0.18039
0.49020	0.52549	0.00000
0.55294	0.52157	0.00000
0.61569	0.51765	0.00000
0.67843	0.51373	0.00000
0.74510	0.50588	0.00000
0.80784	0.50196	0.00000
0.87451	0.49412	0.00000
0.93725	0.49020	0.00000
1.00000	0.48235	0.00000
1.00000	0.47451	0.00000
0.45882	0.51765	0.39608
0.46275	0.52157	0.39608
0.46667	0.52157	0.40000
0.47843	0.52549	0.40000
0.49412	0.52549	0.40392
0.50196	0.53725	0.38824
0.49020	0.55686	0.29020
0.50196	0.57255	0.12549
0.54902	0.57647	0.00000
0.60784	0.57647	0.00000
0.67451	0.57255	0.00000
0.73725	0.56863	0.00000
0.80392	0.56471	0.00000
0.86667	0.55686	0.00000
0.93333	0.55294	0.00000
1.00000	0.54510	0.00000
1.00000	0.53725	0.00000
0.48627	0.56078	0.41961
0.48627	0.56078	0.41961
0.49412	0.56078	0.42353
0.50588	0.56471	0.42353
0.51765	0.56863	0.42745
0.52941	0.57255	0.42745
0.52941	0.59216	0.38431
0.52941	0.61569	0.27843
0.54510	0.63529	0.00000
0.60000	0.63529	0.00000
0.66667	0.63529	0.00000
0.73333	0.63137	0.00000
0.79608	0.62745	0.00000
0.86275	0.62353	0.00000
0.92549	0.61569	0.00000
0.99216	0.61176	0.00000
1.00000	0.60392	0.00000
0.51373	0.60392	0.44314
0.51373	0.60392	0.44706
0.52157	0.60392	0.44706
0.52941	0.60784	0.45098
0.54510	0.60784	0.45490
0.56078	0.61176	0.45882
0.57255	0.61961	0.45098
0.57255	0.64314	0.40000
0.57255	0.67451	0.25490
0.59608	0.69412	0.00000
0.65882	0.69804	0.00000
0.72157	0.69412	0.00000
0.79216	0.69020	0.00000
0.85490	0.68627	0.00000
0.92157	0.68235	0.00000
0.98431	0.67843	0.00000
1.00000	0.67059	0.00000
0.54118	0.64706	0.47059
0.54510	0.64706	0.47059
0.54902	0.64706	0.47451
0.55686	0.65098	0.47451
0.56863	0.65098	0.47843
0.58431	0.65490	0.48235
0.60392	0.65882	0.48627
0.61176	0.67451	0.46667
0.61176	0.70196	0.39216
0.61961	0.73333	0.23137
0.65098	0.75686	0.00000
0.71765	0.75686	0.00000
0.78039	0.75294	0.00000
0.85098	0.74902	0.00000
0.91373	0.74510	0.00000
0.98039	0.74118	0.00000
1.00000	0.73725	0.00000
0.57255	0.69020	0.49804
0.57255	0.69412	0.49804
0.58039	0.69412	0.50196
0.58824	0.69412	0.50196
0.60000	0.69804	0.50588
0.61176	0.69804	0.50980
0.63137	0.70196	0.51373
0.65098	0.70980	0.51765
0.65882	0.72549	0.49020
0.65490	0.76078	0.39216
0.66667	0.79608	0.17255
0.70980	0.81961	0.00000
0.77255	0.81569	0.00000
0.83922	0.81176	0.00000
0.90980	0.81176	0.00000
0.97255	0.80784	0.00000
1.00000	0.80392	0.00000
0.60392	0.73725	0.52549
0.60392	0.73725	0.52941
0.61176	0.73725	0.52941
0.61961	0.74118	0.52941
0.62745	0.74118	0.53333
0.64314	0.74510	0.53725
0.65882	0.74902	0.54118
0.67843	0.75294	0.54902
0.69412	0.76078	0.54510
0.69804	0.78431	0.49804
0.69804	0.82353	0.38039
0.71765	0.85882	0.05490
0.76863	0.87843	0.00000
0.83137	0.87843	0.00000
0.89804	0.87451	0.00000
0.96863	0.87059	0.00000
1.00000	0.86667	0.00000
0.63529	0.78431	0.55686
0.63922	0.78431	0.55686
0.64314	0.78431	0.55686
0.65098	0.78431	0.56078
0.65882	0.78824	0.56078
0.67059	0.79216	0.56471
0.68627	0.79216	0.56863
0.70588	0.79608	0.57647
0.72549	0.80000	0.58039
0.74510	0.81176	0.57647
0.74118	0.84706	0.49804
0.74510	0.88627	0.36078
0.77255	0.92157	0.00000
0.82353	0.94118	0.00000
0.89020	0.93725	0.00000
0.95686	0.93333	0.00000
1.00000	0.93333	0.00000
0.66667	0.83137	0.58431
0.67059	0.83137	0.58824
0.67451	0.83137	0.58824
0.68235	0.83137	0.58824
0.69020	0.83529	0.59216
0.70196	0.83529	0.59608
0.71765	0.83922	0.60000
0.73333	0.84314	0.60392
0.75686	0.84706	0.60784
0.77647	0.85098	0.61569
0.78824	0.87059	0.59216
0.78431	0.90980	0.49804
0.79608	0.95294	0.33725
0.82745	0.98824	0.00000
0.88235	1.00000	0.00000
0.94902	1.00000	0.00000
1.00000	0.99608	0.00000
0.21569	0.17647	0.16078
0.23137	0.17647	0.15294
0.26275	0.17647	0.15294
0.30196	0.16863	0.14510
0.34902	0.16471	0.13725
0.40000	0.14902	0.13333
0.45882	0.14118	0.12157
0.51765	0.12157	0.10196
0.58039	0.10588	0.08627
0.63529	0.08235	0.05882
0.69804	0.05098	0.01569
0.76078	0.00000	0.00000
0.82353	0.00000	0.00000
0.88627	0.00000	0.00000
0.94902	0.00000	0.00000
1.00000	0.00000	0.00000
1.00000	0.00000	0.00000
0.21569	0.19216	0.16078
0.22745	0.18824	0.15294
0.25882	0.18431	0.14902
0.29804	0.18039	0.14118
0.34510	0.17647	0.13333
0.40000	0.16471	0.12549
0.45882	0.15686	0.11373
0.51765	0.14902	0.10196
0.58039	0.13333	0.08235
0.63529	0.11765	0.05490
0.69804	0.09412	0.01176
0.76078	0.05882	0.00000
0.82353	0.00000	0.00000
0.88627	0.00000	0.00000
0.94902	0.00000	0.00000
1.00000	0.00000	0.00000
1.00000	0.00000	0.00000
0.24706	0.22745	0.19216
0.25490	0.22353	0.18431
0.25490	0.21569	0.14510
0.29412	0.21176	0.14118
0.34510	0.20784	0.13333
0.40000	0.20000	0.12157
0.45882	0.19216	0.10980
0.51765	0.18431	0.09412
0.58039	0.17647	0.07451
0.63529	0.16078	0.04706
0.69804	0.14510	0.00000
0.76078	0.12549	0.00000
0.82353	0.09804	0.00000
0.88627	0.05098	0.00000
0.94902	0.00000	0.00000
1.00000	0.00000	0.00000
1.00000	0.00000	0.00000
0.28627	0.27843	0.23529
0.29412	0.27451	0.23137
0.29412	0.26667	0.20000
0.29412	0.25490	0.13725
0.34118	0.25098	0.12941
0.39608	0.24706	0.11765
0.45490	0.23922	0.10588
0.51373	0.23137	0.08627
0.57647	0.22353	0.06275
0.63529	0.21569	0.02745
0.69804	0.20392	0.00000
0.76078	0.18824	0.00000
0.82353	0.17255	0.00000
0.88627	0.14902	0.00000
0.94902	0.12157	0.00000
1.00000	0.08235	0.00000
1.00000	0.00392	0.00000
0.33333	0.33333	0.28627
0.34118	0.32941	0.28235
0.34118	0.32549	0.25882
0.34118	0.31765	0.21569
0.34118	0.30196	0.12549
0.39608	0.29804	0.11373
0.45098	0.29412	0.09412
0.51373	0.28627	0.07059
0.57255	0.27843	0.03922
0.63137	0.27059	0.00000
0.69412	0.26275	0.00000
0.75686	0.25098	0.00000
0.81961	0.23922	0.00000
0.88235	0.22745	0.00000
0.94510	0.20784	0.00000
1.00000	0.18824	0.00000
1.00000	0.16078	0.00000
0.37647	0.38039	0.32549
0.38039	0.38039	0.32549
0.37647	0.38431	0.30588
0.37647	0.37647	0.27059
0.37647	0.36471	0.20784
0.39216	0.35294	0.10588
0.44706	0.34902	0.08627
0.50980	0.34510	0.05490
0.57255	0.33725	0.00392
0.63137	0.32941	0.00000
0.69412	0.32549	0.00000
0.75686	0.31765	0.00000
0.81961	0.30588	0.00000
0.88235	0.29412	0.00000
0.94510	0.28235	0.00000
1.00000	0.27059	0.00000
1.00000	0.25098	0.00000
0.39216	0.41176	0.33725
0.40000	0.41176	0.34118
0.39608	0.41569	0.32157
0.38824	0.41569	0.28627
0.38039	0.41961	0.22745
0.39608	0.41176	0.14510
0.44314	0.40784	0.06667
0.50588	0.40392	0.03137
0.56471	0.39608	0.00000
0.62745	0.39216	0.00000
0.69020	0.38824	0.00000
0.75294	0.38039	0.00000
0.81569	0.37255	0.00000
0.87843	0.36471	0.00000
0.94118	0.35294	0.00000
1.00000	0.34118	0.00000
1.00000	0.32941	0.00000
0.41176	0.44706	0.35686
0.41961	0.44706	0.35686
0.41961	0.45098	0.35294
0.42745	0.45490	0.34510
0.41961	0.45882	0.29804
0.41176	0.46275	0.21176
0.44314	0.46667	0.08235
0.49804	0.46275	0.00000
0.56078	0.45882	0.00000
0.61961	0.45490	0.00000
0.68627	0.45098	0.00000
0.74902	0.44314	0.00000
0.81176	0.43529	0.00000
0.87843	0.43137	0.00000
0.94118	0.42353	0.00000
1.00000	0.41176	0.00000
1.00000	0.40392	0.00000
0.43529	0.48235	0.37647
0.43922	0.48235	0.38039
0.44706	0.48627	0.38039
0.45098	0.49020	0.37255
0.45882	0.49412	0.36471
0.46275	0.50588	0.32941
0.46275	0.51765	0.20784
0.49020	0.52549	0.00000
0.55294	0.52157	0.00000
0.61569	0.51765	0.00000
0.67843	0.51373	0.00000
0.74510	0.50588	0.00000
0.80784	0.50196	0.00000
0.87451	0.49412	0.00000
0.93725	0.49020	0.00000
1.00000	0.48235	0.00000
1.00000	0.47451	0.00000
0.45882	0.52157	0.40000
0.46275	0.52157	0.40000
0.47059	0.52157	0.40000
0.47843	0.52549	0.40392
0.49412	0.52549	0.40784
0.50588	0.53333	0.39608
0.49412	0.55686	0.30196
0.50196	0.57255	0.15686
0.54902	0.58039	0.00000
0.60784	0.57647	0.00000
0.67451	0.57255	0.00000
0.73725	0.56863	0.00000
0.80392	0.56078	0.00000
0.86667	0.55686	0.00000
0.93333	0.55294	0.00000
1.00000	0.54510	0.00000
1.00000	0.53725	0.00000
0.48627	0.56078	0.42353
0.48627	0.56078	0.42353
0.49412	0.56471	0.42353
0.50196	0.56471	0.42745
0.51765	0.56863	0.43137
0.53333	0.57255	0.43137
0.53333	0.58824	0.38824
0.53333	0.61176	0.29412
0.54510	0.63529	0.00000
0.60000	0.63529	0.00000
0.66667	0.63529	0.00000
0.73333	0.63137	0.00000
0.79608	0.62745	0.00000
0.86275	0.62353	0.00000
0.92549	0.61569	0.00000
0.99216	0.61176	0.00000
1.00000	0.60392	0.00000
0.51373	0.60392	0.44706
0.51765	0.60392	0.44706
0.52157	0.60392	0.45098
0.52941	0.60784	0.45098
0.54510	0.60784	0.45490
0.56078	0.61176	0.45882
0.57255	0.61961	0.45490
0.57647	0.64314	0.40784
0.57255	0.67451	0.27059
0.59608	0.69412	0.00000
0.65882	0.69804	0.00000
0.72157	0.69412	0.00000
0.79216	0.69020	0.00000
0.85490	0.68627	0.00000
0.92157	0.68235	0.00000
0.98431	0.67843	0.00000
1.00000	0.67059	0.00000
0.54118	0.64706	0.47451
0.54510	0.64706	0.47451
0.54902	0.64706	0.47451
0.55686	0.65098	0.47843
0.57255	0.65490	0.48235
0.58431	0.65490	0.48627
0.60392	0.65882	0.49020
0.61569	0.67059	0.47451
0.61569	0.70196	0.40392
0.61961	0.73333	0.24706
0.65098	0.75686	0.00000
0.71765	0.75686	0.00000
0.78039	0.75294	0.00000
0.85098	0.74902	0.00000
0.91373	0.74510	0.00000
0.98039	0.74118	0.00000
1.00000	0.73725	0.00000
0.57255	0.69020	0.50196
0.57647	0.69412	0.50196
0.58039	0.69412	0.50196
0.58824	0.69412	0.50588
0.60000	0.69804	0.50588
0.61176	0.69804	0.50980
0.63137	0.70196	0.51765
0.65098	0.70980	0.52157
0.65882	0.72549	0.49412
0.65490	0.76078	0.40392
0.66667	0.79608	0.19608
0.70980	0.81961	0.00000
0.77255	0.81569	0.00000
0.83922	0.81176	0.00000
0.90980	0.81176	0.00000
0.97255	0.80784	0.00000
1.00000	0.80392	0.00000
0.60392	0.73725	0.52941
0.60392	0.73725	0.52941
0.61176	0.73725	0.52941
0.61961	0.74118	0.53333
0.62745	0.74118	0.53333
0.64314	0.74510	0.54118
0.65882	0.74902	0.54510
0.67843	0.75294	0.54902
0.69804	0.76078	0.54902
0.69804	0.78431	0.50196
0.70196	0.82353	0.39216
0.71765	0.85882	0.10588
0.76863	0.87843	0.00000
0.83137	0.87843	0.00000
0.89804	0.87451	0.00000
0.96863	0.87059	0.00000
1.00000	0.86667	0.00000
0.63529	0.78431	0.55686
0.63922	0.78431	0.55686
0.64314	0.78431	0.56078
0.65098	0.78431	0.56078
0.65882	0.78824	0.56471
0.67059	0.79216	0.56863
0.68627	0.79216	0.57255
0.70588	0.79608	0.57647
0.72549	0.80000	0.58431
0.74510	0.80784	0.58431
0.74118	0.84706	0.50588
0.74902	0.88627	0.37255
0.77255	0.92157	0.00000
0.82353	0.94118	0.00000
0.89020	0.93725	0.00000
0.95686	0.93333	0.00000
1.00000	0.93333	0.00000
0.67059	0.83137	0.58824
0.67059	0.83137	0.58824
0.67451	0.83137	0.58824
0.68235	0.83137	0.59216
0.69020	0.83529	0.59216
0.70196	0.83529	0.59608
0.71765	0.83922	0.60000
0.73333	0.84314	0.60392
0.75294	0.84706	0.61176
0.77647	0.85098	0.61569
0.78824	0.86667	0.60000
0.78431	0.90980	0.50588
0.79608	0.94902	0.34902
0.82745	0.98824	0.00000
0.88235	1.00000	0.00000
0.94902	1.00000	0.00000
1.00000	0.99608	0.00000
0.22353	0.18824	0.20000
0.23922	0.18824	0.19608
0.26667	0.19216	0.18824
0.30588	0.18824	0.18431
0.35294	0.18039	0.18039
0.40000	0.15686	0.17647
0.45882	0.14902	0.16863
0.51765	0.12157	0.14902
0.58039	0.10588	0.13725
0.63922	0.08235	0.12157
0.69804	0.04706	0.10196
0.76078	0.00000	0.07059
0.82353	0.00000	0.01961
0.88627	0.00000	0.00000
0.94902	0.00000	0.00000
1.00000	0.00000	0.00000
1.00000	0.00000	0.00000
0.22353	0.20392	0.20000
0.23529	0.20000	0.19216
0.26275	0.20000	0.18431
0.30196	0.19608	0.18039
0.34902	0.19216	0.17647
0.40000	0.17647	0.17255
0.45882	0.16471	0.16471
0.51765	0.14902	0.14902
0.58039	0.13333	0.13333
0.63529	0.11765	0.12157
0.69804	0.09412	0.09804
0.76078	0.05882	0.06667
0.82353	0.00000	0.01569
0.88627	0.00000	0.00000
0.94902	0.00000	0.00000
1.00000	0.00000	0.00000
1.00000	0.00000	0.00000
0.22745	0.22745	0.20000
0.23922	0.22353	0.19608
0.25490	0.21569	0.18039
0.29412	0.21176	0.17647
0.34510	0.20784	0.16863
0.40000	0.20000	0.16078
0.45882	0.19216	0.15294
0.51765	0.18431	0.14510
0.57647	0.17255	0.12941
0.63529	0.16078	0.11373
0.69804	0.14510	0.09412
0.76078	0.12549	0.05882
0.82353	0.09412	0.00392
0.88627	0.05098	0.00000
0.94902	0.00000	0.00000
1.00000	0.00000	0.00000
1.00000	0.00000	0.00000
0.27059	0.27843	0.24314
0.27843	0.27451	0.23922
0.29412	0.26667	0.22745
0.29412	0.25490	0.17255
0.34118	0.25098	0.16863
0.39608	0.24706	0.16078
0.45490	0.23922	0.14902
0.51373	0.23137	0.13725
0.57647	0.22353	0.12157
0.63529	0.21569	0.10588
0.69804	0.20392	0.08235
0.76078	0.18824	0.04314
0.82353	0.17255	0.00000
0.88627	0.14902	0.00000
0.94902	0.12157	0.00000
1.00000	0.07843	0.00000
1.00000	0.00000	0.00000
0.32157	0.33333	0.29412
0.32941	0.32941	0.28627
0.34118	0.32549	0.27843
0.34118	0.31765	0.23922
0.33725	0.30196	0.16471
0.39608	0.29804	0.15686
0.45098	0.29020	0.14118
0.51373	0.28627	0.12941
0.57255	0.27843	0.10980
0.63137	0.27059	0.09020
0.69412	0.26275	0.06275
0.75686	0.25098	0.01569
0.81961	0.23922	0.00000
0.88235	0.22353	0.00000
0.94510	0.20784	0.00000
1.00000	0.18824	0.00000
1.00000	0.16078	0.00000
0.37647	0.38039	0.32941
0.38039	0.38039	0.32941
0.38824	0.38431	0.32941
0.38824	0.37647	0.30196
0.38824	0.36471	0.24706
0.38824	0.35294	0.14902
0.44706	0.34902	0.13725
0.50980	0.34510	0.11765
0.57255	0.33725	0.09412
0.63137	0.32941	0.07059
0.69412	0.32549	0.03137
0.75686	0.31373	0.00000
0.81961	0.30588	0.00000
0.88235	0.29412	0.00000
0.94510	0.28235	0.00000
1.00000	0.27059	0.00000
1.00000	0.25098	0.00000
0.39608	0.41176	0.34510
0.40000	0.41176	0.34510
0.40784	0.41569	0.34902
0.40000	0.41569	0.31765
0.39608	0.41961	0.26667
0.39608	0.41176	0.18039
0.44314	0.40784	0.12549
0.50588	0.40392	0.10588
0.56863	0.39608	0.07843
0.62745	0.39216	0.04314
0.69020	0.38431	0.00000
0.75294	0.38039	0.00000
0.81569	0.37255	0.00000
0.87843	0.36471	0.00000
0.94510	0.35294	0.00000
1.00000	0.34118	0.00000
1.00000	0.32941	0.00000
0.41569	0.44706	0.36078
0.41961	0.44706	0.36471
0.42745	0.44706	0.36471
0.43137	0.45098	0.35686
0.42353	0.45490	0.31373
0.41176	0.46275	0.23922
0.44314	0.46667	0.14118
0.49804	0.46275	0.08627
0.56078	0.45882	0.05490
0.61961	0.45490	0.00392
0.68627	0.44706	0.00000
0.74902	0.44314	0.00000
0.81176	0.43529	0.00000
0.87843	0.43137	0.00000
0.94118	0.42353	0.00000
1.00000	0.41176	0.00000
1.00000	0.40392	0.00000
0.43529	0.48235	0.38039
0.43922	0.48235	0.38431
0.44706	0.48627	0.38431
0.45098	0.49020	0.38039
0.45882	0.49412	0.36863
0.46667	0.50196	0.35294
0.47059	0.51373	0.24314
0.49020	0.52549	0.05490
0.55294	0.52157	0.00784
0.61569	0.51765	0.00000
0.67843	0.51373	0.00000
0.74510	0.50588	0.00000
0.80784	0.50196	0.00000
0.87451	0.49412	0.00000
0.93725	0.49020	0.00000
1.00000	0.48235	0.00000
1.00000	0.47451	0.00000
0.45882	0.52157	0.40392
0.46275	0.52157	0.40392
0.47059	0.52157	0.40392
0.47843	0.52549	0.40784
0.49412	0.52941	0.41176
0.50980	0.53333	0.41176
0.49804	0.55294	0.32941
0.50588	0.57255	0.19608
0.54902	0.57647	0.00000
0.60784	0.57647	0.00000
0.67451	0.57255	0.00000
0.73725	0.56863	0.00000
0.80392	0.56078	0.00000
0.86667	0.55686	0.00000
0.93333	0.54902	0.00000
1.00000	0.54510	0.00000
1.00000	0.53725	0.00000
0.48627	0.56078	0.42745
0.49020	0.56078	0.42745
0.49412	0.56471	0.42745
0.50588	0.56471	0.43137
0.51765	0.56863	0.43529
0.53725	0.57255	0.43922
0.53725	0.58824	0.40000
0.53725	0.61176	0.31765
0.54510	0.63529	0.00000
0.60000	0.63529	0.00000
0.66667	0.63529	0.00000
0.73333	0.63137	0.00000
0.79608	0.62745	0.00000
0.86275	0.62353	0.00000
0.92549	0.61569	0.00000
0.99216	0.61176	0.00000
1.00000	0.60392	0.00000
0.51373	0.60392	0.45098
0.51765	0.60392	0.45098
0.52157	0.60392	0.45098
0.52941	0.60784	0.45490
0.54510	0.61176	0.45882
0.56078	0.61176	0.46275
0.57255	0.61961	0.45882
0.58039	0.63922	0.42353
0.57647	0.67059	0.29804
0.60000	0.69412	0.00000
0.65882	0.69804	0.00000
0.72157	0.69412	0.00000
0.79216	0.69020	0.00000
0.85490	0.68627	0.00000
0.92157	0.68235	0.00000
0.98431	0.67843	0.00000
1.00000	0.67059	0.00000
0.54118	0.64706	0.47843
0.54510	0.64706	0.47843
0.54902	0.65098	0.47843
0.56078	0.65098	0.48235
0.57255	0.65490	0.48235
0.58824	0.65490	0.49020
0.60392	0.65882	0.49412
0.61961	0.67059	0.48627
0.61569	0.69804	0.41961
0.61961	0.72941	0.27843
0.65098	0.75686	0.00000
0.71373	0.75686	0.00000
0.78039	0.75294	0.00000
0.85098	0.74902	0.00000
0.91373	0.74510	0.00000
0.98039	0.74118	0.00000
1.00000	0.73725	0.00000
0.57255	0.69020	0.50196
0.57647	0.69412	0.50588
0.58039	0.69412	0.50588
0.58824	0.69412	0.50980
0.60000	0.69804	0.50980
0.61569	0.70196	0.51373
0.63137	0.70588	0.52157
0.65098	0.70980	0.52549
0.66275	0.72157	0.50588
0.65882	0.75686	0.41961
0.67059	0.79608	0.23137
0.70980	0.81961	0.00000
0.77255	0.81569	0.00000
0.83922	0.81176	0.00000
0.90980	0.81176	0.00000
0.97255	0.80784	0.00000
1.00000	0.80392	0.00000
0.60392	0.73725	0.53333
0.60784	0.73725	0.53333
0.61176	0.73725	0.53333
0.61961	0.74118	0.53725
0.62745	0.74118	0.53725
0.64314	0.74510	0.54118
0.65882	0.74902	0.54510
0.67843	0.75294	0.55294
0.70196	0.75686	0.55686
0.70196	0.78431	0.51373
0.70196	0.81961	0.40784
0.72157	0.85882	0.16863
0.76863	0.87843	0.00000
0.83137	0.87843	0.00000
0.89804	0.87451	0.00000
0.96471	0.87059	0.00000
1.00000	0.86667	0.00000
0.63529	0.78431	0.56078
0.63922	0.78431	0.56078
0.64314	0.78431	0.56078
0.65098	0.78824	0.56471
0.65882	0.78824	0.56863
0.67451	0.79216	0.56863
0.68627	0.79216	0.57255
0.70588	0.79608	0.58039
0.72549	0.80000	0.58431
0.74510	0.80784	0.58824
0.74510	0.84314	0.51765
0.74902	0.88627	0.39216
0.77255	0.92157	0.03529
0.82353	0.94118	0.00000
0.89020	0.93725	0.00000
0.95686	0.93333	0.00000
1.00000	0.93333	0.00000
0.67059	0.83137	0.58824
0.67059	0.83137	0.59216
0.67451	0.83137	0.59216
0.68235	0.83137	0.59216
0.69020	0.83529	0.59608
0.70196	0.83529	0.60000
0.71765	0.83922	0.60392
0.73725	0.84314	0.60784
0.75294	0.84706	0.61176
0.77647	0.85098	0.61961
0.79216	0.86667	0.60784
0.78824	0.90980	0.51765
0.79608	0.94902	0.36863
0.82745	0.98824	0.00000
0.88235	1.00000	0.00000
0.94902	1.00000	0.00000
1.00000	0.99608	0.00000
0.23529	0.20784	0.25490
0.25098	0.20784	0.25098
0.27843	0.20784	0.24314
0.31373	0.21176	0.23529
0.36078	0.20784	0.23137
0.40784	0.18824	0.22745
0.45490	0.16078	0.22353
0.51765	0.12157	0.20392
0.58039	0.10196	0.19608
0.63922	0.08235	0.18431
0.69804	0.04314	0.17255
0.76078	0.00000	0.15294
0.82353	0.00000	0.13333
0.88627	0.00000	0.10588
0.94902	0.00000	0.06667
1.00000	0.00000	0.00000
1.00000	0.00000	0.00000
0.23922	0.21961	0.25490
0.24706	0.21569	0.24706
0.27451	0.21569	0.24314
0.30980	0.21961	0.23137
0.35686	0.21569	0.22745
0.40392	0.20000	0.22353
0.45490	0.17647	0.21961
0.51765	0.14510	0.20000
0.58039	0.13333	0.19216
0.63529	0.11765	0.18431
0.69804	0.09020	0.16863
0.76078	0.05490	0.15294
0.82353	0.00000	0.13333
0.88627	0.00000	0.10196
0.94902	0.00000	0.06275
1.00000	0.00000	0.00000
