LUTGenerator/TEST/CUBE/Seasons/fallcolors_linear_sRGB.cube
TITLE fallcolors_linear_sRGB.cube
LUT_3D_SIZE 9
DOMAIN_MIN 0.0 0.0 0.0
DOMAIN_MAX 1.0 1.0 1.0
0.21176	0.16863	0.12941
0.25882	0.16471	0.12549
0.34902	0.15294	0.10980
0.45882	0.13725	0.08627
0.58039	0.10588	0.03922
0.69804	0.05098	0.00000
0.82353	0.00000	0.00000
0.94902	0.00000	0.00000
1.00000	0.00000	0.00000
0.25490	0.23137	0.18824
0.25490	0.21569	0.12157
0.34510	0.20784	0.10588
0.45882	0.19608	0.07843
0.57647	0.17255	0.01961
0.69804	0.14510	0.00000
0.82353	0.09804	0.00000
0.94902	0.00000	0.00000
1.00000	0.00000	0.00000
0.34118	0.33333	0.28627
0.34118	0.32549	0.24706
0.34118	0.30196	0.09804
0.45098	0.29412	0.05490
0.57647	0.27843	0.00000
0.69412	0.26275	0.00000
0.81961	0.23922	0.00000
0.94510	0.20784	0.00000
1.00000	0.16078	0.00000
0.39216	0.41176	0.33725
0.38824	0.41176	0.30588
0.37647	0.41961	0.20392
0.44314	0.40784	0.00784
0.56471	0.40000	0.00000
0.69020	0.38431	0.00000
0.81569	0.37255	0.00000
0.94118	0.35294	0.00000
1.00000	0.32941	0.00000
0.43529	0.48235	0.37647
0.44706	0.48627	0.37647
0.45882	0.49412	0.36078
0.45882	0.51765	0.18039
0.55294	0.52157	0.00000
0.67843	0.51373	0.00000
0.80784	0.50196	0.00000
0.93725	0.49020	0.00000
1.00000	0.47451	0.00000
0.48627	0.56078	0.41961
0.49412	0.56078	0.42353
0.51765	0.56863	0.42745
0.52941	0.59216	0.38431
0.54510	0.63529	0.00000
0.66667	0.63529	0.00000
0.79608	0.62745	0.00000
0.92549	0.61569	0.00000
1.00000	0.60392	0.00000
0.54118	0.64706	0.47059
0.54902	0.64706	0.47451
0.56863	0.65098	0.47843
0.60392	0.65882	0.48627
0.61176	0.70196	0.39216
0.65098	0.75686	0.00000
0.78039	0.75294	0.00000
0.91373	0.74510	0.00000
1.00000	0.73725	0.00000
0.60392	0.73725	0.52549
0.61176	0.73725	0.52941
0.62745	0.74118	0.53333
0.65882	0.74902	0.54118
0.69412	0.76078	0.54510
0.69804	0.82353	0.38039
0.76863	0.87843	0.00000
0.89804	0.87451	0.00000
1.00000	0.86667	0.00000
0.66667	0.83137	0.58431
0.67451	0.83137	0.58824
0.69020	0.83529	0.59216
0.71765	0.83922	0.60000
0.75686	0.84706	0.60784
0.78824	0.87059	0.59216
0.79608	0.95294	0.33725
0.88235	1.00000	0.00000
1.00000	0.99608	0.00000
0.22353	0.18824	0.20000
0.26667	0.19216	0.18824
0.35294	0.18039	0.18039
0.45882	0.14902	0.16863
0.58039	0.10588	0.13725
0.69804	0.04706	0.10196
0.82353	0.00000	0.01961
0.94902	0.00000	0.00000
1.00000	0.00000	0.00000
0.22745	0.22745	0.20000
0.25490	0.21569	0.18039
0.34510	0.20784	0.16863
0.45882	0.19216	0.15294
0.57647	0.17255	0.12941
0.69804	0.14510	0.09412
0.82353	0.09412	0.00392
0.94902	0.00000	0.00000
1.00000	0.00000	0.00000
0.32157	0.33333	0.29412
0.34118	0.32549	0.27843
0.33725	0.30196	0.16471
0.45098	0.29020	0.14118
0.57255	0.27843	0.10980
0.69412	0.26275	0.06275
0.81961	0.23922	0.00000
0.94510	0.20784	0.00000
1.00000	0.16078	0.00000
0.39608	0.41176	0.34510
0.40784	0.41569	0.34902
0.39608	0.41961	0.26667
0.44314	0.40784	0.12549
0.56863	0.39608	0.07843
0.69020	0.38431	0.00000
0.81569	0.37255	0.00000
0.94510	0.35294	0.00000
1.00000	0.32941	0.00000
0.43529	0.48235	0.38039
0.44706	0.48627	0.38431
0.45882	0.49412	0.36863
0.47059	0.51373	0.24314
0.55294	0.52157	0.00784
0.67843	0.51373	0.00000
0.80784	0.50196	0.00000
0.93725	0.49020	0.00000
1.00000	0.47451	0.00000
0.48627	0.56078	0.42745
0.49412	0.56471	0.42745
0.51765	0.56863	0.43529
0.53725	0.58824	0.40000
0.54510	0.63529	0.00000
0.66667	0.63529	0.00000
0.79608	0.62745	0.00000
0.92549	0.61569	0.00000
1.00000	0.60392	0.00000
0.54118	0.64706	0.47843
0.54902	0.65098	0.47843
0.57255	0.65490	0.48235
0.60392	0.65882	0.49412
0.61569	0.69804	0.41961
0.65098	0.75686	0.00000
0.78039	0.75294	0.00000
0.91373	0.74510	0.00000
1.00000	0.73725	0.00000
0.60392	0.73725	0.53333
0.61176	0.73725	0.53333
0.62745	0.74118	0.53725
0.65882	0.74902	0.54510
0.70196	0.75686	0.55686
0.70196	0.81961	0.40784
0.76863	0.87843	0.00000
0.89804	0.87451	0.00000
1.00000	0.86667	0.00000
0.67059	0.83137	0.58824
0.67451	0.83137	0.59216
0.69020	0.83529	0.59608
0.71765	0.83922	0.60392
0.75294	0.84706	0.61176
0.79216	0.86667	0.60784
0.79608	0.94902	0.36863
0.88235	1.00000	0.00000
1.00000	0.99608	0.00000
0.25490	0.23137	0.30980
0.29020	0.23137	0.30588
0.36863	0.23922	0.28627
0.45490	0.17647	0.28235
0.58039	0.10196	0.25490
0.69804	0.03922	0.23529
0.82353	0.00000	0.21176
0.94902	0.00000	0.17647
1.00000	0.00000	0.12157
0.25490	0.26275	0.30980
0.27843	0.25098	0.29804
0.36078	0.25490	0.27843
0.45490	0.21569	0.27451
0.57647	0.17255	0.25098
0.69804	0.14118	0.23137
0.82353	0.09020	0.20784
0.94902	0.00000	0.17255
1.00000	0.00000	0.11373
0.26275	0.32941	0.31373
0.28627	0.32157	0.29804
0.33725	0.29804	0.26667
0.45098	0.29020	0.25490
0.57255	0.27843	0.23922
0.69412	0.25882	0.22353
0.81961	0.23922	0.19608
0.94510	0.20392	0.15686
1.00000	0.15686	0.09412
0.39608	0.41569	0.36471
0.40784	0.41569	0.36863
0.43922	0.42353	0.37255
0.44314	0.40784	0.24706
0.56471	0.39608	0.22745
0.69020	0.38431	0.20392
0.81569	0.36863	0.17255
0.94118	0.35294	0.12941
1.00000	0.32941	0.03529
0.43922	0.48627	0.40000
0.45098	0.48627	0.40000
0.47451	0.49412	0.40784
0.47059	0.51373	0.32549
0.55294	0.51765	0.20784
0.67843	0.50980	0.18039
0.80784	0.50196	0.13725
0.93725	0.49020	0.06667
1.00000	0.47451	0.00000
0.48627	0.56471	0.43922
0.49804	0.56471	0.44314
0.52157	0.56863	0.45098
0.55686	0.57647	0.45882
0.55294	0.63137	0.24706
0.66667	0.63137	0.14118
0.79608	0.62745	0.07451
0.92549	0.61569	0.00000
1.00000	0.60392	0.00000
0.54510	0.64706	0.49020
0.55294	0.65098	0.49020
0.57255	0.65490	0.49804
0.60784	0.66275	0.50588
0.63529	0.68627	0.47451
0.65882	0.74902	0.17647
0.78039	0.75294	0.00000
0.91373	0.74510	0.00000
1.00000	0.73725	0.00000
0.60392	0.73725	0.54118
0.61176	0.74118	0.54510
0.63137	0.74510	0.54902
0.65882	0.74902	0.55686
0.70196	0.75686	0.56863
0.71373	0.81176	0.46667
0.76863	0.87843	0.00000
0.89804	0.87451	0.00000
1.00000	0.86667	0.00000
0.67059	0.83137	0.60000
0.67843	0.83137	0.60000
0.69412	0.83529	0.60392
0.71765	0.83922	0.61176
0.75686	0.84706	0.62353
0.79608	0.86275	0.62353
0.80392	0.94118	0.43529
0.88235	1.00000	0.00000
1.00000	0.99608	0.00000
0.26667	0.24314	0.41176
0.29804	0.24706	0.40392
0.37255	0.25098	0.38824
0.46667	0.26275	0.37255
0.56471	0.21961	0.38431
0.69020	0.10196	0.37255
0.82353	0.00000	0.35294
0.94902	0.00000	0.33333
1.00000	0.00000	0.30980
0.26667	0.27451	0.41176
0.29412	0.27451	0.41176
0.36863	0.27843	0.39608
0.46667	0.29020	0.37647
0.56863	0.24314	0.37647
0.69020	0.16863	0.37255
0.82353	0.08235	0.34902
0.94902	0.00000	0.32941
1.00000	0.00000	0.30588
0.26667	0.34118	0.41176
0.29412	0.34118	0.41176
0.36078	0.34118	0.41176
0.47059	0.34510	0.38039
0.56863	0.28627	0.37647
0.69412	0.25882	0.35686
0.81961	0.23529	0.34118
0.94510	0.20392	0.32549
1.00000	0.15294	0.30196
0.26667	0.42745	0.41176
0.30588	0.42745	0.41176
0.38431	0.42745	0.40784
0.43922	0.40392	0.36863
0.56471	0.39216	0.35686
0.69020	0.38431	0.34902
0.81569	0.36863	0.33333
0.94118	0.34902	0.31373
1.00000	0.32549	0.28627
0.41176	0.49804	0.42745
0.42745	0.49804	0.43137
0.47843	0.49804	0.43922
0.51373	0.50588	0.44314
0.55294	0.51765	0.34902
0.67843	0.50980	0.33333
0.80784	0.49804	0.31373
0.93725	0.48627	0.29412
1.00000	0.47059	0.26667
0.49020	0.56471	0.46667
0.50196	0.56863	0.47059
0.52549	0.57255	0.47451
0.56078	0.58039	0.48627
0.57255	0.61961	0.41176
0.66275	0.63137	0.31765
0.79608	0.62353	0.29412
0.92941	0.61569	0.26667
1.00000	0.60392	0.23529
0.54902	0.65098	0.51373
0.55686	0.65098	0.51373
0.57647	0.65882	0.52157
0.60784	0.66275	0.52941
0.64706	0.68235	0.52549
0.66275	0.74510	0.35686
0.78039	0.75294	0.26667
0.91373	0.74510	0.23137
1.00000	0.73725	0.19216
0.60784	0.74118	0.56471
0.61569	0.74118	0.56471
0.63529	0.74510	0.56863
0.66275	0.75294	0.57647
0.70588	0.76078	0.58824
0.72941	0.79608	0.54902
0.76863	0.87451	0.24706
0.89804	0.87451	0.17647
1.00000	0.86667	0.10196
0.67451	0.83529	0.61961
0.67843	0.83529	0.61961
0.69412	0.83922	0.62353
0.72157	0.84314	0.63137
0.76078	0.85098	0.63922
0.80392	0.85882	0.65098
0.81569	0.92941	0.52941
0.88235	1.00000	0.01569
1.00000	0.99608	0.00000
0.26667	0.24706	0.51373
0.29412	0.24314	0.51373
0.36078	0.24314	0.51373
0.46275	0.25882	0.48627
0.56863	0.27451	0.46667
0.66275	0.27059	0.48627
0.79608	0.13725	0.49412
0.94118	0.00000	0.47451
1.00000	0.00000	0.45882
0.26667	0.27451	0.51373
0.29412	0.27451	0.51373
0.36078	0.27451	0.51373
0.45882	0.28627	0.49020
0.56863	0.29804	0.46667
0.66275	0.29412	0.49020
0.80000	0.17255	0.49412
0.94510	0.00000	0.47059
1.00000	0.00000	0.45882
0.26667	0.34118	0.51373
0.29412	0.34118	0.51373
0.36078	0.34118	0.51373
0.45882	0.34510	0.49804
0.57255	0.35686	0.47059
0.66667	0.33333	0.49412
0.80784	0.25882	0.48627
0.94510	0.19608	0.46667
1.00000	0.14510	0.45098
0.26275	0.42745	0.51373
0.29412	0.42745	0.51373
0.36078	0.42745	0.51373
0.44706	0.42745	0.51373
0.57255	0.43529	0.47843
0.67843	0.39608	0.48627
0.81176	0.36863	0.47451
0.94118	0.34902	0.45882
1.00000	0.32549	0.44314
0.26275	0.52941	0.51373
0.29412	0.52941	0.51373
0.36078	0.52941	0.51373
0.46275	0.52549	0.50980
0.55294	0.51373	0.48235
0.67843	0.50588	0.47059
0.80784	0.49804	0.46275
0.93725	0.48627	0.44706
1.00000	0.47059	0.43137
0.43137	0.59608	0.50980
0.45098	0.59216	0.50980
0.50196	0.58824	0.51373
0.56471	0.58824	0.52157
0.61569	0.59608	0.53333
0.66275	0.63137	0.46275
0.79608	0.62353	0.44706
0.92941	0.61176	0.43137
1.00000	0.60392	0.41569
0.54510	0.65882	0.54510
0.56078	0.65490	0.54902
0.58039	0.65882	0.55294
0.61569	0.66667	0.56078
0.65882	0.67843	0.57255
0.67843	0.72549	0.51765
0.78039	0.74902	0.43137
0.91373	0.74510	0.41569
1.00000	0.73333	0.39216
0.61176	0.74510	0.59216
0.61961	0.74510	0.59608
0.63922	0.74902	0.60000
0.66667	0.75294	0.60784
0.70980	0.76471	0.61569
0.75686	0.77255	0.62745
0.77255	0.86275	0.45490
0.89412	0.87059	0.39216
1.00000	0.86667	0.36471
0.67843	0.83529	0.64314
0.68235	0.83529	0.64706
0.69804	0.83922	0.65098
0.72549	0.84706	0.65490
0.76078	0.85098	0.66667
0.80784	0.86275	0.67843
0.83529	0.90588	0.63529
0.88235	1.00000	0.35686
1.00000	0.99216	0.32941
0.26667	0.24314	0.61961
0.29412	0.24706	0.62353
0.36078	0.24314	0.61961
0.44706	0.24314	0.62353
0.56471	0.27059	0.57255
0.67059	0.29020	0.56078
0.77647	0.29412	0.57255
0.89804	0.20784	0.60392
1.00000	0.00000	0.60000
0.26667	0.27451	0.62353
0.29412	0.27451	0.62353
0.36078	0.27451	0.61961
0.44706	0.27451	0.61961
0.56471	0.29412	0.57647
0.67451	0.31373	0.56078
0.77647	0.31765	0.57647
0.90196	0.23137	0.60784
1.00000	0.00000	0.60000
0.26667	0.34118	0.62353
0.29412	0.34118	0.62353
0.36078	0.34118	0.62353
0.44706	0.34118	0.62353
0.56078	0.34902	0.58824
0.67451	0.36863	0.56471
0.77647	0.36863	0.58431
0.90588	0.28627	0.60784
1.00000	0.17255	0.59216
0.26275	0.42745	0.61961
0.29412	0.42745	0.62353
0.36078	0.42745	0.62353
0.44706	0.42745	0.62353
0.55294	0.43137	0.60784
0.67843	0.44314	0.56863
0.78039	0.43137	0.59216
0.92157	0.36863	0.60000
1.00000	0.32157	0.58431
0.26275	0.52941	0.61961
0.29412	0.52941	0.61961
0.36078	0.52941	0.62353
0.44706	0.52941	0.61961
0.54902	0.52941	0.62353
0.68627	0.53725	0.57255
0.79216	0.50588	0.60392
0.93333	0.48235	0.58824
1.00000	0.46667	0.57647
0.26275	0.63529	0.62353
0.29412	0.63529	0.61961
0.36078	0.63529	0.61961
0.44706	0.63529	0.61961
0.54902	0.63529	0.61961
0.66275	0.62745	0.59608
0.79608	0.61961	0.58431
0.92549	0.61176	0.57647
1.00000	0.60000	0.56471
0.44706	0.70588	0.60784
0.46667	0.70196	0.60392
0.50980	0.69804	0.60784
0.58431	0.69020	0.60784
0.66667	0.68235	0.61176
0.71765	0.69412	0.62353
0.78039	0.74902	0.57647
0.91373	0.74118	0.56078
1.00000	0.73333	0.54902
0.58824	0.76471	0.63137
0.60000	0.76078	0.63137
0.63137	0.76078	0.63529
0.67451	0.76078	0.64314
0.71373	0.76863	0.65098
0.76078	0.77647	0.66275
0.79216	0.83529	0.61961
0.89412	0.87059	0.54902
1.00000	0.86275	0.53333
0.68235	0.83922	0.67843
0.69020	0.83922	0.67843
0.70588	0.84314	0.68235
0.72941	0.84706	0.69020
0.76863	0.85490	0.69804
0.81176	0.86667	0.70980
0.86275	0.87843	0.72549
0.88627	0.98039	0.56863
1.00000	0.99216	0.51373
0.26275	0.24314	0.73725
0.29412	0.24314	0.73725
0.36078	0.24314	0.73725
0.44706	0.24314	0.73725
0.54902	0.24706	0.73333
0.67059	0.28627	0.67843
0.78039	0.30980	0.66275
0.89412	0.32157	0.67059
0.99608	0.28627	0.70588
0.26275	0.27451	0.73725
0.29412	0.27451	0.73725
0.36078	0.27451	0.73725
0.44706	0.27451	0.73725
0.54902	0.27451	0.73725
0.67059	0.30980	0.67843
0.78431	0.32941	0.66275
0.89412	0.34510	0.67059
1.00000	0.30588	0.70980
0.26667	0.34118	0.73725
0.29412	0.34118	0.73725
0.36078	0.34118	0.73725
0.44706	0.34118	0.73725
0.54902	0.34118	0.73725
0.67059	0.36078	0.68627
0.78431	0.38039	0.66667
0.89412	0.39216	0.67451
1.00000	0.34902	0.71373
0.26275	0.42745	0.73725
0.29412	0.42745	0.73725
0.36078	0.42745	0.73725
0.44706	0.42745	0.73725
0.54902	0.42745	0.73725
0.66667	0.43922	0.70196
0.78824	0.45490	0.67059
0.89412	0.46275	0.67843
1.00000	0.41176	0.72157
0.26275	0.52941	0.73725
0.29412	0.52941	0.73725
0.36078	0.52941	0.73725
0.44706	0.52941	0.73725
0.54902	0.52941	0.73725
0.65490	0.52941	0.72941
0.79608	0.54510	0.67451
0.89412	0.54118	0.69804
1.00000	0.49412	0.72157
0.26275	0.63529	0.73725
0.29412	0.63529	0.73725
0.36078	0.63529	0.73725
0.44706	0.63529	0.73725
0.54902	0.63529	0.73725
0.65098	0.63529	0.73725
0.80000	0.63922	0.68235
0.90196	0.62353	0.71765
1.00000	0.59608	0.70980
0.26275	0.74902	0.73725
0.29412	0.74902	0.73725
0.36078	0.74510	0.73725
0.44706	0.74902	0.73725
0.54902	0.74902	0.73725
0.65098	0.74510	0.73725
0.78039	0.74510	0.71765
0.91765	0.74118	0.70588
1.00000	0.72941	0.69804
0.44706	0.82353	0.71765
0.46667	0.82353	0.71373
0.51373	0.81961	0.71373
0.58824	0.81176	0.71373
0.67451	0.80000	0.70980
0.76078	0.78824	0.70980
0.82745	0.79608	0.72157
0.89412	0.87059	0.69804
1.00000	0.86275	0.68627
0.61569	0.88235	0.72549
0.62745	0.87843	0.72549
0.65882	0.87843	0.72941
0.71373	0.86667	0.73333
0.77255	0.85882	0.74118
0.81569	0.87059	0.74902
0.87059	0.88235	0.76471
0.90588	0.94118	0.73725
1.00000	0.99216	0.67451
0.26667	0.24314	0.85490
0.29412	0.24314	0.85490
0.36078	0.24314	0.85490
0.44706	0.24314	0.85490
0.54902	0.24314	0.85490
0.65098	0.24706	0.85490
0.78039	0.30980	0.77647
0.89412	0.32941	0.77255
1.00000	0.34902	0.77647
0.26667	0.27451	0.85490
0.29412	0.27451	0.85490
0.36078	0.27451	0.85490
0.44706	0.27451	0.85490
0.54902	0.27451	0.85490
0.65098	0.27451	0.85490
0.78039	0.32941	0.78039
0.89412	0.34902	0.77255
1.00000	0.36863	0.77647
0.26275	0.34118	0.85490
0.29412	0.34118	0.85490
0.36078	0.34118	0.85490
0.44706	0.34118	0.85490
0.54902	0.34118	0.85490
0.65098	0.34118	0.85490
0.78431	0.38039	0.78431
0.89804	0.40000	0.77255
1.00000	0.41176	0.77647
0.26275	0.42745	0.85490
0.29412	0.42745	0.85490
0.36078	0.42745	0.85490
0.44706	0.42745	0.85490
0.54902	0.42745	0.85490
0.65098	0.42745	0.85490
0.78039	0.45098	0.79608
0.90196	0.47059	0.77647
1.00000	0.48235	0.78039
0.26275	0.52941	0.85490
0.29412	0.52941	0.85490
0.36078	0.52941	0.85490
0.44706	0.52941	0.85490
0.54902	0.52941	0.85490
0.65098	0.52941	0.85490
0.77647	0.53725	0.81961
0.90588	0.55686	0.78039
1.00000	0.56471	0.78431
0.26275	0.63529	0.85490
0.29412	0.63529	0.85490
0.36078	0.63529	0.85490
0.44706	0.63529	0.85490
0.54902	0.63529	0.85490
0.65098	0.63529	0.85490
0.76471	0.63529	0.84706
0.90980	0.65098	0.78431
1.00000	0.65098	0.80392
0.26275	0.74902	0.85490
0.29412	0.74510	0.85490
0.36078	0.74510	0.85490
0.44706	0.74902	0.85490
0.54902	0.74510	0.85490
0.65098	0.74902	0.85490
0.75686	0.74510	0.85490
0.91765	0.75294	0.79216
1.00000	0.74118	0.83922
0.26275	0.86275	0.85490
0.29412	0.86275	0.85490
0.35686	0.86275	0.85490
0.44706	0.86275	0.85490
0.54902	0.86275	0.85490
0.65098	0.86275	0.85490
0.75686	0.86275	0.85490
0.89804	0.86667	0.83922
1.00000	0.86275	0.82745
0.44314	0.94510	0.83137
0.46275	0.94510	0.83137
0.50980	0.94118	0.83137
0.58039	0.93725	0.82745
0.67059	0.92941	0.82353
0.76863	0.91373	0.81961
0.87059	0.89412	0.81176
0.93725	0.90196	0.82353
1.00000	0.98824	0.82353
0.26275	0.24314	0.97647
0.29412	0.24314	0.97647
0.36078	0.24314	0.97647
0.44706	0.24314	0.97647
0.54902	0.24314	0.97647
0.65098	0.24314	0.97647
0.76078	0.25490	0.96863
0.89412	0.32941	0.88235
1.00000	0.35294	0.87843
0.26275	0.27451	0.97647
0.29412	0.27451	0.97647
0.36078	0.27451	0.97647
0.44706	0.27451	0.97647
0.54902	0.27451	0.97647
0.65098	0.27451	0.97647
0.76078	0.28235	0.96863
0.89412	0.35294	0.88627
1.00000	0.37255	0.87843
0.26275	0.34118	0.97647
0.29412	0.34118	0.97647
0.36078	0.34118	0.97647
0.44706	0.34118	0.97647
0.54902	0.34118	0.97647
0.65098	0.34118	0.97647
0.75686	0.34118	0.97647
0.89412	0.39608	0.89020
1.00000	0.41961	0.88235
0.26275	0.42745	0.97647
0.29412	0.42745	0.97647
0.36078	0.42745	0.97647
0.44706	0.42745	0.97647
0.54902	0.42745	0.97647
0.65098	0.42745	0.97647
0.75686	0.42745	0.97647
0.89412	0.46667	0.90196
1.00000	0.48627	0.88235
0.26275	0.52941	0.97647
0.29412	0.52941	0.97647
0.36078	0.52941	0.97647
0.44706	0.52941	0.97647
0.54902	0.52941	0.97647
0.65098	0.52941	0.97647
0.75686	0.52941	0.97647
0.89412	0.54902	0.91765
1.00000	0.56863	0.88627
0.26275	0.63529	0.97647
0.29412	0.63529	0.97647
0.36078	0.63529	0.97647
0.44706	0.63529	0.97647
0.54902	0.63529	0.97647
0.65098	0.63529	0.97647
0.75686	0.63529	0.97647
0.88627	0.64314	0.94118
1.00000	0.65882	0.89020
0.26275	0.74510	0.97647
0.29412	0.74510	0.97647
0.36078	0.74902	0.97647
0.44706	0.74510	0.97647
0.54902	0.74510	0.97647
0.65098	0.74510	0.97647
0.75686	0.74510	0.97647
0.87059	0.74510	0.97647
1.00000	0.76078	0.89804
0.26275	0.86275	0.97647
0.29412	0.86275	0.97647
0.35686	0.86275	0.97647
0.44706	0.86275	0.97647
0.54510	0.86275	0.97647
0.65098	0.86275	0.97647
0.75686	0.86275	0.97647
0.86667	0.86275	0.97647
1.00000	0.86667	0.90588
0.26275	0.97647	0.97647
0.29412	0.97647	0.97647
0.35686	0.97647	0.97647
0.44706	0.97647	0.97647
0.54510	0.97647	0.97647
0.65098	0.97647	0.97647
0.75686	0.97647	0.97647
0.86667	0.97647	0.97647
1.00000	0.98824	0.96471
