LUTGenerator/TEST/CUBE/Seasons/fallcolors_linear_sRGB.cube
TITLE fallcolors_linear_sRGB.cube
LUT_3D_SIZE 5
DOMAIN_MIN 0.0 0.0 0.0
DOMAIN_MAX 1.0 1.0 1.0
0.21176	0.16863	0.12941
0.34902	0.15294	0.10980
0.58039	0.10588	0.03922
0.82353	0.00000	0.00000
1.00000	0.00000	0.00000
0.34118	0.33333	0.28627
0.34118	0.30196	0.09804
0.57647	0.27843	0.00000
0.81961	0.23922	0.00000
1.00000	0.16078	0.00000
0.43529	0.48235	0.37647
0.45882	0.49412	0.36078
0.55294	0.52157	0.00000
0.80784	0.50196	0.00000
1.00000	0.47451	0.00000
0.54118	0.64706	0.47059
0.56863	0.65098	0.47843
0.61176	0.70196	0.39216
0.78039	0.75294	0.00000
1.00000	0.73725	0.00000
0.66667	0.83137	0.58431
0.69020	0.83529	0.59216
0.75686	0.84706	0.60784
0.79608	0.95294	0.33725
1.00000	0.99608	0.00000
0.25490	0.23137	0.30980
0.36863	0.23922	0.28627
0.58039	0.10196	0.25490
0.82353	0.00000	0.21176
1.00000	0.00000	0.12157
0.26275	0.32941	0.31373
0.33725	0.29804	0.26667
0.57255	0.27843	0.23922
0.81961	0.23922	0.19608
1.00000	0.15686	0.09412
0.43922	0.48627	0.40000
0.47451	0.49412	0.40784
0.55294	0.51765	0.20784
0.80784	0.50196	0.13725
1.00000	0.47451	0.00000
0.54510	0.64706	0.49020
0.57255	0.65490	0.49804
0.63529	0.68627	0.47451
0.78039	0.75294	0.00000
1.00000	0.73725	0.00000
0.67059	0.83137	0.60000
0.69412	0.83529	0.60392
0.75686	0.84706	0.62353
0.80392	0.94118	0.43529
1.00000	0.99608	0.00000
0.26667	0.24706	0.51373
0.36078	0.24314	0.51373
0.56863	0.27451	0.46667
0.79608	0.13725	0.49412
1.00000	0.00000	0.45882
0.26667	0.34118	0.51373
0.36078	0.34118	0.51373
0.57255	0.35686	0.47059
0.80784	0.25882	0.48627
1.00000	0.14510	0.45098
0.26275	0.52941	0.51373
0.36078	0.52941	0.51373
0.55294	0.51373	0.48235
0.80784	0.49804	0.46275
1.00000	0.47059	0.43137
0.54510	0.65882	0.54510
0.58039	0.65882	0.55294
0.65882	0.67843	0.57255
0.78039	0.74902	0.43137
1.00000	0.73333	0.39216
0.67843	0.83529	0.64314
0.69804	0.83922	0.65098
0.76078	0.85098	0.66667
0.83529	0.90588	0.63529
1.00000	0.99216	0.32941
0.26275	0.24314	0.73725
0.36078	0.24314	0.73725
0.54902	0.24706	0.73333
0.78039	0.30980	0.66275
0.99608	0.28627	0.70588
0.26667	0.34118	0.73725
0.36078	0.34118	0.73725
0.54902	0.34118	0.73725
0.78431	0.38039	0.66667
1.00000	0.34902	0.71373
0.26275	0.52941	0.73725
0.36078	0.52941	0.73725
0.54902	0.52941	0.73725
0.79608	0.54510	0.67451
1.00000	0.49412	0.72157
0.26275	0.74902	0.73725
0.36078	0.74510	0.73725
0.54902	0.74902	0.73725
0.78039	0.74510	0.71765
1.00000	0.72941	0.69804
0.61569	0.88235	0.72549
0.65882	0.87843	0.72941
0.77255	0.85882	0.74118
0.87059	0.88235	0.76471
1.00000	0.99216	0.67451
0.26275	0.24314	0.97647
0.36078	0.24314	0.97647
0.54902	0.24314	0.97647
0.76078	0.25490	0.96863
1.00000	0.35294	0.87843
0.26275	0.34118	0.97647
0.36078	0.34118	0.97647
0.54902	0.34118	0.97647
0.75686	0.34118	0.97647
1.00000	0.41961	0.88235
0.26275	0.52941	0.97647
0.36078	0.52941	0.97647
0.54902	0.52941	0.97647
0.75686	0.52941	0.97647
1.00000	0.56863	0.88627
0.26275	0.74510	0.97647
0.36078	0.74902	0.97647
0.54902	0.74510	0.97647
0.75686	0.74510	0.97647
1.00000	0.76078	0.89804
0.26275	0.97647	0.97647
0.35686	0.97647	0.97647
0.54510	0.97647	0.97647
0.75686	0.97647	0.97647
1.00000	0.98824	0.96471
