LUTGenerator/TEST/CUBE/Duotone/Blue/Duotone_Blue_Medium_sRGB.cube
TITLE Duotone_Blue_Medium_17_10.cube
LUT_3D_SIZE 5
DOMAIN_MIN 0.0 0.0 0.0
DOMAIN_MAX 1.0 1.0 1.0
0.02353	0.03137	0.08235
0.10588	0.12157	0.18039
0.28235	0.29804	0.36078
0.45882	0.46667	0.51765
0.61176	0.61961	0.65490
0.24314	0.25490	0.32157
0.28235	0.29804	0.36078
0.39216	0.40392	0.45882
0.52157	0.52941	0.57255
0.65098	0.65882	0.69020
0.52549	0.53333	0.58039
0.54118	0.55294	0.59608
0.58824	0.59608	0.63529
0.66275	0.66667	0.69804
0.74902	0.75294	0.77647
0.74510	0.74902	0.77255
0.75294	0.75686	0.78039
0.77647	0.78039	0.80000
0.81176	0.81569	0.83137
0.86275	0.86667	0.87843
0.90980	0.91373	0.92157
0.91765	0.91765	0.92549
0.92941	0.92941	0.93725
0.94902	0.94902	0.95686
0.98039	0.98039	0.98039
0.04314	0.05098	0.10588
0.12549	0.13725	0.20392
0.29412	0.30980	0.37255
0.46667	0.47451	0.52549
0.61569	0.62353	0.65882
0.25098	0.26667	0.32941
0.29412	0.30980	0.37255
0.39608	0.40784	0.46275
0.52549	0.53725	0.58039
0.65490	0.65882	0.69020
0.52941	0.54118	0.58431
0.54902	0.55686	0.60000
0.59216	0.60000	0.63922
0.66275	0.67059	0.70196
0.74902	0.75686	0.77647
0.74902	0.75294	0.77647
0.75686	0.76078	0.78431
0.77647	0.78039	0.80000
0.81569	0.81961	0.83529
0.86275	0.86667	0.87843
0.91373	0.91373	0.92157
0.91765	0.92157	0.92549
0.92941	0.92941	0.93725
0.95294	0.95294	0.95686
0.98039	0.98039	0.98039
0.11765	0.12941	0.19216
0.18039	0.19608	0.26275
0.32549	0.34118	0.40000
0.48235	0.49412	0.54118
0.62745	0.63529	0.67059
0.28627	0.30196	0.36471
0.32941	0.34118	0.40000
0.41569	0.42745	0.48235
0.54118	0.55294	0.59608
0.66275	0.67059	0.69804
0.54510	0.55294	0.59608
0.56078	0.56863	0.61176
0.60392	0.61176	0.65098
0.67451	0.68235	0.70980
0.75686	0.76078	0.78431
0.75686	0.76078	0.78039
0.76078	0.76863	0.78824
0.78039	0.78431	0.80392
0.81961	0.82353	0.83922
0.87059	0.87059	0.88235
0.91765	0.91765	0.92549
0.91765	0.92157	0.92941
0.93333	0.93333	0.94118
0.95686	0.95686	0.96078
0.98431	0.98431	0.98431
0.21961	0.23137	0.29804
0.26275	0.27451	0.34118
0.37647	0.39216	0.44706
0.51373	0.52157	0.56471
0.64314	0.65098	0.68235
0.34510	0.36078	0.41961
0.37647	0.39216	0.44706
0.45882	0.47059	0.51765
0.56863	0.57647	0.61961
0.67843	0.68627	0.71373
0.57255	0.58039	0.61961
0.58431	0.59216	0.62745
0.62745	0.63529	0.66667
0.69020	0.69804	0.72549
0.76863	0.77255	0.79216
0.76471	0.76863	0.79216
0.77255	0.77647	0.79608
0.79216	0.79608	0.81569
0.82745	0.83137	0.84314
0.87843	0.87843	0.89020
0.92157	0.92549	0.92941
0.92549	0.92941	0.93333
0.93725	0.93725	0.94118
0.96078	0.96078	0.96471
0.99216	0.99216	0.99216
0.32549	0.34118	0.40000
0.35686	0.36863	0.42745
0.44314	0.45490	0.50588
0.55686	0.56471	0.60784
0.67451	0.67843	0.70980
0.41569	0.42745	0.48235
0.44314	0.45490	0.50588
0.50980	0.51765	0.56471
0.60000	0.60784	0.64706
0.70196	0.70980	0.73333
0.60392	0.61176	0.64706
0.61961	0.62745	0.66275
0.65490	0.66275	0.69412
0.71373	0.71765	0.74510
0.78431	0.78824	0.80784
0.78039	0.78431	0.80392
0.78824	0.79216	0.80784
0.80784	0.81176	0.82745
0.83922	0.84314	0.85882
0.88627	0.88627	0.89804
0.93333	0.93333	0.94118
0.93333	0.93725	0.94118
0.94510	0.94510	0.95294
0.96863	0.96863	0.97255
1.00000	1.00000	1.00000
