LUTGenerator/TEST/CUBE/Duotone/Blue/Duotone_Blue_Subtle_sRGB.cube
TITLE Duotone_Blue_Subtle_17_10.cube
LUT_3D_SIZE 5
DOMAIN_MIN 0.0 0.0 0.0
DOMAIN_MAX 1.0 1.0 1.0
0.05882	0.05490	0.08627
0.13725	0.14118	0.18039
0.30588	0.31765	0.36471
0.46667	0.47451	0.52157
0.60784	0.61569	0.65490
0.26667	0.27843	0.32549
0.30588	0.31765	0.36471
0.40784	0.41569	0.46275
0.52549	0.53333	0.57647
0.64314	0.65098	0.68627
0.52941	0.53725	0.58039
0.54510	0.55686	0.59608
0.58824	0.59608	0.63529
0.65490	0.66275	0.69412
0.73725	0.74510	0.77255
0.73333	0.74118	0.76863
0.74510	0.74902	0.77647
0.76471	0.76863	0.79216
0.80392	0.80784	0.82745
0.85490	0.85882	0.87451
0.90588	0.90588	0.91765
0.90980	0.90980	0.92157
0.92157	0.92549	0.93333
0.94510	0.94510	0.95294
0.98039	0.98039	0.98039
0.07059	0.07059	0.10196
0.15686	0.16078	0.20392
0.31765	0.32941	0.37647
0.47451	0.48235	0.52941
0.61176	0.61961	0.65882
0.27843	0.28627	0.33333
0.31765	0.32941	0.37647
0.41569	0.42353	0.47059
0.53333	0.54118	0.58431
0.64706	0.65490	0.68627
0.53725	0.54510	0.58824
0.54902	0.56078	0.60000
0.59216	0.60000	0.63922
0.65882	0.66667	0.69804
0.74118	0.74510	0.77255
0.73725	0.74510	0.76863
0.74510	0.75294	0.77647
0.76471	0.77255	0.79608
0.80392	0.80784	0.82745
0.85490	0.85882	0.87451
0.90588	0.90980	0.91765
0.90980	0.91373	0.92157
0.92157	0.92549	0.93333
0.94510	0.94902	0.95294
0.98039	0.98039	0.98039
0.14510	0.15294	0.19216
0.21176	0.21961	0.26275
0.35294	0.36078	0.40784
0.49020	0.49804	0.54510
0.62353	0.63137	0.66667
0.31373	0.32157	0.37255
0.35294	0.36078	0.40784
0.43137	0.44314	0.49020
0.54510	0.55686	0.59608
0.65490	0.66275	0.69804
0.54902	0.55686	0.60000
0.56471	0.57255	0.61176
0.60392	0.61176	0.64706
0.66667	0.67451	0.70588
0.74902	0.75294	0.78039
0.74510	0.74902	0.77647
0.75294	0.75686	0.78431
0.76863	0.77647	0.80000
0.80784	0.81176	0.83137
0.85882	0.86275	0.87843
0.90980	0.90980	0.92157
0.91373	0.91765	0.92549
0.92549	0.92941	0.93725
0.94902	0.94902	0.95686
0.98431	0.98431	0.98431
0.24706	0.25490	0.30196
0.29020	0.29804	0.34902
0.39608	0.40392	0.45098
0.51765	0.52549	0.56863
0.63922	0.64706	0.68235
0.36863	0.37647	0.42353
0.39608	0.40392	0.45098
0.46667	0.47451	0.52157
0.56863	0.57647	0.61569
0.67451	0.67843	0.71373
0.56863	0.58039	0.61961
0.58039	0.58824	0.62745
0.61961	0.62745	0.66667
0.68627	0.69020	0.72157
0.75686	0.76471	0.78824
0.75686	0.76078	0.78824
0.76078	0.76863	0.79216
0.78039	0.78824	0.81176
0.81569	0.81961	0.83922
0.86667	0.86667	0.88235
0.91765	0.91765	0.92549
0.92157	0.92157	0.92941
0.92941	0.93333	0.94118
0.95294	0.95686	0.96078
0.99216	0.99216	0.99216
0.34902	0.36078	0.40784
0.37647	0.38431	0.43137
0.45490	0.46275	0.50980
0.56078	0.56863	0.60784
0.66667	0.67451	0.70588
0.43137	0.43922	0.48627
0.45490	0.46275	0.50980
0.51373	0.52157	0.56471
0.60000	0.60784	0.64314
0.69412	0.70196	0.73333
0.60000	0.60784	0.64706
0.61569	0.62353	0.65882
0.64706	0.65490	0.69020
0.70588	0.70980	0.74118
0.77255	0.77647	0.80000
0.77255	0.77647	0.80000
0.77647	0.78039	0.80392
0.80000	0.80392	0.82353
0.83137	0.83529	0.85490
0.87843	0.87843	0.89412
0.92549	0.92941	0.93725
0.92941	0.92941	0.93725
0.93725	0.94118	0.94902
0.96471	0.96471	0.96863
1.00000	1.00000	1.00000
