LUTGenerator/TEST/CUBE/Duotone/Blue/Duotone_Blue_Strongest_sRGB.cube
TITLE Duotone_Blue_Strongest_sRGB.cube
LUT_3D_SIZE 5
DOMAIN_MIN 0.0 0.0 0.0
DOMAIN_MAX 1.0 1.0 1.0
0.00000	0.01176	0.07451
0.07059	0.11765	0.24314
0.28627	0.32157	0.44314
0.47059	0.49020	0.58039
0.61176	0.62745	0.69020
0.24314	0.27843	0.40784
0.28627	0.32157	0.44314
0.40000	0.42745	0.52941
0.52941	0.54510	0.62353
0.65098	0.66275	0.71765
0.53333	0.54902	0.62745
0.54902	0.56471	0.63922
0.59216	0.60784	0.67451
0.65882	0.67451	0.72549
0.74118	0.74902	0.79216
0.73725	0.74902	0.78824
0.74510	0.75294	0.79216
0.76863	0.77647	0.81176
0.80392	0.81176	0.83922
0.85490	0.86275	0.88235
0.90588	0.90980	0.92549
0.90980	0.91373	0.92549
0.92157	0.92549	0.93725
0.94510	0.94902	0.95686
0.98039	0.98039	0.98431
0.00000	0.02745	0.11765
0.09412	0.14510	0.27059
0.30196	0.33725	0.45490
0.47451	0.49804	0.58431
0.61569	0.63137	0.69020
0.25490	0.29020	0.41569
0.30196	0.33725	0.45490
0.40784	0.43529	0.53725
0.53333	0.55294	0.62745
0.65098	0.66275	0.72157
0.53725	0.55686	0.63137
0.55294	0.56863	0.64314
0.59608	0.61176	0.67843
0.66275	0.67451	0.72941
0.74118	0.75294	0.79216
0.74118	0.74902	0.78824
0.74510	0.75686	0.79608
0.76863	0.77647	0.81176
0.80784	0.81176	0.84314
0.85882	0.86275	0.88235
0.90980	0.90980	0.92549
0.91373	0.91373	0.92941
0.92157	0.92549	0.93725
0.94510	0.94902	0.95686
0.98039	0.98039	0.98431
0.08235	0.13333	0.25882
0.16863	0.21176	0.34118
0.33725	0.36863	0.48235
0.49020	0.51373	0.60000
0.62745	0.64314	0.70196
0.29412	0.32941	0.44706
0.33725	0.36863	0.48235
0.43137	0.45490	0.55294
0.54902	0.56471	0.63922
0.66275	0.67451	0.72941
0.54902	0.56863	0.64314
0.56078	0.58039	0.65098
0.60784	0.62353	0.68627
0.67059	0.68235	0.73725
0.74902	0.75686	0.79608
0.74510	0.75686	0.79608
0.75294	0.76078	0.80000
0.77255	0.78039	0.81569
0.81176	0.81569	0.84706
0.86275	0.86667	0.88627
0.90980	0.91373	0.92549
0.91373	0.91765	0.92941
0.92549	0.92941	0.94118
0.95294	0.95294	0.96078
0.98431	0.98431	0.98824
0.21569	0.25490	0.38431
0.26667	0.30196	0.42745
0.38824	0.41569	0.52157
0.52157	0.54118	0.61961
0.64314	0.65882	0.71373
0.35686	0.38824	0.49804
0.38824	0.41569	0.52157
0.47059	0.49412	0.58039
0.56863	0.58824	0.65882
0.67843	0.69020	0.73725
0.57255	0.58824	0.65882
0.58431	0.60392	0.67059
0.62745	0.63922	0.70196
0.68627	0.69804	0.74510
0.76078	0.76863	0.80392
0.75686	0.76471	0.80000
0.76078	0.76863	0.80784
0.78431	0.79216	0.82353
0.81961	0.82353	0.85098
0.86667	0.87059	0.89412
0.91765	0.92157	0.93333
0.92157	0.92157	0.93333
0.93333	0.93333	0.94510
0.95686	0.96078	0.96471
0.99216	0.99216	0.99216
0.33725	0.36863	0.48235
0.36863	0.39608	0.50588
0.45490	0.47843	0.56863
0.56078	0.57647	0.65098
0.67059	0.68235	0.73333
0.43137	0.45490	0.55294
0.45490	0.47843	0.57255
0.51765	0.53725	0.61569
0.60392	0.61961	0.68235
0.70196	0.70980	0.75686
0.60784	0.62353	0.68627
0.61961	0.63137	0.69412
0.65098	0.66275	0.72157
0.70980	0.71765	0.76471
0.77255	0.78039	0.81569
0.77255	0.78039	0.81569
0.78039	0.78431	0.81961
0.80000	0.80784	0.83922
0.83529	0.84314	0.86667
0.87843	0.88235	0.90196
0.92549	0.92941	0.94118
0.92941	0.93333	0.94118
0.94510	0.94510	0.95294
0.96471	0.96863	0.97255
1.00000	1.00000	1.00000
