LUTGenerator/TEST/CUBE/Duotone/Blue/Duotone_Blue_Strongest_sRGB.cube
TITLE Duotone_Blue_Strongest_sRGB.cube
LUT_3D_SIZE 9
DOMAIN_MIN 0.0 0.0 0.0
DOMAIN_MAX 1.0 1.0 1.0
0.00000	0.01176	0.07451
0.00000	0.03137	0.11765
0.07059	0.11765	0.24314
0.18039	0.22353	0.35294
0.28627	0.32157	0.44314
0.38039	0.40784	0.51765
0.47059	0.49020	0.58039
0.54510	0.56471	0.63922
0.61176	0.62745	0.69020
0.05882	0.10980	0.23137
0.08627	0.13725	0.26275
0.15294	0.19608	0.32549
0.23922	0.27843	0.40392
0.32549	0.36078	0.47451
0.40784	0.43529	0.53725
0.48627	0.50588	0.59216
0.55686	0.57647	0.64706
0.62745	0.63922	0.69804
0.24314	0.27843	0.40784
0.25490	0.29020	0.41569
0.28627	0.32157	0.44314
0.34118	0.37255	0.48627
0.40000	0.42745	0.52941
0.46667	0.49020	0.58039
0.52941	0.54510	0.62353
0.58824	0.60392	0.67059
0.65098	0.66275	0.71765
0.39608	0.42353	0.52941
0.40784	0.43137	0.53333
0.42745	0.45098	0.54902
0.45882	0.48235	0.57255
0.49412	0.51765	0.60000
0.54118	0.55686	0.63529
0.58824	0.60392	0.67059
0.63922	0.65098	0.70980
0.69020	0.70196	0.74902
0.53333	0.54902	0.62745
0.53725	0.55686	0.63137
0.54902	0.56471	0.63922
0.56471	0.58039	0.65098
0.59216	0.60784	0.67451
0.62353	0.63922	0.69804
0.65882	0.67451	0.72549
0.69804	0.70980	0.75686
0.74118	0.74902	0.79216
0.63922	0.65098	0.70980
0.63922	0.65490	0.70980
0.65098	0.66275	0.72157
0.66275	0.67451	0.72941
0.68235	0.69412	0.74510
0.70588	0.71373	0.76078
0.72941	0.74118	0.78431
0.76078	0.76863	0.80784
0.79608	0.80392	0.83137
0.73725	0.74902	0.78824
0.74118	0.74902	0.79216
0.74510	0.75294	0.79216
0.75294	0.76078	0.80000
0.76863	0.77647	0.81176
0.78431	0.79216	0.82353
0.80392	0.81176	0.83922
0.82745	0.83137	0.85882
0.85490	0.86275	0.88235
0.82353	0.83137	0.85490
0.82745	0.83137	0.85882
0.82745	0.83137	0.85882
0.83922	0.84314	0.86667
0.85098	0.85490	0.87843
0.86275	0.86667	0.88627
0.87451	0.87843	0.89804
0.89412	0.89804	0.91373
0.91765	0.92157	0.93333
0.90588	0.90980	0.92549
0.90588	0.90980	0.92549
0.90980	0.91373	0.92549
0.91373	0.91765	0.92941
0.92157	0.92549	0.93725
0.93333	0.93333	0.94510
0.94510	0.94902	0.95686
0.96078	0.96078	0.96863
0.98039	0.98039	0.98431
0.00000	0.01569	0.08627
0.00392	0.03922	0.13333
0.07451	0.12549	0.25098
0.18431	0.22745	0.35686
0.29020	0.32549	0.44706
0.38431	0.41176	0.51765
0.47059	0.49412	0.58039
0.54510	0.56471	0.63922
0.61176	0.62745	0.69020
0.06667	0.11765	0.23922
0.09412	0.14118	0.27059
0.15686	0.20000	0.32941
0.24314	0.28235	0.40784
0.32941	0.36078	0.47451
0.40784	0.43529	0.53725
0.49020	0.50980	0.59608
0.55686	0.57647	0.64706
0.62745	0.63922	0.70196
0.24314	0.28235	0.40784
0.25882	0.29412	0.41961
0.29020	0.32549	0.44706
0.34510	0.37647	0.48627
0.40392	0.43137	0.53333
0.46667	0.49020	0.58039
0.52941	0.54902	0.62745
0.59216	0.60392	0.67451
0.65098	0.66667	0.72157
0.40000	0.42745	0.52941
0.40784	0.43529	0.53725
0.42745	0.45098	0.54902
0.45882	0.48235	0.57647
0.49804	0.51765	0.60000
0.54118	0.56078	0.63529
0.58824	0.60392	0.67059
0.63922	0.65098	0.70980
0.69020	0.70196	0.74902
0.53333	0.55294	0.62745
0.53725	0.55686	0.63137
0.54902	0.56863	0.64314
0.56471	0.58431	0.65490
0.59216	0.60784	0.67451
0.62745	0.63922	0.70196
0.66275	0.67451	0.72549
0.70196	0.70980	0.75686
0.74118	0.75294	0.79216
0.63922	0.65098	0.70980
0.64314	0.65490	0.71373
0.65098	0.66667	0.72157
0.66275	0.67451	0.72941
0.68235	0.69412	0.74510
0.70196	0.71373	0.76078
0.72941	0.74118	0.78039
0.76078	0.76863	0.80784
0.79608	0.80392	0.83137
0.73725	0.74902	0.78824
0.74118	0.75294	0.79216
0.74510	0.75294	0.79216
0.75294	0.76078	0.80000
0.76863	0.77647	0.81176
0.78431	0.79216	0.82353
0.80392	0.81176	0.84314
0.82745	0.83137	0.85882
0.85490	0.86275	0.88235
0.82353	0.83137	0.85490
0.82745	0.83137	0.85882
0.82745	0.83529	0.85882
0.83922	0.84314	0.86667
0.85098	0.85490	0.87843
0.86275	0.86667	0.88627
0.87451	0.87843	0.89804
0.89412	0.89804	0.91373
0.91765	0.92157	0.93333
0.90588	0.90980	0.92549
0.90980	0.90980	0.92549
0.90980	0.91373	0.92549
0.91373	0.91765	0.92941
0.92157	0.92549	0.93725
0.93333	0.93333	0.94510
0.94510	0.94902	0.95686
0.96078	0.96078	0.96863
0.98039	0.98039	0.98431
0.00000	0.02745	0.11765
0.01569	0.05882	0.16471
0.09412	0.14510	0.27059
0.20000	0.23922	0.36863
0.30196	0.33725	0.45490
0.38824	0.41569	0.52157
0.47451	0.49804	0.58431
0.54902	0.56863	0.64314
0.61569	0.63137	0.69020
0.08627	0.13725	0.26275
0.11373	0.16078	0.29020
0.17255	0.21569	0.34510
0.25098	0.29020	0.41569
0.33725	0.36863	0.48235
0.41569	0.43922	0.54118
0.49020	0.51373	0.60000
0.56078	0.57647	0.65098
0.62745	0.64314	0.70196
0.25490	0.29020	0.41569
0.26667	0.30196	0.42745
0.30196	0.33725	0.45490
0.35294	0.38039	0.49412
0.40784	0.43529	0.53725
0.47059	0.49412	0.58431
0.53333	0.55294	0.62745
0.59216	0.60784	0.67451
0.65098	0.66275	0.72157
0.40392	0.43137	0.53333
0.41569	0.43922	0.54118
0.43137	0.45882	0.55294
0.46275	0.48627	0.57647
0.50196	0.52157	0.60392
0.54510	0.56471	0.63922
0.59216	0.60784	0.67451
0.63922	0.65490	0.70980
0.69412	0.70588	0.75294
0.53725	0.55686	0.63137
0.54118	0.55686	0.63529
0.55294	0.56863	0.64314
0.56863	0.58824	0.65490
0.59608	0.61176	0.67843
0.62745	0.63922	0.70196
0.66275	0.67451	0.72941
0.70196	0.71373	0.76078
0.74118	0.75294	0.79216
0.64314	0.65490	0.70980
0.64706	0.65882	0.71373
0.65098	0.66667	0.72157
0.66275	0.67451	0.72941
0.68627	0.69804	0.74510
0.70588	0.71765	0.76078
0.72941	0.74118	0.78431
0.76078	0.76863	0.80784
0.79608	0.80392	0.83529
0.74118	0.74902	0.78824
0.74118	0.74902	0.79216
0.74510	0.75686	0.79608
0.75686	0.76471	0.80000
0.76863	0.77647	0.81176
0.78431	0.79216	0.82353
0.80784	0.81176	0.84314
0.82745	0.83529	0.85882
0.85882	0.86275	0.88235
0.82745	0.83137	0.85882
0.82745	0.83137	0.85882
0.83137	0.83529	0.86275
0.83922	0.84314	0.86667
0.85098	0.85490	0.87843
0.86275	0.86667	0.88627
0.87451	0.87843	0.89804
0.89804	0.90196	0.91765
0.91765	0.92157	0.93333
0.90980	0.90980	0.92549
0.90980	0.90980	0.92549
0.91373	0.91373	0.92941
0.91765	0.91765	0.93333
0.92157	0.92549	0.93725
0.93333	0.93333	0.94510
0.94510	0.94902	0.95686
0.96078	0.96471	0.96863
0.98039	0.98039	0.98431
0.01961	0.06667	0.17647
0.05882	0.10588	0.22745
0.12941	0.17647	0.30588
0.22353	0.26275	0.39216
0.31765	0.34902	0.46667
0.40000	0.42745	0.52941
0.48235	0.50196	0.59216
0.55686	0.57255	0.64314
0.61961	0.63529	0.69804
0.11765	0.16471	0.29412
0.14510	0.18824	0.31765
0.20000	0.23922	0.36863
0.26667	0.30588	0.42745
0.34902	0.38039	0.49020
0.42353	0.45098	0.54902
0.49804	0.51765	0.60392
0.56471	0.58431	0.65490
0.63529	0.64706	0.70588
0.27059	0.30588	0.42745
0.28627	0.31765	0.43922
0.31765	0.34902	0.46667
0.36078	0.39216	0.50196
0.41961	0.44314	0.54118
0.47843	0.50196	0.58824
0.53725	0.55686	0.63137
0.60000	0.61569	0.67843
0.65490	0.66667	0.72157
0.41569	0.44314	0.54118
0.42353	0.44706	0.54510
0.43922	0.46667	0.56078
0.47059	0.49412	0.58431
0.50980	0.52941	0.61176
0.55294	0.56863	0.64314
0.59608	0.61176	0.67843
0.64706	0.65882	0.71373
0.69804	0.70980	0.75686
0.54118	0.56078	0.63529
0.54902	0.56471	0.63922
0.55686	0.57647	0.64706
0.57647	0.59216	0.65882
0.60000	0.61569	0.68235
0.63137	0.64706	0.70588
0.66275	0.67451	0.72941
0.70196	0.71373	0.76078
0.74510	0.75294	0.79216
0.64706	0.65882	0.71373
0.65098	0.66275	0.71765
0.65490	0.66667	0.72157
0.66667	0.68235	0.73333
0.68627	0.69804	0.74902
0.70980	0.71765	0.76471
0.73725	0.74510	0.78431
0.76471	0.77255	0.80784
0.80000	0.80784	0.83529
0.74118	0.75294	0.79216
0.74510	0.75294	0.79216
0.74902	0.75686	0.79608
0.75686	0.76471	0.80392
0.76863	0.77647	0.81176
0.78431	0.79216	0.82353
0.80784	0.81569	0.84314
0.83137	0.83529	0.86275
0.86275	0.86667	0.88627
0.82745	0.83137	0.85882
0.82745	0.83137	0.85882
0.83529	0.83922	0.86275
0.83922	0.84706	0.87059
0.85098	0.85882	0.87843
0.86275	0.86667	0.88627
0.87843	0.88235	0.89804
0.89804	0.90196	0.91765
0.91765	0.92157	0.93333
0.90588	0.90980	0.92549
0.90980	0.91373	0.92549
0.91373	0.91765	0.92941
0.91765	0.92157	0.93333
0.92549	0.92549	0.93725
0.93333	0.93725	0.94510
0.94902	0.94902	0.95686
0.96471	0.96471	0.97255
0.98039	0.98431	0.98431
0.08235	0.13333	0.25882
0.10980	0.15686	0.28627
0.16863	0.21176	0.34118
0.25098	0.28627	0.41569
0.33725	0.36863	0.48235
0.41569	0.43922	0.54118
0.49020	0.51373	0.60000
0.56078	0.57647	0.65098
0.62745	0.64314	0.70196
0.16471	0.20784	0.33725
0.18431	0.22353	0.35294
0.23529	0.27451	0.40000
0.29412	0.32549	0.44706
0.36863	0.39608	0.50588
0.43922	0.46275	0.55686
0.50980	0.52941	0.61176
0.57255	0.59216	0.65882
0.63529	0.65098	0.70588
0.29412	0.32941	0.44706
0.30980	0.34118	0.45882
0.33725	0.36863	0.48235
0.37647	0.40784	0.51373
0.43137	0.45490	0.55294
0.48627	0.50980	0.59608
0.54902	0.56471	0.63922
0.60392	0.61961	0.68235
0.66275	0.67451	0.72941
0.42745	0.45490	0.55294
0.43529	0.46275	0.55686
0.45490	0.47843	0.57255
0.48235	0.50196	0.59216
0.51765	0.53725	0.61569
0.55686	0.57647	0.64706
0.60392	0.61961	0.68235
0.65098	0.66275	0.71765
0.70196	0.70980	0.75686
0.54902	0.56863	0.64314
0.55294	0.57255	0.64314
0.56078	0.58039	0.65098
0.58039	0.59608	0.66667
0.60784	0.62353	0.68627
0.63529	0.64706	0.70588
0.67059	0.68235	0.73725
0.70980	0.71765	0.76471
0.74902	0.75686	0.79608
0.65098	0.66667	0.72157
0.65098	0.66667	0.72157
0.66275	0.67451	0.72941
0.67451	0.68627	0.73725
0.69412	0.70588	0.75294
0.70980	0.72157	0.76863
0.74118	0.75294	0.79216
0.76863	0.77647	0.81176
0.80392	0.80784	0.83922
0.74510	0.75686	0.79608
0.74902	0.75686	0.79608
0.75294	0.76078	0.80000
0.76078	0.76863	0.80784
0.77255	0.78039	0.81569
0.79216	0.79608	0.82745
0.81176	0.81569	0.84706
0.83529	0.84314	0.86667
0.86275	0.86667	0.88627
0.82745	0.83529	0.85882
0.83137	0.83529	0.86275
0.83922	0.84314	0.86667
0.84314	0.85098	0.87451
0.85490	0.85882	0.88235
0.86275	0.87059	0.89020
0.87843	0.88235	0.90196
0.90196	0.90588	0.91765
0.92157	0.92549	0.93725
0.90980	0.91373	0.92549
0.91373	0.91765	0.92941
0.91373	0.91765	0.92941
0.91765	0.92157	0.93333
0.92549	0.92941	0.94118
0.93725	0.93725	0.94902
0.95294	0.95294	0.96078
0.96471	0.96863	0.97255
0.98431	0.98431	0.98824
0.14510	0.19216	0.32157
0.16863	0.21176	0.34118
0.21961	0.25882	0.38824
0.28627	0.31765	0.43922
0.36078	0.38824	0.49804
0.43137	0.45882	0.55294
0.50196	0.52549	0.60784
0.57255	0.58824	0.65882
0.63529	0.64706	0.70588
0.21176	0.25098	0.38039
0.23137	0.27059	0.40000
0.26667	0.30196	0.42353
0.32549	0.35686	0.47059
0.38824	0.41569	0.52157
0.45490	0.47843	0.57255
0.52157	0.54118	0.61961
0.58431	0.60000	0.66667
0.64314	0.65882	0.71373
0.32549	0.35686	0.47451
0.33725	0.36863	0.48235
0.36078	0.38824	0.49804
0.39608	0.42353	0.52941
0.45098	0.47451	0.56863
0.50196	0.52157	0.60392
0.55686	0.57647	0.64706
0.61176	0.62745	0.69020
0.66667	0.67843	0.73333
0.44706	0.47059	0.56471
0.45490	0.47843	0.56863
0.47059	0.49020	0.58039
0.49412	0.51373	0.60000
0.52941	0.54902	0.62745
0.56471	0.58431	0.65490
0.61176	0.62745	0.69020
0.65882	0.67059	0.72549
0.70588	0.71373	0.76078
0.56078	0.57647	0.65098
0.56078	0.58039	0.65098
0.57255	0.59216	0.65882
0.58824	0.60392	0.67451
0.61569	0.62745	0.69020
0.64314	0.65490	0.71373
0.67843	0.69020	0.74118
0.71373	0.72157	0.76863
0.75294	0.76078	0.80000
0.65882	0.67059	0.72549
0.66275	0.67451	0.72941
0.66667	0.67843	0.73333
0.68235	0.69412	0.74510
0.69804	0.70980	0.75686
0.72157	0.72941	0.77255
0.74510	0.75294	0.79216
0.77255	0.78039	0.81569
0.80392	0.81176	0.84314
0.75294	0.76078	0.79608
0.75294	0.76078	0.80000
0.75686	0.76471	0.80392
0.76471	0.77255	0.80784
0.77647	0.78431	0.81961
0.79608	0.80392	0.83137
0.81569	0.81961	0.84706
0.83922	0.84314	0.86667
0.86275	0.86667	0.89020
0.83529	0.84314	0.86667
0.83922	0.84314	0.86667
0.83922	0.84314	0.87059
0.85098	0.85490	0.87843
0.85882	0.86275	0.88235
0.86667	0.87059	0.89412
0.88627	0.89020	0.90588
0.90588	0.90980	0.92157
0.92549	0.92549	0.93725
0.91373	0.91765	0.92941
0.91373	0.91765	0.92941
0.91765	0.92157	0.93333
0.92157	0.92549	0.93725
0.92941	0.92941	0.94118
0.93725	0.94118	0.94902
0.95294	0.95686	0.96471
0.96863	0.96863	0.97255
0.98431	0.98431	0.98824
0.21569	0.25490	0.38431
0.23137	0.27059	0.40000
0.26667	0.30196	0.42745
0.32549	0.35686	0.47059
0.38824	0.41569	0.52157
0.45490	0.47843	0.57255
0.52157	0.54118	0.61961
0.58431	0.60000	0.66667
0.64314	0.65882	0.71373
0.26275	0.29804	0.42353
0.27451	0.30980	0.43137
0.30980	0.34118	0.46275
0.35686	0.38824	0.49804
0.41176	0.43922	0.54118
0.47451	0.49804	0.58431
0.53725	0.55294	0.63137
0.59608	0.61176	0.67843
0.65098	0.66667	0.72157
0.35686	0.38824	0.49804
0.36863	0.39608	0.50588
0.38824	0.41569	0.52157
0.42353	0.44706	0.54510
0.47059	0.49412	0.58039
0.51765	0.53725	0.61569
0.56863	0.58824	0.65882
0.62353	0.63922	0.69804
0.67843	0.69020	0.73725
0.47059	0.49020	0.58039
0.47451	0.49412	0.58431
0.48627	0.50980	0.59608
0.50980	0.53333	0.61176
0.54510	0.56078	0.63529
0.58039	0.59608	0.66667
0.62353	0.63922	0.69804
0.66667	0.67843	0.72941
0.70980	0.72157	0.76471
0.57255	0.58824	0.65882
0.57647	0.59216	0.65882
0.58431	0.60392	0.67059
0.60392	0.61961	0.68235
0.62745	0.63922	0.70196
0.65098	0.66667	0.72157
0.68627	0.69804	0.74510
0.72157	0.72941	0.77255
0.76078	0.76863	0.80392
0.66667	0.67843	0.73333
0.67059	0.68235	0.73333
0.67843	0.69020	0.74118
0.69020	0.70196	0.74902
0.70588	0.71373	0.76078
0.72549	0.73725	0.77647
0.75294	0.76078	0.80000
0.77647	0.78431	0.81961
0.81176	0.81569	0.84706
0.75686	0.76471	0.80000
0.76078	0.76863	0.80392
0.76078	0.76863	0.80784
0.77255	0.78039	0.81176
0.78431	0.79216	0.82353
0.80000	0.80784	0.83922
0.81961	0.82353	0.85098
0.84706	0.85098	0.87451
0.86667	0.87059	0.89412
0.83922	0.84314	0.86667
0.83922	0.84706	0.87059
0.84706	0.85490	0.87451
0.85490	0.85882	0.88235
0.86275	0.86667	0.88627
0.87059	0.87451	0.89412
0.88627	0.89020	0.90588
0.90980	0.90980	0.92549
0.92941	0.92941	0.94118
0.91765	0.92157	0.93333
0.91765	0.92157	0.93333
0.92157	0.92157	0.93333
0.92549	0.92549	0.93725
0.93333	0.93333	0.94510
0.94510	0.94510	0.95294
0.95686	0.96078	0.96471
0.97255	0.97255	0.97647
0.99216	0.99216	0.99216
0.27059	0.30980	0.43137
0.28627	0.32157	0.44314
0.32157	0.35294	0.46667
0.36471	0.39216	0.50196
0.41961	0.44706	0.54510
0.47843	0.50196	0.58824
0.53725	0.55686	0.63137
0.60000	0.61569	0.68235
0.65490	0.66667	0.72157
0.31765	0.34902	0.46667
0.32549	0.35686	0.47451
0.35294	0.38431	0.49412
0.39216	0.41961	0.52157
0.44314	0.46667	0.56471
0.49412	0.51765	0.60000
0.55294	0.57255	0.64314
0.61176	0.62745	0.69020
0.66275	0.67451	0.72941
0.39216	0.41961	0.52549
0.40000	0.42745	0.52941
0.41961	0.44706	0.54510
0.45490	0.47843	0.56863
0.49412	0.51373	0.60000
0.53725	0.55686	0.63137
0.58431	0.60000	0.67059
0.63529	0.65098	0.70588
0.68627	0.69804	0.74902
0.49020	0.50980	0.59608
0.49412	0.51765	0.60000
0.50980	0.52941	0.61176
0.52941	0.54902	0.62745
0.56078	0.57647	0.65098
0.59608	0.61176	0.67843
0.63529	0.64706	0.70588
0.67843	0.69020	0.74118
0.72157	0.72941	0.77255
0.58824	0.60392	0.67059
0.59216	0.60784	0.67451
0.60392	0.61569	0.68235
0.61569	0.63137	0.69412
0.63922	0.65098	0.70980
0.66275	0.67451	0.72941
0.69804	0.70980	0.75686
0.72941	0.74118	0.78039
0.76863	0.77647	0.81176
0.67843	0.69020	0.74118
0.68235	0.69412	0.74510
0.69020	0.69804	0.74902
0.70196	0.70980	0.75686
0.71373	0.72549	0.76863
0.73333	0.74510	0.78431
0.76078	0.76863	0.80392
0.78431	0.79216	0.82353
0.81569	0.82353	0.85098
0.76471	0.77255	0.80784
0.76863	0.77647	0.81176
0.76863	0.77647	0.81176
0.77647	0.78431	0.81961
0.79216	0.80000	0.83137
0.80784	0.81569	0.84314
0.82745	0.83137	0.85882
0.85098	0.85490	0.87843
0.87451	0.87843	0.89804
0.85098	0.85490	0.87843
0.85098	0.85490	0.87843
0.85490	0.85882	0.87843
0.85882	0.86275	0.88627
0.86667	0.87059	0.89020
0.87843	0.88235	0.89804
0.89412	0.89804	0.91373
0.91373	0.91765	0.92941
0.93333	0.93333	0.94510
0.92157	0.92157	0.93333
0.92157	0.92549	0.93725
0.92549	0.92549	0.93725
0.92941	0.93333	0.94118
0.93725	0.94118	0.94902
0.94902	0.94902	0.95686
0.96078	0.96078	0.96863
0.97647	0.97647	0.98039
0.99608	0.99608	0.99608
0.33725	0.36863	0.48235
0.34510	0.37647	0.48627
0.36863	0.39608	0.50588
0.40392	0.43137	0.53333
0.45490	0.47843	0.56863
0.50588	0.52549	0.60784
0.56078	0.57647	0.65098
0.61569	0.63137	0.69020
0.67059	0.68235	0.73333
0.36471	0.39608	0.50196
0.37255	0.40392	0.50980
0.39608	0.42353	0.52549
0.42745	0.45490	0.55294
0.47451	0.49804	0.58431
0.52157	0.54118	0.61961
0.57255	0.58824	0.65882
0.62745	0.64314	0.70196
0.68235	0.69020	0.74118
0.43137	0.45490	0.55294
0.43922	0.46275	0.55686
0.45490	0.47843	0.57255
0.48235	0.50196	0.59216
0.51765	0.53725	0.61569
0.55686	0.57647	0.64706
0.60392	0.61961	0.68235
0.65098	0.66275	0.71765
0.70196	0.70980	0.75686
0.51373	0.53333	0.61569
0.52157	0.54118	0.61961
0.53333	0.55294	0.63137
0.55294	0.56863	0.64314
0.58039	0.59608	0.66275
0.61176	0.62745	0.69020
0.65098	0.66275	0.71765
0.69412	0.70588	0.75294
0.72941	0.74118	0.78039
0.60784	0.62353	0.68627
0.61176	0.62745	0.69020
0.61961	0.63137	0.69412
0.63529	0.64706	0.70588
0.65098	0.66275	0.72157
0.67843	0.69020	0.74118
0.70980	0.71765	0.76471
0.74118	0.75294	0.79216
0.77255	0.78039	0.81569
0.69412	0.70588	0.75294
0.69804	0.70980	0.75686
0.70196	0.71373	0.76078
0.70980	0.71765	0.76471
0.72549	0.73725	0.78039
0.74510	0.75294	0.79216
0.76863	0.77647	0.81176
0.79608	0.80392	0.83137
0.82745	0.83137	0.85882
0.77255	0.78039	0.81569
0.77255	0.78039	0.81569
0.78039	0.78431	0.81961
0.78824	0.79608	0.82745
0.80000	0.80784	0.83922
0.81569	0.81961	0.85098
0.83529	0.84314	0.86667
0.85882	0.86275	0.88235
0.87843	0.88235	0.90196
0.85490	0.85882	0.88235
0.85490	0.85882	0.88235
0.85882	0.86275	0.88627
0.86275	0.86667	0.89020
0.87059	0.87451	0.89412
0.88627	0.89020	0.90588
0.90196	0.90196	0.91765
0.91765	0.92157	0.93333
0.93725	0.94118	0.94902
0.92549	0.92941	0.94118
0.92549	0.92941	0.94118
0.92941	0.93333	0.94118
0.93333	0.93725	0.94510
0.94510	0.94510	0.95294
0.95686	0.95686	0.96471
0.96471	0.96863	0.97255
0.98039	0.98039	0.98431
1.00000	1.00000	1.00000
