LUTGenerator/TEST/CUBE/Duotone/Blue/Duotone_Blue_Subtle_sRGB.cube
TITLE Duotone_Blue_Subtle_17_10.cube
LUT_3D_SIZE 9
DOMAIN_MIN 0.0 0.0 0.0
DOMAIN_MAX 1.0 1.0 1.0
0.05882	0.05490	0.08627
0.07451	0.07059	0.10196
0.13725	0.14118	0.18039
0.21961	0.22745	0.27451
0.30588	0.31765	0.36471
0.38824	0.40000	0.44706
0.46667	0.47451	0.52157
0.54510	0.55294	0.59216
0.60784	0.61569	0.65490
0.12941	0.12941	0.16863
0.14902	0.15686	0.19608
0.20000	0.20392	0.25098
0.26667	0.27451	0.32157
0.34118	0.35294	0.40000
0.41176	0.42353	0.47059
0.48627	0.49412	0.54118
0.55686	0.56471	0.60784
0.61961	0.62745	0.66275
0.26667	0.27843	0.32549
0.27843	0.29020	0.33725
0.30588	0.31765	0.36471
0.35686	0.36471	0.41176
0.40784	0.41569	0.46275
0.46275	0.47059	0.51765
0.52549	0.53333	0.57647
0.58431	0.59216	0.63137
0.64314	0.65098	0.68627
0.40784	0.41569	0.46275
0.41176	0.42353	0.47059
0.42745	0.43922	0.48235
0.45490	0.46667	0.51373
0.49412	0.50588	0.54902
0.53725	0.54902	0.58824
0.58431	0.59216	0.63137
0.63137	0.63922	0.67451
0.68627	0.69412	0.72549
0.52941	0.53725	0.58039
0.53725	0.54510	0.58824
0.54510	0.55686	0.59608
0.56471	0.57255	0.61176
0.58824	0.59608	0.63529
0.61961	0.62745	0.66275
0.65490	0.66275	0.69412
0.69412	0.70196	0.73333
0.73725	0.74510	0.77255
0.63137	0.63922	0.67451
0.63529	0.64314	0.67843
0.64314	0.65098	0.68627
0.65882	0.66667	0.69804
0.67843	0.68627	0.71765
0.70196	0.70588	0.73725
0.72941	0.73333	0.76078
0.76078	0.76471	0.79216
0.79216	0.79608	0.81961
0.73333	0.74118	0.76863
0.73725	0.74510	0.77255
0.74510	0.74902	0.77647
0.75294	0.75686	0.78431
0.76471	0.76863	0.79216
0.78039	0.78431	0.80784
0.80392	0.80784	0.82745
0.82745	0.83137	0.85098
0.85490	0.85882	0.87451
0.81961	0.82353	0.84314
0.82353	0.82745	0.84706
0.82745	0.83137	0.85098
0.83529	0.83922	0.85490
0.84314	0.84706	0.86667
0.85882	0.85882	0.87451
0.87059	0.87451	0.89020
0.89412	0.89412	0.90588
0.91765	0.91765	0.92941
0.90588	0.90588	0.91765
0.90588	0.90980	0.91765
0.90980	0.90980	0.92157
0.91373	0.91765	0.92549
0.92157	0.92549	0.93333
0.92941	0.92941	0.93725
0.94510	0.94510	0.95294
0.96078	0.96078	0.96471
0.98039	0.98039	0.98039
0.06275	0.05882	0.09020
0.07843	0.07843	0.10980
0.14118	0.14510	0.18431
0.22745	0.23529	0.28235
0.30980	0.31765	0.36863
0.39216	0.40000	0.45098
0.46667	0.47843	0.52157
0.54510	0.55294	0.59608
0.61176	0.61961	0.65490
0.13333	0.13725	0.17647
0.15294	0.16078	0.20000
0.20392	0.21176	0.25490
0.27059	0.27843	0.32549
0.34510	0.35294	0.40392
0.41569	0.42353	0.47059
0.48627	0.49804	0.54118
0.55686	0.56863	0.60784
0.61961	0.62745	0.66275
0.27059	0.27843	0.32549
0.28235	0.29412	0.34118
0.30980	0.32157	0.36863
0.35686	0.36863	0.41569
0.41176	0.41961	0.46667
0.46667	0.47451	0.52157
0.52549	0.53725	0.57647
0.58824	0.59608	0.63137
0.64314	0.65098	0.68627
0.40784	0.41569	0.46667
0.41176	0.42353	0.47059
0.42745	0.43922	0.48627
0.45882	0.46667	0.51373
0.49804	0.50588	0.54902
0.54118	0.54902	0.59216
0.58431	0.59216	0.63137
0.63137	0.63922	0.67451
0.69020	0.69412	0.72549
0.53333	0.54118	0.58431
0.53725	0.54510	0.58824
0.54902	0.55686	0.59608
0.56471	0.57647	0.61569
0.58824	0.59608	0.63529
0.61961	0.62745	0.66275
0.65490	0.66275	0.69412
0.69412	0.70196	0.73333
0.73725	0.74510	0.77255
0.63529	0.64314	0.67451
0.63922	0.64314	0.67843
0.64706	0.65490	0.68627
0.65882	0.66667	0.69804
0.67843	0.68627	0.71765
0.70196	0.70980	0.73725
0.72941	0.73333	0.76078
0.76078	0.76471	0.79216
0.79216	0.79608	0.81961
0.73725	0.74118	0.76863
0.73725	0.74510	0.77255
0.74510	0.74902	0.77647
0.75294	0.76078	0.78431
0.76471	0.76863	0.79216
0.78039	0.78824	0.80784
0.80392	0.80784	0.82745
0.82745	0.83137	0.85098
0.85490	0.85490	0.87451
0.81961	0.82353	0.84314
0.82353	0.82745	0.84706
0.82745	0.83137	0.85098
0.83529	0.83922	0.85490
0.84706	0.85098	0.86667
0.85882	0.85882	0.87451
0.87451	0.87451	0.89020
0.89412	0.89412	0.90588
0.91765	0.92157	0.92941
0.90588	0.90588	0.91765
0.90588	0.90980	0.91765
0.90980	0.90980	0.92157
0.91373	0.91765	0.92549
0.92157	0.92549	0.93333
0.92941	0.92941	0.93725
0.94510	0.94510	0.95294
0.96078	0.96078	0.96863
0.98039	0.98039	0.98039
0.07059	0.07059	0.10196
0.09412	0.09412	0.12941
0.15686	0.16078	0.20392
0.23922	0.24706	0.29412
0.31765	0.32941	0.37647
0.39608	0.40784	0.45490
0.47451	0.48235	0.52941
0.54902	0.55686	0.60000
0.61176	0.61961	0.65882
0.14902	0.15294	0.19608
0.16863	0.17647	0.21961
0.21569	0.22353	0.26667
0.27843	0.28627	0.33333
0.35294	0.36078	0.41176
0.41961	0.43137	0.47451
0.49020	0.49804	0.54510
0.56078	0.56863	0.61176
0.62353	0.63137	0.66667
0.27843	0.28627	0.33333
0.29020	0.29804	0.34510
0.31765	0.32941	0.37647
0.36078	0.37255	0.41961
0.41569	0.42353	0.47059
0.46667	0.47843	0.52157
0.53333	0.54118	0.58431
0.58824	0.59608	0.63529
0.64706	0.65490	0.68627
0.41176	0.42353	0.47059
0.41961	0.42745	0.47451
0.43529	0.44314	0.49020
0.46275	0.47059	0.51765
0.49804	0.50588	0.55294
0.54510	0.55294	0.59216
0.58824	0.59608	0.63529
0.63529	0.64314	0.67843
0.69020	0.69412	0.72549
0.53725	0.54510	0.58824
0.53725	0.54902	0.58824
0.54902	0.56078	0.60000
0.56863	0.57647	0.61569
0.59216	0.60000	0.63922
0.61961	0.62745	0.66667
0.65882	0.66667	0.69804
0.69804	0.70196	0.73333
0.74118	0.74510	0.77255
0.63529	0.64314	0.67843
0.63922	0.64706	0.68235
0.64706	0.65490	0.69020
0.66275	0.67059	0.70196
0.68235	0.68627	0.71765
0.70196	0.70980	0.74118
0.72941	0.73725	0.76471
0.76078	0.76471	0.79216
0.79608	0.80000	0.81961
0.73725	0.74510	0.76863
0.74118	0.74510	0.77255
0.74510	0.75294	0.77647
0.75686	0.76078	0.78431
0.76471	0.77255	0.79608
0.78431	0.78824	0.81176
0.80392	0.80784	0.82745
0.82745	0.83137	0.85098
0.85490	0.85882	0.87451
0.82353	0.82745	0.84706
0.82353	0.82745	0.84706
0.83137	0.83529	0.85098
0.83529	0.83922	0.85882
0.84706	0.85098	0.86667
0.85882	0.86275	0.87843
0.87451	0.87843	0.89020
0.89412	0.89804	0.90980
0.91765	0.92157	0.92941
0.90588	0.90980	0.91765
0.90588	0.90980	0.91765
0.90980	0.91373	0.92157
0.91373	0.91765	0.92549
0.92157	0.92549	0.93333
0.92941	0.93333	0.94118
0.94510	0.94902	0.95294
0.96078	0.96078	0.96863
0.98039	0.98039	0.98039
0.09804	0.10196	0.13725
0.12549	0.12941	0.16863
0.18039	0.18824	0.23137
0.25490	0.26275	0.31373
0.33333	0.34118	0.38824
0.40784	0.41569	0.46275
0.48235	0.49020	0.53725
0.55294	0.56078	0.60392
0.61569	0.62353	0.65882
0.17255	0.18039	0.22353
0.19216	0.20000	0.24314
0.23529	0.24314	0.29412
0.29020	0.29804	0.34902
0.36078	0.37255	0.41961
0.42745	0.43529	0.48235
0.49804	0.50588	0.54902
0.56471	0.57647	0.61569
0.62745	0.63529	0.67059
0.29412	0.30196	0.34902
0.30588	0.31373	0.36078
0.33333	0.34118	0.39216
0.37255	0.38039	0.42745
0.42353	0.43137	0.47843
0.47843	0.48627	0.53333
0.53725	0.54510	0.58824
0.59216	0.60000	0.63922
0.65098	0.65882	0.69020
0.41961	0.43137	0.47843
0.42745	0.43529	0.48235
0.43922	0.45098	0.49412
0.46667	0.47843	0.52157
0.50588	0.51373	0.55686
0.54902	0.55686	0.60000
0.59216	0.60000	0.63922
0.63922	0.64706	0.68235
0.69020	0.69804	0.72941
0.54118	0.54902	0.59216
0.54510	0.55294	0.59608
0.55686	0.56471	0.60392
0.57255	0.58039	0.61961
0.59608	0.60392	0.64314
0.62353	0.63137	0.67059
0.66275	0.67059	0.70196
0.70196	0.70980	0.73725
0.74118	0.74902	0.77647
0.63922	0.64706	0.68235
0.64314	0.65098	0.68627
0.65098	0.65882	0.69412
0.66275	0.67059	0.70588
0.68627	0.69412	0.72549
0.70588	0.71373	0.74118
0.73333	0.73725	0.76471
0.76471	0.76863	0.79216
0.79608	0.80000	0.82353
0.74118	0.74510	0.77255
0.74118	0.74902	0.77647
0.74902	0.75294	0.78039
0.75686	0.76078	0.78824
0.76863	0.77255	0.79608
0.78431	0.78824	0.81176
0.80392	0.80784	0.83137
0.83137	0.83529	0.85490
0.85490	0.85882	0.87451
0.82353	0.82745	0.84706
0.82745	0.83137	0.85098
0.83137	0.83529	0.85490
0.83922	0.84314	0.85882
0.84706	0.85098	0.86667
0.85882	0.86275	0.87843
0.87451	0.87843	0.89020
0.89804	0.90196	0.90980
0.92157	0.92157	0.92941
0.90588	0.90980	0.92157
0.90980	0.90980	0.92157
0.90980	0.91373	0.92549
0.91765	0.91765	0.92941
0.92549	0.92549	0.93333
0.93333	0.93333	0.94118
0.94902	0.94902	0.95294
0.96078	0.96471	0.96863
0.98039	0.98039	0.98431
0.14510	0.15294	0.19216
0.16863	0.17255	0.21569
0.21176	0.21961	0.26275
0.27451	0.28627	0.33333
0.35294	0.36078	0.40784
0.41961	0.42745	0.47451
0.49020	0.49804	0.54510
0.56078	0.56863	0.60784
0.62353	0.63137	0.66667
0.20784	0.21569	0.25882
0.22353	0.23137	0.27843
0.26275	0.27059	0.31765
0.31373	0.32157	0.36863
0.37255	0.38431	0.43137
0.43922	0.44706	0.49412
0.50588	0.51373	0.55686
0.57255	0.58039	0.61961
0.63137	0.63922	0.67451
0.31373	0.32157	0.37255
0.32549	0.33333	0.38039
0.35294	0.36078	0.40784
0.38431	0.39608	0.44314
0.43137	0.44314	0.49020
0.48627	0.49804	0.54118
0.54510	0.55686	0.59608
0.60000	0.60784	0.64706
0.65490	0.66275	0.69804
0.43137	0.43922	0.48627
0.43529	0.44706	0.49412
0.45490	0.46275	0.50980
0.48235	0.49020	0.53725
0.51373	0.52157	0.56471
0.55686	0.56471	0.60392
0.60000	0.60784	0.64314
0.64706	0.65098	0.68627
0.69412	0.70196	0.73333
0.54902	0.55686	0.60000
0.55294	0.56078	0.60392
0.56471	0.57255	0.61176
0.58039	0.58824	0.62745
0.60392	0.61176	0.64706
0.62745	0.63529	0.67059
0.66667	0.67451	0.70588
0.70588	0.71373	0.74118
0.74902	0.75294	0.78039
0.64706	0.65490	0.68627
0.64706	0.65490	0.69020
0.65490	0.66275	0.69804
0.67059	0.67843	0.70980
0.69020	0.69804	0.72549
0.70980	0.71373	0.74510
0.73725	0.74510	0.77255
0.76471	0.77255	0.79608
0.80000	0.80392	0.82353
0.74510	0.74902	0.77647
0.74902	0.75294	0.78039
0.75294	0.75686	0.78431
0.76078	0.76471	0.79216
0.76863	0.77647	0.80000
0.78824	0.79608	0.81569
0.80784	0.81176	0.83137
0.83137	0.83529	0.85490
0.85882	0.86275	0.87843
0.82745	0.83137	0.85098
0.83137	0.83529	0.85490
0.83529	0.83922	0.85490
0.84314	0.84706	0.86275
0.85098	0.85490	0.87059
0.86275	0.86667	0.88235
0.87843	0.88235	0.89412
0.90196	0.90196	0.91373
0.92157	0.92549	0.93333
0.90980	0.90980	0.92157
0.90980	0.91373	0.92157
0.91373	0.91765	0.92549
0.91765	0.92157	0.92941
0.92549	0.92941	0.93725
0.93333	0.93333	0.94118
0.94902	0.94902	0.95686
0.96471	0.96471	0.96863
0.98431	0.98431	0.98431
0.19216	0.20000	0.24314
0.20784	0.21961	0.26275
0.25098	0.25882	0.30588
0.30588	0.31373	0.36078
0.36863	0.38039	0.42745
0.43137	0.44314	0.49020
0.50196	0.50980	0.55294
0.56863	0.57647	0.61569
0.62745	0.63529	0.67059
0.24706	0.25490	0.30196
0.25882	0.27059	0.31765
0.29020	0.29804	0.34510
0.33725	0.34902	0.39608
0.39608	0.40392	0.45098
0.45490	0.46275	0.50980
0.51765	0.52549	0.56863
0.58039	0.58824	0.62745
0.63922	0.64706	0.68235
0.34118	0.34902	0.39608
0.34902	0.36078	0.40784
0.36863	0.38039	0.42745
0.40392	0.41569	0.46275
0.45098	0.45882	0.50588
0.49804	0.50588	0.55294
0.55686	0.56471	0.60784
0.60784	0.61569	0.65490
0.66275	0.67059	0.70196
0.44706	0.45490	0.50196
0.45490	0.46275	0.50980
0.46667	0.47451	0.52157
0.49412	0.50196	0.54510
0.52549	0.53333	0.57647
0.56471	0.57647	0.61569
0.60784	0.61569	0.65098
0.65490	0.65882	0.69412
0.70196	0.70980	0.73725
0.55686	0.56863	0.60784
0.56471	0.57255	0.61176
0.57255	0.58039	0.61961
0.58824	0.59608	0.63529
0.61176	0.61961	0.65490
0.63922	0.64314	0.67843
0.67451	0.68235	0.71373
0.70980	0.71765	0.74510
0.75294	0.75686	0.78431
0.65490	0.66275	0.69412
0.65490	0.66275	0.69804
0.66275	0.67059	0.70196
0.67843	0.68627	0.71765
0.69412	0.70196	0.72941
0.71373	0.72157	0.74902
0.74510	0.74902	0.77647
0.76863	0.77647	0.80000
0.80392	0.80784	0.82745
0.74902	0.75294	0.78039
0.75294	0.75686	0.78431
0.75686	0.76078	0.78824
0.76471	0.76863	0.79216
0.77255	0.78039	0.80392
0.79216	0.79608	0.81961
0.81176	0.81569	0.83529
0.83529	0.83922	0.85882
0.86275	0.86667	0.87843
0.83137	0.83529	0.85490
0.83137	0.83529	0.85490
0.83922	0.84314	0.85882
0.84314	0.84706	0.86667
0.85490	0.85882	0.87451
0.86667	0.86667	0.88235
0.88235	0.88627	0.89804
0.90588	0.90588	0.91765
0.92549	0.92549	0.93333
0.91373	0.91373	0.92549
0.91373	0.91765	0.92549
0.91765	0.91765	0.92549
0.92157	0.92549	0.93333
0.92941	0.92941	0.93725
0.93725	0.93725	0.94510
0.94902	0.94902	0.95686
0.96863	0.96863	0.97255
0.98824	0.98824	0.98824
0.24706	0.25490	0.30196
0.25882	0.27059	0.31765
0.29020	0.29804	0.34902
0.34118	0.34902	0.39608
0.39608	0.40392	0.45098
0.45490	0.46275	0.50980
0.51765	0.52549	0.56863
0.58039	0.58824	0.62745
0.63922	0.64706	0.68235
0.28627	0.29804	0.34510
0.29804	0.30588	0.35294
0.32549	0.33333	0.38431
0.36863	0.37647	0.42353
0.41961	0.42745	0.47451
0.47451	0.48235	0.52941
0.53725	0.54510	0.58431
0.59216	0.60000	0.63922
0.64706	0.65490	0.69020
0.36863	0.37647	0.42353
0.37647	0.38431	0.43137
0.39608	0.40392	0.45098
0.42745	0.43529	0.48235
0.46667	0.47451	0.52157
0.51373	0.52157	0.56471
0.56863	0.57647	0.61569
0.61961	0.62745	0.66275
0.67451	0.67843	0.71373
0.46667	0.47451	0.52157
0.47451	0.48235	0.52941
0.48627	0.49804	0.54118
0.50980	0.51765	0.56078
0.54118	0.55294	0.59216
0.57647	0.58824	0.62745
0.61961	0.62745	0.66275
0.66275	0.67059	0.70196
0.70980	0.71373	0.74510
0.56863	0.58039	0.61961
0.57647	0.58431	0.62353
0.58039	0.58824	0.62745
0.59608	0.60392	0.64314
0.61961	0.62745	0.66667
0.64706	0.65490	0.69020
0.68627	0.69020	0.72157
0.71765	0.72549	0.75294
0.75686	0.76471	0.78824
0.66275	0.67059	0.70196
0.66667	0.67451	0.70588
0.67451	0.68235	0.71373
0.68627	0.69412	0.72549
0.70196	0.70980	0.74118
0.72157	0.72941	0.75686
0.74902	0.75686	0.78039
0.77647	0.78039	0.80392
0.80784	0.81176	0.83137
0.75686	0.76078	0.78824
0.75686	0.76471	0.78824
0.76078	0.76863	0.79216
0.76863	0.77255	0.80000
0.78039	0.78824	0.81176
0.80000	0.80392	0.82353
0.81569	0.81961	0.83922
0.84314	0.84706	0.86275
0.86667	0.86667	0.88235
0.83922	0.84314	0.85882
0.83922	0.84314	0.85882
0.84314	0.84706	0.86275
0.85098	0.85098	0.87059
0.85882	0.86275	0.87451
0.87059	0.87451	0.88627
0.88627	0.89020	0.90196
0.90980	0.90980	0.92157
0.92941	0.92941	0.93725
0.91765	0.91765	0.92549
0.91765	0.91765	0.92941
0.92157	0.92157	0.92941
0.92549	0.92549	0.93333
0.92941	0.93333	0.94118
0.94118	0.94118	0.94902
0.95294	0.95686	0.96078
0.97255	0.97255	0.97255
0.99216	0.99216	0.99216
0.29412	0.30588	0.35294
0.30588	0.31765	0.36471
0.33333	0.34510	0.39216
0.37255	0.38431	0.43137
0.42353	0.43137	0.47843
0.47843	0.49020	0.53333
0.53725	0.54902	0.58824
0.59608	0.60392	0.63922
0.65098	0.65882	0.69412
0.33333	0.34118	0.38824
0.34118	0.35294	0.40000
0.36471	0.37255	0.42353
0.40000	0.40784	0.45490
0.44314	0.45098	0.49804
0.49412	0.50588	0.54902
0.55294	0.56078	0.60392
0.60392	0.61569	0.65098
0.66275	0.66667	0.70196
0.40000	0.40784	0.45490
0.40784	0.41569	0.46667
0.42353	0.43137	0.47843
0.45098	0.46275	0.50980
0.49020	0.50196	0.54510
0.53725	0.54510	0.58824
0.58039	0.58824	0.62745
0.63137	0.63529	0.67451
0.68627	0.69412	0.72549
0.49020	0.49804	0.54510
0.49412	0.50196	0.54902
0.50588	0.51373	0.56078
0.52941	0.53725	0.58039
0.56078	0.56863	0.60784
0.59216	0.60000	0.63922
0.62745	0.63529	0.67059
0.67451	0.68235	0.71373
0.71765	0.72549	0.75294
0.58431	0.59216	0.63137
0.58824	0.59608	0.63529
0.59608	0.60392	0.64314
0.61176	0.61961	0.65882
0.63137	0.63922	0.67451
0.66275	0.66667	0.70196
0.69412	0.69804	0.72941
0.72549	0.73333	0.76078
0.76471	0.76863	0.79608
0.67451	0.68235	0.71373
0.67843	0.68627	0.71765
0.68627	0.69412	0.72549
0.69412	0.70196	0.73333
0.70980	0.71765	0.74510
0.73333	0.73725	0.76471
0.75686	0.76471	0.78824
0.78431	0.78824	0.81176
0.81176	0.81961	0.83922
0.76078	0.76863	0.79216
0.76471	0.76863	0.79216
0.76863	0.77255	0.80000
0.77647	0.78039	0.80392
0.78824	0.79608	0.81569
0.80392	0.80784	0.82745
0.82353	0.82745	0.84706
0.84706	0.85098	0.86667
0.87059	0.87451	0.89020
0.84314	0.84706	0.86667
0.84706	0.85098	0.86667
0.84706	0.85098	0.86667
0.85490	0.85882	0.87451
0.86275	0.86667	0.88235
0.87451	0.87843	0.89020
0.89412	0.89412	0.90588
0.91373	0.91373	0.92549
0.92941	0.93333	0.94118
0.92157	0.92157	0.93333
0.92157	0.92549	0.93333
0.92549	0.92549	0.93333
0.92941	0.92941	0.93725
0.93333	0.93725	0.94118
0.94510	0.94902	0.95294
0.96078	0.96078	0.96471
0.97255	0.97647	0.97647
0.99608	0.99608	0.99608
0.34902	0.36078	0.40784
0.35686	0.36863	0.41569
0.37647	0.38431	0.43137
0.41176	0.42353	0.47059
0.45490	0.46275	0.50980
0.50196	0.51373	0.55686
0.56078	0.56863	0.60784
0.61176	0.61961	0.65882
0.66667	0.67451	0.70588
0.37255	0.38431	0.43137
0.38039	0.39216	0.43922
0.40392	0.41176	0.46275
0.43137	0.43922	0.48627
0.47451	0.48235	0.52941
0.51765	0.52549	0.56863
0.57255	0.58039	0.61961
0.62353	0.63137	0.66667
0.67843	0.68235	0.71373
0.43137	0.43922	0.48627
0.43922	0.44706	0.49412
0.45490	0.46275	0.50980
0.48235	0.49020	0.53725
0.51373	0.52157	0.56471
0.55686	0.56471	0.60784
0.60000	0.60784	0.64314
0.64706	0.65490	0.68627
0.69412	0.70196	0.73333
0.51373	0.52157	0.56471
0.51765	0.52549	0.56863
0.53333	0.54118	0.58431
0.55294	0.56078	0.60000
0.57647	0.58431	0.62745
0.60784	0.61569	0.65490
0.64706	0.65098	0.68627
0.69020	0.69412	0.72549
0.72941	0.73725	0.76471
0.60000	0.60784	0.64706
0.60392	0.61176	0.65098
0.61569	0.62353	0.65882
0.62745	0.63529	0.67059
0.64706	0.65490	0.69020
0.67451	0.68235	0.71373
0.70588	0.70980	0.74118
0.74118	0.74510	0.77255
0.77255	0.77647	0.80000
0.69020	0.69804	0.72549
0.69020	0.69804	0.72941
0.69804	0.70196	0.73333
0.70588	0.71373	0.74118
0.72157	0.72941	0.75686
0.74510	0.74902	0.77647
0.76471	0.77255	0.79608
0.79216	0.80000	0.81961
0.82353	0.82745	0.84706
0.77255	0.77647	0.80000
0.77255	0.77647	0.80000
0.77647	0.78039	0.80392
0.78824	0.79216	0.81569
0.80000	0.80392	0.82353
0.81176	0.81569	0.83529
0.83137	0.83529	0.85490
0.85490	0.85882	0.87451
0.87843	0.87843	0.89412
0.85098	0.85490	0.87059
0.85098	0.85490	0.87059
0.85490	0.85882	0.87451
0.86275	0.86275	0.87843
0.87059	0.87451	0.88627
0.88235	0.88627	0.89804
0.90196	0.90196	0.91373
0.91765	0.92157	0.92941
0.93333	0.93725	0.94510
0.92549	0.92941	0.93725
0.92549	0.92941	0.93725
0.92941	0.92941	0.93725
0.93333	0.93333	0.94118
0.93725	0.94118	0.94902
0.94902	0.94902	0.95686
0.96471	0.96471	0.96863
0.98039	0.98039	0.98039
1.00000	1.00000	1.00000
