LUTGenerator/TEST/CUBE/Duotone/Blue/Duotone_Blue_Strong_sRGB.cube
TITLE Duotone_Blue_Strong_sRGB.cube
LUT_3D_SIZE 5
DOMAIN_MIN 0.0 0.0 0.0
DOMAIN_MAX 1.0 1.0 1.0
0.00784	0.01569	0.07059
0.06667	0.08627	0.15294
0.24314	0.25882	0.33725
0.42353	0.43529	0.49804
0.58431	0.59608	0.63922
0.20000	0.21961	0.29412
0.24314	0.25882	0.33725
0.35294	0.36863	0.43922
0.49020	0.50196	0.56078
0.62353	0.63137	0.67451
0.49412	0.50980	0.56471
0.51373	0.52549	0.57647
0.56078	0.56863	0.61961
0.63529	0.64706	0.68627
0.72941	0.73725	0.76863
0.72549	0.73333	0.76471
0.73725	0.74118	0.77255
0.75686	0.76078	0.78824
0.79608	0.80000	0.82353
0.85490	0.85882	0.87451
0.90588	0.90588	0.91765
0.90980	0.90980	0.92157
0.92157	0.92549	0.93333
0.94510	0.94510	0.95294
0.98039	0.98039	0.98039
0.01569	0.02745	0.08235
0.08627	0.10588	0.17647
0.25490	0.27059	0.34902
0.43137	0.44314	0.50588
0.58824	0.60000	0.64314
0.20784	0.22745	0.30588
0.25490	0.27059	0.34902
0.36078	0.37647	0.44706
0.49804	0.50980	0.56471
0.62745	0.63529	0.67843
0.49804	0.50980	0.56863
0.51765	0.52941	0.58431
0.56471	0.57647	0.62353
0.63922	0.64706	0.69020
0.73333	0.73725	0.76863
0.72941	0.73725	0.76471
0.73725	0.74510	0.77255
0.76078	0.76471	0.79216
0.79608	0.80392	0.82353
0.85490	0.85882	0.87451
0.90588	0.90980	0.91765
0.90980	0.91373	0.92157
0.92157	0.92549	0.93333
0.94510	0.94510	0.95294
0.98039	0.98039	0.98039
0.07843	0.09804	0.16863
0.13725	0.16078	0.23529
0.29020	0.30588	0.38039
0.45098	0.46275	0.52549
0.60000	0.61176	0.65490
0.24706	0.26667	0.34118
0.29020	0.30588	0.38039
0.38039	0.39608	0.46275
0.51373	0.52549	0.58039
0.63922	0.64706	0.68627
0.51373	0.52549	0.58039
0.52941	0.54118	0.59608
0.58039	0.58824	0.63529
0.65098	0.65882	0.69804
0.74118	0.74510	0.77255
0.73725	0.74510	0.77255
0.74510	0.74902	0.78039
0.76471	0.77255	0.79608
0.80392	0.80784	0.83137
0.85882	0.86275	0.87843
0.90980	0.91373	0.92157
0.91373	0.91765	0.92549
0.92549	0.92941	0.93725
0.94902	0.94902	0.95686
0.98431	0.98431	0.98431
0.17647	0.19608	0.27451
0.22353	0.23922	0.31765
0.34118	0.35686	0.42745
0.48235	0.49412	0.54902
0.61569	0.62745	0.67059
0.30588	0.32549	0.39608
0.34118	0.35686	0.42745
0.42353	0.43922	0.49804
0.54118	0.54902	0.60000
0.65882	0.66667	0.70588
0.54118	0.55294	0.60392
0.55294	0.56471	0.61569
0.60000	0.60784	0.65490
0.67059	0.67843	0.71373
0.74902	0.75686	0.78431
0.74902	0.75294	0.78039
0.75294	0.76078	0.78824
0.77647	0.78039	0.80784
0.81176	0.81569	0.83922
0.86667	0.87059	0.88235
0.91765	0.91765	0.92549
0.92157	0.92157	0.93333
0.92941	0.93333	0.94118
0.95294	0.95686	0.96078
0.99216	0.99216	0.99216
0.29020	0.30588	0.38039
0.31765	0.33333	0.40392
0.40784	0.42353	0.48627
0.52549	0.53725	0.59216
0.65098	0.65882	0.69804
0.38039	0.39608	0.46275
0.40784	0.42353	0.48627
0.47843	0.49020	0.54902
0.57255	0.58431	0.63137
0.68235	0.69020	0.72549
0.57647	0.58824	0.63529
0.59216	0.60000	0.64706
0.63137	0.63922	0.67843
0.69020	0.69804	0.73333
0.76863	0.77255	0.80000
0.76471	0.77255	0.79608
0.76863	0.77647	0.80000
0.79216	0.79608	0.81961
0.83137	0.83529	0.85098
0.87843	0.87843	0.89412
0.92549	0.92941	0.93725
0.92941	0.92941	0.93725
0.94118	0.94118	0.94902
0.96471	0.96471	0.96863
1.00000	1.00000	1.00000
