LUTGenerator/TEST/CUBE/Retro/2strip_linear_sRGB.cube
TITLE 2strip_linear_sRGB.cube
LUT_3D_SIZE 5
DOMAIN_MIN 0.0 0.0 0.0
DOMAIN_MAX 1.0 1.0 1.0
0.00000	0.00000	0.00000
0.28627	0.00000	0.00000
0.55294	0.00000	0.00000
0.78824	0.00000	0.00000
1.00000	0.00000	0.00000
0.00000	0.25490	0.25490
0.28627	0.25490	0.25490
0.55294	0.25490	0.25490
0.78824	0.25490	0.25490
1.00000	0.25490	0.25490
0.00000	0.49804	0.49804
0.28627	0.49804	0.49804
0.55294	0.49804	0.49804
0.78824	0.49804	0.49804
1.00000	0.49804	0.49804
0.00000	0.71373	0.71373
0.28627	0.71373	0.71373
0.55294	0.71373	0.71373
0.78824	0.71373	0.71373
1.00000	0.71373	0.71373
0.00000	0.92157	0.92157
0.28627	0.91765	0.91765
0.55294	0.92157	0.92157
0.78824	0.92157	0.92157
1.00000	0.92157	0.92157
0.00000	0.12157	0.12157
0.28627	0.12157	0.12157
0.55294	0.12157	0.12157
0.78824	0.12157	0.12157
1.00000	0.12157	0.12157
0.00000	0.28627	0.28627
0.28627	0.28627	0.28627
0.55294	0.28627	0.28627
0.78824	0.28627	0.28627
1.00000	0.28627	0.28627
0.00000	0.51373	0.51373
0.28627	0.51373	0.51373
0.55294	0.51373	0.51373
0.78824	0.51373	0.51373
1.00000	0.51373	0.51373
0.00000	0.72157	0.72157
0.28627	0.72157	0.72157
0.55294	0.72157	0.72157
0.78824	0.72157	0.72157
1.00000	0.72157	0.72157
0.00000	0.92549	0.92549
0.28627	0.92549	0.92549
0.55294	0.92549	0.92549
0.78824	0.92549	0.92549
1.00000	0.92549	0.92549
0.00000	0.25490	0.25490
0.28627	0.25490	0.25490
0.55294	0.25490	0.25490
0.78824	0.25490	0.25490
1.00000	0.25490	0.25490
0.00000	0.36078	0.36078
0.28627	0.36078	0.36078
0.55294	0.36078	0.36078
0.78824	0.36078	0.36078
1.00000	0.36078	0.36078
0.00000	0.55294	0.55294
0.28627	0.55294	0.55294
0.55294	0.55294	0.55294
0.78824	0.55294	0.55294
1.00000	0.55294	0.55294
0.00000	0.74902	0.74902
0.28627	0.74902	0.74902
0.55294	0.74902	0.74902
0.78824	0.74902	0.74902
1.00000	0.74902	0.74902
0.00000	0.94510	0.94510
0.28627	0.94510	0.94510
0.55294	0.94510	0.94510
0.78824	0.94510	0.94510
1.00000	0.94510	0.94510
0.00000	0.37647	0.37647
0.28627	0.37647	0.37647
0.55294	0.37647	0.37647
0.78824	0.37647	0.37647
1.00000	0.37647	0.37647
0.00000	0.45098	0.45098
0.28627	0.45098	0.45098
0.55294	0.44706	0.44706
0.78824	0.44706	0.44706
1.00000	0.44706	0.44706
0.00000	0.60784	0.60784
0.28627	0.60784	0.60784
0.55294	0.60784	0.60784
0.78824	0.60784	0.60784
1.00000	0.60784	0.60784
0.00000	0.78824	0.78824
0.28627	0.78824	0.78824
0.55294	0.78824	0.78824
0.78824	0.78824	0.78824
1.00000	0.78824	0.78824
0.00000	0.97647	0.97647
0.28627	0.97647	0.97647
0.55294	0.97647	0.97647
0.78824	0.97647	0.97647
1.00000	0.97647	0.97647
0.00000	0.49020	0.49020
0.28627	0.49020	0.49020
0.55294	0.49020	0.49020
0.78824	0.49412	0.49412
1.00000	0.49020	0.49020
0.00000	0.54902	0.54902
0.28627	0.54902	0.54902
0.55294	0.54902	0.54902
0.78824	0.54902	0.54902
1.00000	0.54902	0.54902
0.00000	0.67843	0.67843
0.28627	0.68235	0.68235
0.55294	0.67843	0.67843
0.78824	0.67843	0.67843
1.00000	0.67843	0.67843
0.00000	0.83922	0.83922
0.28627	0.83922	0.83922
0.55294	0.83922	0.83922
0.78824	0.83922	0.83922
1.00000	0.83922	0.83922
0.00000	1.00000	1.00000
0.28627	1.00000	1.00000
0.55294	1.00000	1.00000
0.78824	1.00000	1.00000
1.00000	1.00000	1.00000
