LUTGenerator/TEST/CUBE/Retro/2strip_linear_sRGB.cube
TITLE 2strip_linear_sRGB.cube
LUT_3D_SIZE 17
DOMAIN_MIN 0.0 0.0 0.0
DOMAIN_MAX 1.0 1.0 1.0
0.00000	0.00000	0.00000
0.07843	0.00000	0.00000
0.14510	0.00000	0.00000
0.21569	0.00000	0.00000
0.28627	0.00000	0.00000
0.35686	0.00000	0.00000
0.42745	0.00000	0.00000
0.49412	0.00000	0.00000
0.55294	0.00000	0.00000
0.61176	0.00000	0.00000
0.67059	0.00000	0.00000
0.72941	0.00000	0.00000
0.78824	0.00000	0.00000
0.84314	0.00000	0.00000
0.90196	0.00000	0.00000
0.95686	0.00000	0.00000
1.00000	0.00000	0.00000
0.00000	0.06667	0.06667
0.07843	0.06667	0.06667
0.14510	0.06275	0.06275
0.21569	0.06667	0.06667
0.28627	0.06667	0.06667
0.35686	0.06667	0.06667
0.42745	0.06667	0.06667
0.49412	0.06667	0.06667
0.55294	0.06667	0.06667
0.61176	0.06667	0.06667
0.67059	0.06667	0.06667
0.72941	0.06275	0.06667
0.78824	0.06667	0.06667
0.84314	0.06667	0.06667
0.90196	0.06667	0.06667
0.95686	0.06667	0.06667
1.00000	0.06667	0.06667
0.00000	0.12941	0.12941
0.07843	0.12941	0.12941
0.14510	0.12941	0.12941
0.21569	0.12941	0.12941
0.28627	0.12941	0.12941
0.35686	0.12941	0.12941
0.42745	0.12941	0.12941
0.49412	0.12941	0.12941
0.55294	0.12941	0.12941
0.61176	0.12941	0.12941
0.67059	0.12941	0.12941
0.72941	0.12941	0.12941
0.78824	0.12941	0.12941
0.84314	0.12941	0.12941
0.90196	0.12941	0.12941
0.95686	0.12941	0.12941
1.00000	0.12941	0.12941
0.00000	0.19216	0.19216
0.07843	0.19216	0.19216
0.14510	0.19216	0.19216
0.21569	0.19216	0.19216
0.28627	0.19216	0.19216
0.35686	0.19216	0.19216
0.42745	0.19216	0.19216
0.49412	0.19216	0.19216
0.55294	0.19216	0.19216
0.61176	0.19216	0.19216
0.67059	0.19216	0.19216
0.72941	0.19216	0.19216
0.78824	0.19216	0.19216
0.84314	0.19216	0.19216
0.90196	0.19216	0.19216
0.95686	0.19216	0.19216
1.00000	0.19216	0.19216
0.00000	0.25490	0.25490
0.07843	0.25490	0.25490
0.14510	0.25490	0.25490
0.21569	0.25490	0.25490
0.28627	0.25490	0.25490
0.35686	0.25490	0.25490
0.42745	0.25490	0.25490
0.49412	0.25490	0.25490
0.55294	0.25490	0.25490
0.61176	0.25490	0.25490
0.67059	0.25490	0.25490
0.72941	0.25490	0.25490
0.78824	0.25490	0.25490
0.84314	0.25490	0.25490
0.90196	0.25490	0.25490
0.95686	0.25490	0.25490
1.00000	0.25490	0.25490
0.00000	0.32157	0.32157
0.07451	0.32157	0.32157
0.14510	0.32157	0.32157
0.21569	0.32157	0.32157
0.28627	0.32157	0.32157
0.35686	0.32157	0.32157
0.42745	0.32157	0.32157
0.49412	0.32157	0.32157
0.55294	0.32157	0.32157
0.61176	0.32157	0.32157
0.67059	0.32157	0.32157
0.72941	0.32157	0.32157
0.78824	0.32157	0.32157
0.84314	0.32157	0.32157
0.90196	0.32157	0.32157
0.95686	0.32157	0.32157
1.00000	0.32157	0.32157
0.00000	0.38431	0.38431
0.07843	0.38431	0.38431
0.14510	0.38431	0.38431
0.21569	0.38431	0.38431
0.28627	0.38431	0.38431
0.35686	0.38431	0.38431
0.42745	0.38431	0.38431
0.49412	0.38431	0.38431
0.55294	0.38431	0.38431
0.61176	0.38431	0.38431
0.67059	0.38431	0.38431
0.72941	0.38431	0.38431
0.78824	0.38431	0.38431
0.84314	0.38431	0.38431
0.90196	0.38431	0.38431
0.95686	0.38431	0.38431
1.00000	0.38431	0.38431
0.00000	0.44314	0.44314
0.07451	0.44314	0.44314
0.14510	0.44314	0.44314
0.21569	0.44314	0.44314
0.28627	0.44314	0.44314
0.35686	0.44314	0.44314
0.42745	0.44314	0.44314
0.49412	0.44314	0.44314
0.55294	0.44314	0.44314
0.61176	0.44314	0.44314
0.67059	0.44314	0.44314
0.72941	0.44314	0.44314
0.78824	0.44314	0.44314
0.84314	0.44314	0.44314
0.90196	0.44314	0.44314
0.95686	0.44314	0.44314
1.00000	0.44314	0.44314
0.00000	0.49804	0.49804
0.07843	0.49804	0.49804
0.14510	0.49804	0.49804
0.21569	0.49804	0.49804
0.28627	0.49804	0.49804
0.35686	0.49804	0.49804
0.42745	0.49804	0.49804
0.49412	0.49804	0.49804
0.55294	0.49804	0.49804
0.61176	0.49804	0.49804
0.67059	0.49804	0.49804
0.72941	0.49804	0.49804
0.78824	0.49804	0.49804
0.84314	0.49804	0.49804
0.90196	0.49804	0.49804
0.95686	0.49804	0.49804
1.00000	0.49804	0.49804
0.00000	0.55294	0.55294
0.07451	0.55294	0.55294
0.14510	0.55294	0.55294
0.21569	0.55294	0.55294
0.28627	0.55294	0.55294
0.35686	0.55294	0.55294
0.42745	0.55294	0.55294
0.49412	0.55294	0.55294
0.55294	0.55294	0.55294
0.61176	0.55294	0.55294
0.67059	0.55294	0.55294
0.72941	0.55294	0.55294
0.78824	0.55294	0.55294
0.84314	0.55294	0.55294
0.90196	0.55294	0.55294
0.96078	0.55294	0.55294
1.00000	0.55294	0.55294
0.00000	0.60392	0.60392
0.07843	0.60392	0.60392
0.14510	0.60392	0.60392
0.21569	0.60392	0.60392
0.28627	0.60392	0.60392
0.35686	0.60392	0.60392
0.42745	0.60392	0.60392
0.49412	0.60392	0.60392
0.55294	0.60392	0.60392
0.61176	0.60392	0.60392
0.67059	0.60392	0.60392
0.72941	0.60392	0.60392
0.78824	0.60392	0.60392
0.84314	0.60392	0.60392
0.90196	0.60392	0.60392
0.95686	0.60392	0.60392
1.00000	0.60392	0.60392
0.00000	0.65882	0.65882
0.07843	0.65882	0.65882
0.14510	0.65882	0.65882
0.21569	0.65882	0.65882
0.28627	0.65882	0.65882
0.35686	0.65882	0.65882
0.42745	0.65882	0.65882
0.49412	0.65882	0.65882
0.55294	0.65882	0.65882
0.61176	0.65882	0.65882
0.67059	0.65882	0.65882
0.72941	0.65882	0.65882
0.78824	0.65882	0.65882
0.84314	0.65882	0.65882
0.90196	0.65882	0.65882
0.95686	0.65882	0.65882
1.00000	0.65882	0.65882
0.00000	0.71373	0.71373
0.07843	0.71373	0.71373
0.14510	0.71373	0.71373
0.21569	0.71373	0.71373
0.28627	0.71373	0.71373
0.35686	0.71373	0.71373
0.42745	0.71373	0.71373
0.49412	0.71373	0.71373
0.55294	0.71373	0.71373
0.61176	0.71373	0.71373
0.67059	0.71373	0.71373
0.72941	0.71373	0.71373
0.78824	0.71373	0.71373
0.84314	0.71373	0.71373
0.90196	0.71373	0.71373
0.96078	0.71373	0.71373
1.00000	0.71373	0.71373
0.00000	0.76471	0.76471
0.07843	0.76471	0.76471
0.14510	0.76471	0.76471
0.21569	0.76471	0.76471
0.28627	0.76471	0.76471
0.35686	0.76471	0.76471
0.42745	0.76471	0.76471
0.49412	0.76471	0.76471
0.55294	0.76471	0.76471
0.61176	0.76471	0.76471
0.67059	0.76471	0.76471
0.72941	0.76471	0.76471
0.78824	0.76471	0.76471
0.84314	0.76471	0.76471
0.90196	0.76471	0.76471
0.95686	0.76471	0.76471
1.00000	0.76471	0.76471
0.00000	0.81569	0.81569
0.07843	0.81569	0.81569
0.14510	0.81569	0.81569
0.21569	0.81569	0.81569
0.28627	0.81569	0.81569
0.35686	0.81569	0.81569
0.42745	0.81569	0.81569
0.49412	0.81569	0.81569
0.55294	0.81569	0.81569
0.61176	0.81569	0.81569
0.67059	0.81569	0.81569
0.72941	0.81569	0.81569
0.78824	0.81569	0.81569
0.84314	0.81569	0.81569
0.90196	0.81569	0.81569
0.95686	0.81569	0.81569
1.00000	0.81569	0.81569
0.00000	0.86667	0.86667
0.07843	0.87059	0.87059
0.14510	0.86667	0.86667
0.21569	0.87059	0.87059
0.28627	0.86667	0.86667
0.35686	0.87059	0.87059
0.42745	0.86667	0.86667
0.49412	0.86667	0.86667
0.55294	0.87059	0.87059
0.61176	0.86667	0.86667
0.67059	0.86667	0.86667
0.72941	0.86667	0.86667
0.78824	0.86667	0.86667
0.84314	0.86667	0.86667
0.90196	0.86667	0.86667
0.95686	0.87059	0.87059
1.00000	0.87059	0.87059
0.00000	0.92157	0.92157
0.07843	0.92157	0.92157
0.14902	0.92157	0.92157
0.21569	0.92157	0.92157
0.28627	0.91765	0.91765
0.35686	0.91765	0.91765
0.42745	0.92157	0.92157
0.49412	0.92157	0.92157
0.55294	0.92157	0.92157
0.61176	0.92157	0.92157
0.67059	0.92157	0.92157
0.72941	0.92157	0.92157
0.78824	0.92157	0.92157
0.84314	0.92157	0.92157
0.90196	0.92157	0.92157
0.95686	0.91765	0.91765
1.00000	0.92157	0.92157
0.00000	0.01569	0.01569
0.07451	0.01569	0.01569
0.14510	0.01569	0.01569
0.21569	0.01569	0.01569
0.28627	0.01569	0.01569
0.35686	0.01569	0.01569
0.42745	0.01569	0.01569
0.49412	0.01569	0.01569
0.55294	0.01569	0.01569
0.61176	0.01569	0.01569
0.67059	0.01569	0.01569
0.72941	0.01569	0.01961
0.78824	0.01569	0.01961
0.84314	0.01961	0.01961
0.90196	0.01569	0.01961
0.95686	0.01569	0.01961
1.00000	0.01569	0.01961
0.00000	0.07843	0.07843
0.07451	0.07451	0.07451
0.14510	0.07843	0.07843
0.21569	0.07843	0.07843
0.28627	0.07843	0.07843
0.35686	0.07843	0.07843
0.42745	0.07843	0.07843
0.49412	0.07451	0.07843
0.55294	0.07451	0.07451
0.61176	0.07843	0.07843
0.67059	0.07843	0.07843
0.72941	0.07843	0.07843
0.78824	0.07843	0.07843
0.84314	0.07451	0.07451
0.90196	0.07843	0.07843
0.95686	0.07843	0.07843
1.00000	0.07843	0.07843
0.00000	0.13333	0.13333
0.07843	0.13725	0.13725
0.14510	0.13333	0.13333
0.21569	0.13725	0.13725
0.28627	0.13725	0.13725
0.35686	0.13725	0.13725
0.42745	0.13333	0.13333
0.49412	0.13333	0.13333
0.55294	0.13725	0.13725
0.61176	0.13333	0.13333
0.67059	0.13725	0.13725
0.72941	0.13725	0.13725
0.78824	0.13725	0.13725
0.84314	0.13725	0.13725
0.90196	0.13725	0.13725
0.95686	0.13725	0.13725
1.00000	0.13725	0.13725
0.00000	0.19608	0.19608
0.07843	0.19608	0.19608
0.14510	0.19608	0.19608
0.21569	0.19608	0.19608
0.28627	0.19608	0.19608
0.35686	0.19608	0.19608
0.42745	0.19608	0.19608
0.49412	0.19608	0.19608
0.55294	0.19608	0.19608
0.61176	0.19608	0.19608
0.67059	0.19608	0.19608
0.72941	0.19608	0.19608
0.78824	0.19608	0.19608
0.84314	0.19608	0.19608
0.90196	0.19608	0.19608
0.96078	0.19608	0.19608
1.00000	0.19608	0.19608
0.00000	0.25882	0.25882
0.07843	0.25882	0.25882
0.14510	0.25882	0.25882
0.21569	0.25882	0.25882
0.28627	0.25882	0.25882
0.35686	0.25882	0.25882
0.42745	0.25882	0.25882
0.49412	0.25882	0.25882
0.55294	0.25882	0.25882
0.61176	0.25882	0.25882
0.67059	0.25882	0.25882
0.72941	0.25882	0.25882
0.78824	0.25882	0.25882
0.84314	0.25882	0.25882
0.90196	0.25882	0.25882
0.95686	0.25882	0.25882
1.00000	0.25882	0.25882
0.00000	0.32157	0.32157
0.07843	0.32157	0.32157
0.14510	0.32157	0.32157
0.21569	0.32157	0.32157
0.28627	0.32157	0.32157
0.35686	0.32157	0.32157
0.42745	0.32157	0.32157
0.49412	0.32157	0.32157
0.55294	0.32157	0.32157
0.61176	0.32157	0.32157
0.67059	0.32157	0.32157
0.72941	0.32157	0.32157
0.78824	0.32157	0.32157
0.84314	0.32157	0.32157
0.90196	0.32157	0.32157
0.95686	0.32157	0.32157
1.00000	0.32157	0.32157
0.00000	0.38824	0.38824
0.07843	0.38824	0.38824
0.14902	0.38824	0.38824
0.21569	0.38824	0.38824
0.28627	0.38824	0.38824
0.35686	0.38824	0.38824
0.42745	0.38824	0.38824
0.49412	0.38824	0.38824
0.55294	0.38824	0.38824
0.61176	0.38824	0.38824
0.67059	0.38824	0.38824
0.72941	0.38824	0.38824
0.78824	0.38824	0.38824
0.84314	0.38824	0.38824
0.90196	0.38431	0.38431
0.95686	0.38824	0.38824
1.00000	0.38431	0.38824
0.00000	0.44706	0.44706
0.07843	0.44706	0.44706
0.14902	0.44706	0.44706
0.21569	0.44706	0.44706
0.28627	0.44706	0.44706
0.35686	0.44706	0.44706
0.42745	0.44706	0.44706
0.49412	0.44706	0.44706
0.55294	0.44706	0.44706
0.61176	0.44706	0.44706
0.67059	0.44706	0.44706
0.72941	0.44706	0.44706
0.78431	0.44706	0.44706
0.84314	0.44706	0.44706
0.90196	0.44706	0.44706
0.96078	0.44706	0.44706
1.00000	0.44706	0.44706
0.00000	0.50196	0.50196
0.07843	0.50196	0.50196
0.14510	0.50196	0.50196
0.21569	0.50196	0.50196
0.28627	0.50196	0.50196
0.35686	0.50196	0.50196
0.42745	0.50196	0.50196
0.49412	0.50196	0.50196
0.55294	0.50196	0.50196
0.61176	0.50196	0.50196
0.67059	0.50196	0.50196
0.72941	0.50196	0.50196
0.78824	0.50196	0.50196
0.84314	0.50196	0.50196
0.90196	0.50196	0.50196
0.95686	0.50196	0.50196
1.00000	0.50196	0.50196
0.00000	0.55294	0.55294
0.07843	0.55294	0.55294
0.14510	0.55294	0.55294
0.21569	0.55294	0.55294
0.28627	0.55294	0.55294
0.35686	0.55294	0.55294
0.42745	0.55294	0.55294
0.49412	0.55294	0.55294
0.55294	0.55294	0.55294
0.61176	0.55294	0.55294
0.67059	0.55294	0.55294
0.72941	0.55294	0.55294
0.78824	0.55294	0.55294
0.84314	0.55294	0.55294
0.90196	0.55294	0.55294
0.95686	0.55294	0.55294
1.00000	0.55294	0.55294
0.00000	0.60784	0.60784
0.07451	0.60784	0.60784
0.14510	0.60784	0.60784
0.21569	0.60784	0.60784
0.28627	0.60784	0.60784
0.35686	0.60784	0.60784
0.42745	0.60784	0.60784
0.49412	0.60784	0.60784
0.55294	0.60784	0.60784
0.61176	0.60784	0.60784
0.67059	0.60784	0.60784
0.72941	0.60784	0.60784
0.78824	0.60784	0.60784
0.84314	0.60784	0.60784
0.90196	0.60784	0.60784
0.95686	0.60784	0.60784
1.00000	0.60784	0.60784
0.00000	0.65882	0.65882
0.07843	0.65882	0.65882
0.14510	0.65882	0.65882
0.21569	0.65882	0.65882
0.28627	0.65882	0.65882
0.35686	0.65882	0.65882
0.42745	0.65882	0.65882
0.49412	0.65882	0.65882
0.55294	0.65882	0.65882
0.61176	0.65882	0.65882
0.67059	0.65882	0.65882
0.72941	0.65882	0.65882
0.78824	0.65882	0.65882
0.84314	0.65882	0.65882
0.90196	0.65882	0.65882
0.95686	0.65882	0.65882
1.00000	0.65882	0.65882
0.00000	0.71373	0.71373
0.07451	0.71373	0.71373
0.14510	0.71373	0.71373
0.21569	0.71373	0.71373
0.28627	0.71373	0.71373
0.35686	0.71373	0.71373
0.42745	0.71373	0.71373
0.49412	0.71373	0.71373
0.55294	0.71373	0.71373
0.61176	0.71373	0.71373
0.67059	0.71373	0.71373
0.72941	0.71373	0.71373
0.78824	0.71373	0.71373
0.84314	0.71373	0.71373
0.90196	0.71373	0.71373
0.96078	0.71373	0.71373
1.00000	0.71373	0.71373
0.00000	0.76471	0.76471
0.07843	0.76471	0.76471
0.14510	0.76471	0.76471
0.21569	0.76471	0.76471
0.28627	0.76471	0.76471
0.35686	0.76471	0.76471
0.42745	0.76471	0.76471
0.49412	0.76471	0.76471
0.55294	0.76471	0.76471
0.61176	0.76471	0.76471
0.67059	0.76471	0.76471
0.72941	0.76471	0.76471
0.78824	0.76471	0.76471
0.84314	0.76471	0.76471
0.90196	0.76471	0.76471
0.95686	0.76471	0.76471
1.00000	0.76471	0.76471
0.00000	0.81961	0.81961
0.07843	0.81961	0.81961
0.14510	0.81569	0.81569
0.21569	0.81961	0.81961
0.28627	0.81569	0.81569
0.35686	0.81961	0.81961
0.42745	0.81569	0.81569
0.49412	0.81569	0.81569
0.55294	0.81961	0.81961
0.61176	0.81569	0.81569
0.67059	0.81569	0.81569
0.72941	0.81961	0.81961
0.78824	0.81569	0.81569
0.84314	0.81961	0.81961
0.90196	0.81569	0.81569
0.95686	0.81961	0.81961
1.00000	0.81961	0.81961
0.00000	0.87059	0.87059
0.07843	0.87059	0.87059
0.14510	0.87059	0.87059
0.21569	0.87059	0.87059
0.28627	0.87059	0.87059
0.35686	0.87059	0.87059
0.42745	0.87059	0.87059
0.49412	0.87059	0.87059
0.55294	0.87059	0.87059
0.61176	0.87059	0.87059
0.67059	0.87059	0.87059
0.72941	0.87059	0.87059
0.78824	0.87059	0.87059
0.84314	0.87059	0.87059
0.90196	0.87059	0.87059
0.95686	0.87059	0.87059
1.00000	0.87059	0.87059
0.00000	0.92157	0.92157
0.07843	0.92157	0.92157
0.14510	0.92157	0.92157
0.21569	0.92157	0.92157
0.28627	0.92157	0.92157
0.35686	0.92157	0.92157
0.42745	0.92157	0.92157
0.49412	0.92157	0.92157
0.55294	0.92157	0.92157
0.61176	0.92157	0.92157
0.67059	0.92157	0.92157
0.72941	0.92157	0.92157
0.78824	0.92157	0.92157
0.84314	0.92157	0.92157
0.90196	0.92157	0.92157
0.95686	0.92157	0.92157
1.00000	0.92157	0.92157
0.00000	0.04706	0.04706
0.07843	0.04706	0.04706
0.14510	0.04706	0.04706
0.21569	0.04706	0.04706
0.28627	0.04706	0.04706
0.35686	0.04706	0.04706
0.42745	0.04706	0.04706
0.49412	0.04706	0.04706
0.55294	0.04706	0.04706
0.61176	0.04706	0.04706
0.67059	0.04706	0.04706
0.72941	0.04706	0.04706
0.78824	0.04706	0.04706
0.84314	0.04706	0.04706
0.90196	0.04706	0.04706
0.95686	0.04706	0.04706
1.00000	0.04706	0.04706
0.00000	0.09412	0.09412
0.07451	0.09412	0.09412
0.14510	0.09412	0.09412
0.21569	0.09412	0.09412
0.28627	0.09412	0.09412
0.35686	0.09412	0.09412
0.42745	0.09412	0.09412
0.49412	0.09412	0.09412
0.55294	0.09412	0.09412
0.61176	0.09412	0.09412
0.67059	0.09412	0.09412
0.72941	0.09412	0.09412
0.78824	0.09412	0.09412
0.84314	0.09412	0.09412
0.90196	0.09412	0.09412
0.96078	0.09412	0.09412
1.00000	0.09412	0.09412
0.00000	0.14510	0.14510
0.07843	0.14510	0.14510
0.14510	0.14510	0.14510
0.21569	0.14510	0.14510
0.28627	0.14510	0.14510
0.35686	0.14510	0.14510
0.42745	0.14510	0.14510
0.49412	0.14510	0.14510
0.55294	0.14510	0.14510
0.61176	0.14510	0.14510
0.67059	0.14510	0.14510
0.72941	0.14510	0.14510
0.78824	0.14902	0.14902
0.84314	0.14510	0.14510
0.90196	0.14510	0.14510
0.95686	0.14510	0.14510
1.00000	0.14510	0.14510
0.00000	0.20392	0.20392
0.07843	0.20392	0.20392
0.14510	0.20392	0.20392
0.21569	0.20392	0.20392
0.28627	0.20392	0.20392
0.35686	0.20392	0.20392
0.42745	0.20392	0.20392
0.49412	0.20392	0.20392
0.55294	0.20392	0.20392
0.61176	0.20392	0.20392
0.67059	0.20392	0.20392
0.72941	0.20392	0.20392
0.78824	0.20392	0.20392
0.84314	0.20392	0.20392
0.90196	0.20392	0.20392
0.95686	0.20392	0.20392
1.00000	0.20392	0.20392
0.00000	0.26667	0.26667
0.07843	0.26667	0.26667
0.14510	0.26667	0.26667
0.21569	0.26667	0.26667
0.28627	0.26667	0.26667
0.35686	0.26667	0.26667
0.42745	0.26667	0.26667
0.49412	0.26667	0.26667
0.55294	0.26667	0.26667
0.61176	0.26667	0.26667
0.67059	0.26667	0.26667
0.72941	0.26667	0.26667
0.78824	0.26667	0.26667
0.84314	0.26667	0.26667
0.90196	0.26667	0.26667
0.95686	0.26667	0.26667
1.00000	0.26667	0.26667
0.00000	0.32549	0.32549
0.07843	0.32549	0.32549
0.14510	0.32941	0.32941
0.21569	0.32941	0.32941
0.28627	0.32549	0.32549
0.35686	0.32549	0.32549
0.42745	0.32549	0.32549
0.49412	0.32549	0.32549
0.55294	0.32549	0.32549
0.61176	0.32941	0.32941
0.67059	0.32941	0.32941
0.72941	0.32941	0.32941
0.78824	0.32549	0.32941
0.84314	0.32941	0.32941
0.90196	0.32549	0.32941
0.95686	0.32549	0.32549
1.00000	0.32941	0.32941
0.00000	0.38824	0.38824
0.07843	0.38824	0.38824
0.14510	0.38824	0.38824
0.21569	0.38824	0.38824
0.28627	0.39216	0.39216
0.35686	0.38824	0.38824
0.42745	0.38824	0.38824
0.49412	0.38824	0.38824
0.55294	0.38824	0.38824
0.61176	0.38824	0.38824
0.67059	0.38824	0.38824
0.72941	0.38824	0.38824
0.78824	0.38824	0.38824
0.84314	0.38824	0.38824
0.90196	0.38824	0.38824
0.95686	0.38824	0.38824
1.00000	0.38824	0.38824
0.00000	0.44706	0.44706
0.07451	0.44706	0.44706
0.14510	0.44706	0.44706
0.21569	0.45098	0.45098
0.28627	0.45098	0.45098
0.35686	0.44706	0.44706
0.42745	0.44706	0.44706
0.49412	0.44706	0.44706
0.55294	0.44706	0.44706
0.61176	0.44706	0.44706
0.67059	0.44706	0.44706
0.72941	0.44706	0.44706
0.78824	0.45098	0.45098
0.84314	0.45098	0.45098
0.90196	0.44706	0.44706
0.95686	0.44706	0.44706
1.00000	0.44706	0.44706
0.00000	0.50196	0.50196
0.07451	0.50196	0.50196
0.14510	0.50196	0.50196
0.21569	0.50196	0.50196
0.28627	0.50196	0.50196
0.35686	0.50196	0.50196
0.42745	0.50196	0.50196
0.49412	0.50196	0.50196
0.55294	0.50196	0.50196
0.61176	0.50196	0.50196
0.67059	0.50196	0.50196
0.72941	0.50196	0.50196
0.78824	0.50196	0.50196
0.84314	0.50196	0.50196
0.90196	0.50196	0.50196
0.96078	0.50196	0.50196
1.00000	0.50196	0.50196
0.00000	0.55686	0.55686
0.07843	0.55686	0.55686
0.14510	0.55686	0.55686
0.21569	0.55686	0.55686
0.28627	0.55686	0.55686
0.35686	0.55686	0.55686
0.42745	0.55686	0.55686
0.49412	0.55686	0.55686
0.55294	0.55686	0.55686
0.61176	0.55686	0.55686
0.67059	0.55686	0.55686
0.72941	0.55686	0.55686
0.78824	0.55294	0.55294
0.84314	0.55686	0.55686
0.90196	0.55686	0.55686
0.95686	0.55686	0.55686
1.00000	0.55686	0.55686
0.00000	0.60784	0.60784
0.07843	0.60784	0.60784
0.14510	0.60784	0.60784
0.21569	0.60784	0.60784
0.28627	0.60784	0.60784
0.35686	0.60784	0.60784
0.42745	0.60784	0.60784
0.49412	0.60784	0.60784
0.55294	0.60784	0.60784
0.61176	0.60784	0.60784
0.67059	0.60784	0.60784
0.72941	0.60784	0.60784
0.78824	0.60784	0.60784
0.84314	0.60784	0.60784
0.90196	0.60784	0.60784
0.96078	0.60784	0.60784
1.00000	0.60784	0.60784
0.00000	0.66275	0.66275
0.07451	0.66275	0.66275
0.14510	0.66275	0.66275
0.21569	0.66275	0.66275
0.28627	0.66275	0.66275
0.35686	0.66275	0.66275
0.42745	0.66275	0.66275
0.49412	0.66275	0.66275
0.55294	0.66275	0.66275
0.61176	0.66275	0.66275
0.67059	0.66275	0.66275
0.72941	0.66275	0.66275
0.78824	0.66275	0.66275
0.84314	0.66275	0.66275
0.90196	0.66275	0.66275
0.95686	0.66275	0.66275
1.00000	0.66275	0.66275
0.00000	0.71373	0.71373
0.07843	0.71373	0.71373
0.14510	0.71373	0.71373
0.21569	0.71373	0.71373
0.28627	0.71373	0.71373
0.35686	0.71373	0.71373
0.42745	0.71373	0.71373
0.49412	0.71373	0.71373
0.55294	0.71373	0.71373
0.61176	0.71373	0.71373
0.67059	0.71373	0.71373
0.72941	0.71373	0.71373
0.78824	0.71373	0.71373
0.84314	0.71373	0.71373
0.90196	0.71373	0.71373
0.95686	0.71373	0.71373
1.00000	0.71373	0.71373
0.00000	0.76863	0.76863
0.07843	0.76863	0.76863
0.14902	0.76863	0.76863
0.21569	0.76863	0.76863
0.28627	0.76863	0.76863
0.35686	0.76863	0.76863
0.42745	0.76863	0.76863
0.49412	0.76863	0.76863
0.55294	0.76863	0.76863
0.61176	0.76863	0.76863
0.67059	0.76863	0.76863
0.72941	0.76863	0.76863
0.78824	0.76863	0.76863
0.84314	0.76863	0.76863
0.90196	0.76863	0.76863
0.95686	0.76471	0.76471
1.00000	0.76863	0.76863
0.00000	0.81961	0.81961
0.07843	0.81961	0.81961
0.14902	0.81961	0.81961
0.21569	0.81961	0.81961
0.28627	0.81961	0.81961
0.35686	0.81961	0.81961
0.42745	0.81961	0.81961
0.49412	0.81961	0.81961
0.55294	0.81961	0.81961
0.61176	0.81961	0.81961
0.67059	0.81961	0.81961
0.72941	0.81961	0.81961
0.78824	0.81961	0.81961
0.84314	0.81961	0.81961
0.90196	0.81961	0.81961
0.95686	0.81961	0.81961
1.00000	0.81961	0.81961
0.00000	0.87059	0.87059
0.07843	0.87059	0.87059
0.14510	0.87059	0.87059
0.21569	0.87059	0.87059
0.28627	0.87059	0.87059
0.35686	0.87059	0.87059
0.42745	0.87059	0.87059
0.49412	0.87059	0.87059
0.55294	0.87059	0.87059
0.61176	0.87059	0.87059
0.67059	0.87059	0.87059
0.72941	0.87059	0.87059
0.78824	0.87059	0.87059
0.84314	0.87059	0.87059
0.90196	0.87059	0.87059
0.96078	0.87059	0.87059
1.00000	0.87059	0.87059
0.00000	0.92157	0.92157
0.07843	0.92157	0.92157
0.14510	0.92157	0.92157
0.21569	0.92157	0.92157
0.28627	0.92157	0.92157
0.35686	0.92157	0.92157
0.42745	0.92157	0.92157
0.49412	0.92157	0.92157
0.55294	0.92157	0.92157
0.61176	0.92157	0.92157
0.67059	0.92157	0.92157
0.72941	0.92157	0.92157
0.78824	0.92157	0.92157
0.84314	0.92157	0.92157
0.90196	0.92157	0.92157
0.95686	0.92157	0.92157
1.00000	0.92157	0.92157
0.00000	0.08235	0.08235
0.07843	0.08235	0.08235
0.14510	0.08235	0.08235
0.21569	0.08235	0.08235
0.28627	0.08235	0.08235
0.35686	0.08235	0.08235
0.42745	0.08235	0.08235
0.49412	0.08235	0.08235
0.55294	0.08235	0.08235
0.61176	0.08235	0.08235
0.67059	0.08235	0.08235
0.72941	0.08235	0.08235
0.78824	0.08627	0.08627
0.84314	0.08235	0.08627
0.90196	0.08235	0.08235
0.96078	0.08235	0.08627
1.00000	0.08235	0.08627
0.00000	0.11765	0.11765
0.07843	0.11765	0.11765
0.14510	0.11765	0.11765
0.21569	0.11765	0.11765
0.28627	0.11765	0.11765
0.35686	0.11765	0.11765
0.42745	0.11765	0.11765
0.49412	0.11765	0.11765
0.55294	0.11765	0.11765
0.61176	0.11765	0.11765
0.67059	0.11765	0.11765
0.72941	0.11765	0.11765
0.78824	0.11765	0.11765
0.84314	0.11765	0.11765
0.90196	0.11765	0.11765
0.95686	0.11765	0.11765
