LUTGenerator/TEST/CUBE/Retro/2strip_linear_sRGB.cube
TITLE 2strip_linear_sRGB.cube
LUT_3D_SIZE 9
DOMAIN_MIN 0.0 0.0 0.0
DOMAIN_MAX 1.0 1.0 1.0
0.00000	0.00000	0.00000
0.14510	0.00000	0.00000
0.28627	0.00000	0.00000
0.42745	0.00000	0.00000
0.55294	0.00000	0.00000
0.67059	0.00000	0.00000
0.78824	0.00000	0.00000
0.90196	0.00000	0.00000
1.00000	0.00000	0.00000
0.00000	0.12941	0.12941
0.14510	0.12941	0.12941
0.28627	0.12941	0.12941
0.42745	0.12941	0.12941
0.55294	0.12941	0.12941
0.67059	0.12941	0.12941
0.78824	0.12941	0.12941
0.90196	0.12941	0.12941
1.00000	0.12941	0.12941
0.00000	0.25490	0.25490
0.14510	0.25490	0.25490
0.28627	0.25490	0.25490
0.42745	0.25490	0.25490
0.55294	0.25490	0.25490
0.67059	0.25490	0.25490
0.78824	0.25490	0.25490
0.90196	0.25490	0.25490
1.00000	0.25490	0.25490
0.00000	0.38431	0.38431
0.14510	0.38431	0.38431
0.28627	0.38431	0.38431
0.42745	0.38431	0.38431
0.55294	0.38431	0.38431
0.67059	0.38431	0.38431
0.78824	0.38431	0.38431
0.90196	0.38431	0.38431
1.00000	0.38431	0.38431
0.00000	0.49804	0.49804
0.14510	0.49804	0.49804
0.28627	0.49804	0.49804
0.42745	0.49804	0.49804
0.55294	0.49804	0.49804
0.67059	0.49804	0.49804
0.78824	0.49804	0.49804
0.90196	0.49804	0.49804
1.00000	0.49804	0.49804
0.00000	0.60392	0.60392
0.14510	0.60392	0.60392
0.28627	0.60392	0.60392
0.42745	0.60392	0.60392
0.55294	0.60392	0.60392
0.67059	0.60392	0.60392
0.78824	0.60392	0.60392
0.90196	0.60392	0.60392
1.00000	0.60392	0.60392
0.00000	0.71373	0.71373
0.14510	0.71373	0.71373
0.28627	0.71373	0.71373
0.42745	0.71373	0.71373
0.55294	0.71373	0.71373
0.67059	0.71373	0.71373
0.78824	0.71373	0.71373
0.90196	0.71373	0.71373
1.00000	0.71373	0.71373
0.00000	0.81569	0.81569
0.14510	0.81569	0.81569
0.28627	0.81569	0.81569
0.42745	0.81569	0.81569
0.55294	0.81569	0.81569
0.67059	0.81569	0.81569
0.78824	0.81569	0.81569
0.90196	0.81569	0.81569
1.00000	0.81569	0.81569
0.00000	0.92157	0.92157
0.14902	0.92157	0.92157
0.28627	0.91765	0.91765
0.42745	0.92157	0.92157
0.55294	0.92157	0.92157
0.67059	0.92157	0.92157
0.78824	0.92157	0.92157
0.90196	0.92157	0.92157
1.00000	0.92157	0.92157
0.00000	0.04706	0.04706
0.14510	0.04706	0.04706
0.28627	0.04706	0.04706
0.42745	0.04706	0.04706
0.55294	0.04706	0.04706
0.67059	0.04706	0.04706
0.78824	0.04706	0.04706
0.90196	0.04706	0.04706
1.00000	0.04706	0.04706
0.00000	0.14510	0.14510
0.14510	0.14510	0.14510
0.28627	0.14510	0.14510
0.42745	0.14510	0.14510
0.55294	0.14510	0.14510
0.67059	0.14510	0.14510
0.78824	0.14902	0.14902
0.90196	0.14510	0.14510
1.00000	0.14510	0.14510
0.00000	0.26667	0.26667
0.14510	0.26667	0.26667
0.28627	0.26667	0.26667
0.42745	0.26667	0.26667
0.55294	0.26667	0.26667
0.67059	0.26667	0.26667
0.78824	0.26667	0.26667
0.90196	0.26667	0.26667
1.00000	0.26667	0.26667
0.00000	0.38824	0.38824
0.14510	0.38824	0.38824
0.28627	0.39216	0.39216
0.42745	0.38824	0.38824
0.55294	0.38824	0.38824
0.67059	0.38824	0.38824
0.78824	0.38824	0.38824
0.90196	0.38824	0.38824
1.00000	0.38824	0.38824
0.00000	0.50196	0.50196
0.14510	0.50196	0.50196
0.28627	0.50196	0.50196
0.42745	0.50196	0.50196
0.55294	0.50196	0.50196
0.67059	0.50196	0.50196
0.78824	0.50196	0.50196
0.90196	0.50196	0.50196
1.00000	0.50196	0.50196
0.00000	0.60784	0.60784
0.14510	0.60784	0.60784
0.28627	0.60784	0.60784
0.42745	0.60784	0.60784
0.55294	0.60784	0.60784
0.67059	0.60784	0.60784
0.78824	0.60784	0.60784
0.90196	0.60784	0.60784
1.00000	0.60784	0.60784
0.00000	0.71373	0.71373
0.14510	0.71373	0.71373
0.28627	0.71373	0.71373
0.42745	0.71373	0.71373
0.55294	0.71373	0.71373
0.67059	0.71373	0.71373
0.78824	0.71373	0.71373
0.90196	0.71373	0.71373
1.00000	0.71373	0.71373
0.00000	0.81961	0.81961
0.14902	0.81961	0.81961
0.28627	0.81961	0.81961
0.42745	0.81961	0.81961
0.55294	0.81961	0.81961
0.67059	0.81961	0.81961
0.78824	0.81961	0.81961
0.90196	0.81961	0.81961
1.00000	0.81961	0.81961
0.00000	0.92157	0.92157
0.14510	0.92157	0.92157
0.28627	0.92157	0.92157
0.42745	0.92157	0.92157
0.55294	0.92157	0.92157
0.67059	0.92157	0.92157
0.78824	0.92157	0.92157
0.90196	0.92157	0.92157
1.00000	0.92157	0.92157
0.00000	0.12157	0.12157
0.14510	0.12157	0.12157
0.28627	0.12157	0.12157
0.42745	0.12157	0.12157
0.55294	0.12157	0.12157
0.67059	0.12157	0.12157
0.78824	0.12157	0.12157
0.90196	0.12157	0.12157
1.00000	0.12157	0.12157
0.00000	0.18431	0.18431
0.14510	0.18431	0.18431
0.28627	0.18431	0.18431
0.42745	0.18431	0.18431
0.55294	0.18431	0.18431
0.67059	0.18431	0.18431
0.78824	0.18431	0.18431
0.90196	0.18431	0.18431
1.00000	0.18431	0.18431
0.00000	0.28627	0.28627
0.14510	0.28627	0.28627
0.28627	0.28627	0.28627
0.42745	0.28627	0.28627
0.55294	0.28627	0.28627
0.67059	0.28627	0.28627
0.78824	0.28627	0.28627
0.90196	0.28627	0.28627
1.00000	0.28627	0.28627
0.00000	0.40392	0.40392
0.14510	0.40392	0.40392
0.28627	0.40392	0.40392
0.42745	0.40392	0.40392
0.55294	0.40392	0.40392
0.67059	0.40392	0.40392
0.78824	0.40392	0.40392
0.90196	0.40392	0.40392
1.00000	0.40392	0.40392
0.00000	0.51373	0.51373
0.14510	0.51373	0.51373
0.28627	0.51373	0.51373
0.42745	0.51373	0.51373
0.55294	0.51373	0.51373
0.67059	0.51373	0.51373
0.78824	0.51373	0.51373
0.90196	0.51373	0.51373
1.00000	0.51373	0.51373
0.00000	0.61569	0.61569
0.14510	0.61569	0.61569
0.28627	0.61569	0.61569
0.42745	0.61569	0.61569
0.55294	0.61569	0.61569
0.67059	0.61569	0.61569
0.78824	0.61569	0.61569
0.90196	0.61569	0.61569
1.00000	0.61569	0.61569
0.00000	0.72157	0.72157
0.14510	0.72157	0.72157
0.28627	0.72157	0.72157
0.42745	0.72157	0.72157
0.55294	0.72157	0.72157
0.67059	0.72157	0.72157
0.78824	0.72157	0.72157
0.90196	0.72157	0.72157
1.00000	0.72157	0.72157
0.00000	0.82353	0.82353
0.14510	0.82353	0.82353
0.28627	0.82353	0.82353
0.42745	0.82353	0.82353
0.55294	0.82353	0.82353
0.67059	0.82353	0.82353
0.78824	0.82353	0.82353
0.90196	0.82353	0.82353
1.00000	0.82353	0.82353
0.00000	0.92549	0.92549
0.14510	0.92549	0.92549
0.28627	0.92549	0.92549
0.42745	0.92549	0.92549
0.55294	0.92549	0.92549
0.67059	0.92549	0.92549
0.78824	0.92549	0.92549
0.90196	0.92549	0.92549
1.00000	0.92549	0.92549
0.00000	0.19216	0.19216
0.14510	0.19216	0.19216
0.28627	0.19216	0.19216
0.42745	0.19216	0.19216
0.55294	0.19216	0.19216
0.67059	0.19216	0.19216
0.78824	0.19216	0.19216
0.90196	0.19216	0.19216
1.00000	0.19216	0.19216
0.00000	0.23529	0.23529
0.14510	0.23529	0.23529
0.28627	0.23529	0.23529
0.42745	0.23529	0.23529
0.55294	0.23529	0.23529
0.67059	0.23529	0.23529
0.78824	0.23529	0.23529
0.90196	0.23529	0.23529
1.00000	0.23529	0.23529
0.00000	0.32157	0.32157
0.14510	0.32157	0.32157
0.28627	0.32157	0.32157
0.42745	0.32157	0.32157
0.55294	0.32157	0.32157
0.67059	0.32157	0.32157
0.78824	0.32157	0.32157
0.90196	0.32157	0.32157
1.00000	0.32157	0.32157
0.00000	0.42745	0.42745
0.14510	0.42745	0.42745
0.28627	0.42745	0.42745
0.42745	0.42745	0.42745
0.55294	0.42745	0.42745
0.67059	0.42745	0.42745
0.78824	0.42745	0.42745
0.90196	0.42745	0.42745
1.00000	0.42745	0.42745
0.00000	0.52941	0.52941
0.14510	0.52941	0.52941
0.28627	0.52941	0.52941
0.42745	0.52941	0.52941
0.55294	0.52941	0.52941
0.67059	0.52941	0.52941
0.78824	0.52941	0.52941
0.90196	0.52941	0.52941
1.00000	0.52941	0.52941
0.00000	0.63137	0.63137
0.14510	0.63137	0.63137
0.28627	0.63137	0.63137
0.42745	0.63137	0.63137
0.55294	0.63137	0.63137
0.67059	0.63137	0.63137
0.78824	0.63137	0.63137
0.90196	0.63137	0.63137
1.00000	0.63137	0.63137
0.00000	0.73333	0.73333
0.14510	0.73333	0.73333
0.28627	0.73333	0.73333
0.42745	0.73333	0.73333
0.55294	0.73333	0.73333
0.67059	0.73333	0.73333
0.78824	0.73333	0.73333
0.90196	0.73333	0.73333
1.00000	0.73333	0.73333
0.00000	0.83529	0.83529
0.14510	0.83529	0.83529
0.28627	0.83529	0.83529
0.42745	0.83529	0.83529
0.55294	0.83529	0.83529
0.67059	0.83529	0.83529
0.78824	0.83529	0.83529
0.90196	0.83529	0.83529
1.00000	0.83529	0.83529
0.00000	0.93333	0.93333
0.14510	0.93333	0.93333
0.28627	0.93333	0.93333
0.42745	0.93333	0.93333
0.55294	0.93333	0.93333
0.67059	0.93333	0.93333
0.78824	0.93333	0.93333
0.90196	0.93333	0.93333
1.00000	0.93333	0.93333
0.00000	0.25490	0.25490
0.14510	0.25490	0.25490
0.28627	0.25490	0.25490
0.42745	0.25490	0.25490
0.55294	0.25490	0.25490
0.67059	0.25490	0.25490
0.78824	0.25490	0.25490
0.90196	0.25490	0.25490
1.00000	0.25490	0.25490
0.00000	0.29020	0.29020
0.14510	0.29020	0.29020
0.28627	0.29020	0.29020
0.42745	0.29020	0.29020
0.55294	0.29020	0.29020
0.67059	0.29020	0.29020
0.78824	0.29020	0.29020
0.90196	0.29020	0.29020
1.00000	0.29020	0.29020
0.00000	0.36078	0.36078
0.14510	0.36078	0.36078
0.28627	0.36078	0.36078
0.42745	0.36078	0.36078
0.55294	0.36078	0.36078
0.67059	0.36078	0.36078
0.78824	0.36078	0.36078
0.90196	0.36078	0.36078
1.00000	0.36078	0.36078
0.00000	0.45490	0.45490
0.14510	0.45490	0.45490
0.28627	0.45490	0.45490
0.42745	0.45490	0.45490
0.55294	0.45490	0.45490
0.67059	0.45490	0.45490
0.78824	0.45490	0.45490
0.90196	0.45490	0.45490
1.00000	0.45490	0.45490
0.00000	0.55294	0.55294
0.14510	0.55294	0.55294
0.28627	0.55294	0.55294
0.42745	0.55294	0.55294
0.55294	0.55294	0.55294
0.67059	0.55294	0.55294
0.78824	0.55294	0.55294
0.90196	0.55294	0.55294
1.00000	0.55294	0.55294
0.00000	0.64706	0.64706
0.14510	0.64706	0.64706
0.28627	0.64706	0.64706
0.42745	0.64706	0.64706
0.55294	0.64706	0.64706
0.67059	0.64706	0.64706
0.78824	0.64706	0.64706
0.90196	0.64706	0.64706
1.00000	0.64706	0.64706
0.00000	0.74902	0.74902
0.14510	0.74902	0.74902
0.28627	0.74902	0.74902
0.42745	0.74902	0.74902
0.55294	0.74902	0.74902
0.67059	0.74902	0.74902
0.78824	0.74902	0.74902
0.90196	0.74902	0.74902
1.00000	0.74902	0.74902
0.00000	0.84706	0.84706
0.14510	0.84706	0.84706
0.28627	0.84706	0.84706
0.42745	0.84706	0.84706
0.55294	0.84706	0.84706
0.67059	0.84706	0.84706
0.78824	0.84706	0.84706
0.90196	0.84706	0.84706
1.00000	0.84706	0.84706
0.00000	0.94510	0.94510
0.14510	0.94510	0.94510
0.28627	0.94510	0.94510
0.42745	0.94510	0.94510
0.55294	0.94510	0.94510
0.67059	0.94510	0.94510
0.78824	0.94510	0.94510
0.90196	0.94510	0.94510
1.00000	0.94510	0.94510
0.00000	0.31373	0.31373
0.14510	0.31765	0.31765
0.28627	0.31373	0.31373
0.42745	0.31765	0.31765
0.55294	0.31765	0.31765
0.67059	0.31373	0.31373
0.78824	0.31765	0.31765
0.90196	0.31765	0.31765
1.00000	0.31765	0.31765
0.00000	0.34118	0.34118
0.14510	0.34118	0.34118
0.28627	0.34510	0.34510
0.42745	0.34118	0.34118
0.55294	0.34118	0.34118
0.67059	0.34118	0.34118
0.78824	0.34118	0.34118
0.90196	0.34118	0.34118
1.00000	0.34118	0.34118
0.00000	0.40392	0.40392
0.14510	0.40392	0.40392
0.28627	0.40392	0.40392
0.42745	0.40392	0.40392
0.55294	0.40392	0.40392
0.67059	0.40392	0.40392
0.78824	0.40392	0.40392
0.90196	0.40392	0.40392
1.00000	0.40392	0.40392
0.00000	0.49020	0.49020
0.14510	0.49020	0.49020
0.28627	0.48627	0.48627
0.42745	0.48627	0.48627
0.55294	0.49020	0.49020
0.67059	0.49020	0.49020
0.78824	0.49020	0.49020
0.90196	0.49020	0.49020
1.00000	0.48627	0.49020
0.00000	0.58039	0.58039
0.14510	0.58039	0.58039
0.28627	0.58039	0.58039
0.42745	0.58039	0.58039
0.55294	0.58039	0.58039
0.67059	0.58039	0.58039
0.78824	0.58039	0.58039
0.90196	0.58039	0.58039
1.00000	0.58039	0.58039
0.00000	0.67059	0.67059
0.14510	0.67059	0.67059
0.28627	0.67059	0.67059
0.42745	0.67059	0.67059
0.55294	0.67059	0.67059
0.67059	0.67059	0.67059
0.78824	0.67059	0.67059
0.90196	0.67059	0.67059
1.00000	0.67059	0.67059
0.00000	0.76471	0.76471
0.14510	0.76471	0.76471
0.28627	0.76471	0.76471
0.42745	0.76471	0.76471
0.55294	0.76471	0.76471
0.67059	0.76471	0.76471
0.78824	0.76471	0.76471
0.90196	0.76471	0.76471
1.00000	0.76471	0.76471
0.00000	0.86275	0.86275
0.14510	0.86275	0.86275
0.28627	0.86275	0.86275
0.42745	0.86275	0.86275
0.55294	0.86275	0.86275
0.67059	0.86275	0.86275
0.78824	0.86275	0.86275
0.90196	0.86275	0.86275
1.00000	0.86275	0.86275
0.00000	0.95686	0.95686
0.14510	0.95686	0.95686
0.28627	0.95686	0.95686
0.42745	0.95686	0.95686
0.55294	0.95686	0.95686
0.67059	0.95686	0.95686
0.78824	0.95686	0.95686
0.90196	0.95686	0.95686
1.00000	0.96078	0.96078
0.00000	0.37647	0.37647
0.14510	0.37647	0.37647
0.28627	0.37647	0.37647
0.42745	0.37647	0.37647
0.55294	0.37647	0.37647
0.67059	0.37647	0.37647
0.78824	0.37647	0.37647
0.90196	0.37647	0.37647
1.00000	0.37647	0.37647
0.00000	0.40000	0.40000
0.14510	0.40000	0.40000
0.28627	0.39608	0.39608
0.42745	0.40000	0.40000
0.55294	0.40000	0.40000
0.67059	0.40000	0.40000
0.78824	0.40000	0.40000
0.90196	0.40000	0.40000
1.00000	0.39608	0.39608
0.00000	0.45098	0.45098
0.14510	0.45098	0.45098
0.28627	0.45098	0.45098
0.42745	0.45098	0.45098
0.55294	0.44706	0.44706
0.67059	0.44706	0.44706
0.78824	0.44706	0.44706
0.90196	0.44706	0.44706
1.00000	0.44706	0.44706
0.00000	0.52549	0.52549
0.14510	0.52549	0.52549
0.28627	0.52549	0.52549
0.42745	0.52549	0.52549
0.55294	0.52549	0.52549
0.67059	0.52549	0.52549
0.78824	0.52549	0.52549
0.90196	0.52549	0.52549
1.00000	0.52549	0.52549
0.00000	0.60784	0.60784
0.14510	0.60784	0.60784
0.28627	0.60784	0.60784
0.42745	0.60784	0.60784
0.55294	0.60784	0.60784
0.67059	0.60784	0.60784
0.78824	0.60784	0.60784
0.90196	0.61176	0.61176
1.00000	0.60784	0.60784
0.00000	0.69412	0.69412
0.14510	0.69412	0.69412
0.28627	0.69412	0.69412
0.42745	0.69412	0.69412
0.55294	0.69412	0.69412
0.67059	0.69412	0.69412
0.78824	0.69412	0.69412
0.90196	0.69412	0.69412
1.00000	0.69412	0.69412
0.00000	0.78824	0.78824
0.14510	0.78824	0.78824
0.28627	0.78824	0.78824
0.42745	0.78824	0.78824
0.55294	0.78824	0.78824
0.67059	0.78824	0.78824
0.78824	0.78824	0.78824
0.90196	0.78824	0.78824
1.00000	0.78824	0.78824
0.00000	0.88235	0.88235
0.14510	0.88235	0.88235
0.28627	0.88235	0.88235
0.42745	0.88235	0.88235
0.55294	0.87843	0.87843
0.67059	0.88235	0.88235
0.78824	0.88235	0.88235
0.90196	0.87843	0.87843
1.00000	0.88235	0.88235
0.00000	0.97647	0.97647
0.14510	0.97647	0.97647
0.28627	0.97647	0.97647
0.42745	0.97647	0.97647
0.55294	0.97647	0.97647
0.67059	0.97647	0.97647
0.78824	0.97647	0.97647
0.90196	0.97647	0.97647
1.00000	0.97647	0.97647
0.00000	0.43529	0.43529
0.14510	0.43529	0.43529
0.28627	0.43529	0.43529
0.42745	0.43529	0.43529
0.55294	0.43529	0.43529
0.67059	0.43529	0.43529
0.78824	0.43529	0.43529
0.90196	0.43529	0.43529
1.00000	0.43529	0.43529
0.00000	0.45490	0.45490
0.14510	0.45490	0.45490
0.28627	0.45490	0.45490
0.42745	0.45490	0.45490
0.55294	0.45490	0.45490
0.67059	0.45490	0.45490
0.78824	0.45490	0.45490
0.90196	0.45490	0.45490
1.00000	0.45490	0.45490
0.00000	0.49804	0.49804
0.14510	0.49804	0.49804
0.28627	0.49804	0.49804
0.42745	0.49804	0.49804
0.55294	0.49804	0.49804
0.67059	0.49804	0.49804
0.78824	0.49804	0.49804
0.90196	0.49804	0.49804
1.00000	0.49804	0.49804
0.00000	0.56471	0.56471
0.14510	0.56471	0.56471
0.28627	0.56471	0.56471
0.42745	0.56471	0.56471
0.55294	0.56471	0.56471
0.67059	0.56471	0.56471
0.78824	0.56471	0.56471
0.90196	0.56471	0.56471
1.00000	0.56471	0.56471
0.00000	0.64314	0.64314
0.14510	0.64314	0.64314
0.28627	0.64314	0.64314
0.42745	0.64314	0.64314
0.55294	0.64314	0.64314
0.67059	0.64314	0.64314
0.78824	0.64314	0.64314
0.90196	0.64314	0.64314
1.00000	0.64314	0.64314
0.00000	0.72549	0.72549
0.14510	0.72549	0.72549
0.28627	0.72549	0.72549
0.42745	0.72549	0.72549
0.55294	0.72549	0.72549
0.67059	0.72549	0.72549
0.78824	0.72549	0.72549
0.90196	0.72549	0.72549
1.00000	0.72549	0.72549
0.00000	0.81176	0.81176
0.14510	0.81176	0.81176
0.28627	0.81176	0.81176
0.42745	0.81176	0.81176
0.55294	0.81176	0.81176
0.67059	0.81176	0.81176
0.78824	0.81176	0.81176
0.90196	0.81176	0.81176
1.00000	0.81176	0.81176
0.00000	0.90196	0.90196
0.14510	0.90196	0.90196
0.28627	0.90196	0.90196
0.42745	0.90196	0.90196
0.55294	0.90196	0.90196
0.67059	0.90196	0.90196
0.78824	0.90196	0.90196
0.90196	0.90196	0.90196
1.00000	0.90196	0.90196
0.00000	0.99608	0.99608
0.14510	0.99216	0.99216
0.28627	0.99216	0.99216
0.42745	0.99216	0.99216
0.55294	0.99216	0.99216
0.67059	0.99216	0.99216
0.78824	0.99216	0.99216
0.90196	0.99216	0.99216
1.00000	0.99216	0.99216
0.00000	0.49020	0.49020
0.14510	0.49020	0.49020
0.28627	0.49020	0.49020
0.42745	0.49412	0.49412
0.55294	0.49020	0.49020
0.67059	0.49412	0.49412
0.78824	0.49412	0.49412
0.90196	0.49020	0.49020
1.00000	0.49020	0.49020
0.00000	0.50980	0.50980
0.14510	0.50980	0.50980
0.28627	0.50980	0.50980
0.42745	0.50980	0.50980
0.55294	0.50980	0.50980
0.67059	0.50980	0.50980
0.78824	0.50980	0.50980
0.90196	0.50980	0.50980
1.00000	0.50980	0.50980
0.00000	0.54902	0.54902
0.14510	0.54902	0.54902
0.28627	0.54902	0.54902
0.42745	0.54902	0.54902
0.55294	0.54902	0.54902
0.67059	0.54902	0.54902
0.78824	0.54902	0.54902
0.90196	0.54902	0.54902
1.00000	0.54902	0.54902
0.00000	0.60784	0.60784
0.14510	0.60784	0.60784
0.28627	0.60784	0.60784
0.42745	0.60784	0.60784
0.55294	0.60784	0.60784
0.67059	0.60784	0.60784
0.78824	0.60784	0.60784
0.90196	0.60784	0.60784
1.00000	0.60784	0.60784
0.00000	0.67843	0.67843
0.14510	0.67843	0.67843
0.28627	0.68235	0.68235
0.42745	0.67843	0.67843
0.55294	0.67843	0.67843
0.67059	0.67843	0.67843
0.78824	0.67843	0.67843
0.90196	0.67843	0.67843
1.00000	0.67843	0.67843
0.00000	0.75686	0.75686
0.14510	0.75686	0.75686
0.28627	0.75686	0.75686
0.42745	0.75686	0.75686
0.55294	0.75686	0.75686
0.67059	0.75686	0.75686
0.78824	0.75686	0.75686
0.90196	0.75686	0.75686
1.00000	0.75686	0.75686
0.00000	0.83922	0.83922
0.14510	0.83922	0.83922
0.28627	0.83922	0.83922
0.42745	0.83922	0.83922
0.55294	0.83922	0.83922
0.67059	0.83922	0.83922
0.78824	0.83922	0.83922
0.90196	0.83922	0.83922
1.00000	0.83922	0.83922
0.00000	0.92549	0.92549
0.14510	0.92549	0.92549
0.28627	0.92549	0.92549
0.42745	0.92549	0.92549
0.55294	0.92549	0.92549
0.67059	0.92549	0.92549
0.78824	0.92549	0.92549
0.90196	0.92549	0.92549
1.00000	0.92549	0.92549
0.00000	1.00000	1.00000
0.14902	1.00000	1.00000
0.28627	1.00000	1.00000
0.42745	1.00000	1.00000
0.55294	1.00000	1.00000
0.67059	1.00000	1.00000
0.78824	1.00000	1.00000
0.90196	1.00000	1.00000
1.00000	1.00000	1.00000
