LUTGenerator/TEST/CUBE/Retro/3strip_linear_sRGB.cube
TITLE 3strip_linear_sRGB.cube
LUT_3D_SIZE 17
DOMAIN_MIN 0.0 0.0 0.0
DOMAIN_MAX 1.0 1.0 1.0
0.00000	0.00000	0.00000
0.07843	0.00000	0.00000
0.14902	0.00000	0.00000
0.21569	0.00000	0.00000
0.28627	0.00000	0.00000
0.35686	0.00000	0.00000
0.42745	0.00000	0.00000
0.49412	0.00000	0.00000
0.55294	0.00000	0.00000
0.61176	0.00000	0.00000
0.67059	0.00000	0.00000
0.72941	0.00000	0.00000
0.78824	0.00000	0.00000
0.84314	0.00000	0.00000
0.90196	0.00000	0.00000
0.95686	0.00000	0.00000
1.00000	0.00000	0.00000
0.00000	0.07451	0.00000
0.06667	0.07059	0.00000
0.14118	0.07059	0.00000
0.21569	0.07059	0.00000
0.28627	0.07059	0.00000
0.35686	0.07059	0.00000
0.42745	0.07059	0.00000
0.49412	0.05882	0.00000
0.55294	0.05490	0.00000
0.61176	0.05882	0.00000
0.67059	0.05098	0.00000
0.72941	0.05098	0.00000
0.78824	0.05098	0.00000
0.84314	0.05098	0.00000
0.90196	0.05098	0.00000
0.95686	0.05098	0.00000
1.00000	0.05098	0.00000
0.00000	0.14510	0.00000
0.06667	0.14118	0.00000
0.13333	0.13725	0.00000
0.20784	0.13725	0.00000
0.27843	0.13725	0.00000
0.35294	0.13725	0.00000
0.42353	0.13725	0.00000
0.49412	0.11765	0.00000
0.55294	0.11765	0.00000
0.60784	0.11765	0.00000
0.67059	0.10588	0.00000
0.72941	0.10588	0.00000
0.78824	0.10588	0.00000
0.84314	0.10588	0.00000
0.90196	0.10588	0.00000
0.95686	0.10588	0.00000
1.00000	0.10588	0.00000
0.00000	0.21569	0.00000
0.06667	0.21569	0.00000
0.12941	0.21176	0.00000
0.19608	0.20392	0.00000
0.27059	0.20392	0.00000
0.34510	0.20392	0.00000
0.41961	0.20392	0.00000
0.49020	0.18824	0.00000
0.55294	0.17647	0.00000
0.60784	0.17647	0.00000
0.67059	0.16471	0.00000
0.72941	0.16471	0.00000
0.78824	0.16471	0.00000
0.84314	0.16471	0.00000
0.90196	0.16471	0.00000
0.95686	0.16471	0.00000
1.00000	0.16471	0.00000
0.00000	0.28627	0.00000
0.06667	0.28627	0.00000
0.13333	0.28235	0.00000
0.19608	0.27843	0.00000
0.25882	0.27059	0.00000
0.33725	0.27059	0.00000
0.41176	0.27059	0.00000
0.48235	0.25882	0.00000
0.54902	0.23529	0.00000
0.60784	0.23529	0.00000
0.67059	0.21961	0.00000
0.72941	0.21961	0.00000
0.78824	0.21961	0.00000
0.84314	0.21961	0.00000
0.90196	0.21961	0.00000
0.95686	0.21961	0.00000
1.00000	0.21961	0.00000
0.00000	0.35686	0.00000
0.06667	0.35294	0.00000
0.12941	0.35294	0.00000
0.19608	0.34902	0.00000
0.25882	0.34118	0.00000
0.32549	0.33725	0.00000
0.40392	0.33725	0.00000
0.47451	0.32549	0.00000
0.54510	0.29804	0.00000
0.60392	0.29412	0.00000
0.67059	0.28235	0.00000
0.72941	0.27843	0.00000
0.78824	0.27451	0.00000
0.84314	0.27451	0.00000
0.90196	0.27843	0.00000
0.95686	0.27843	0.00000
1.00000	0.27843	0.00000
0.00000	0.42745	0.00000
0.06667	0.42353	0.00000
0.13333	0.42353	0.00000
0.19608	0.41961	0.00000
0.25882	0.41569	0.00000
0.32549	0.41176	0.00000
0.39216	0.40392	0.00000
0.46667	0.39608	0.00000
0.53725	0.37255	0.00000
0.60392	0.35686	0.00000
0.66667	0.34510	0.00000
0.72941	0.33333	0.00000
0.78824	0.33333	0.00000
0.84314	0.33333	0.00000
0.90196	0.33333	0.00000
0.95686	0.33333	0.00000
1.00000	0.33333	0.00000
0.00000	0.49020	0.00000
0.04706	0.49020	0.00000
0.09804	0.49020	0.00000
0.16863	0.49020	0.00000
0.24314	0.48627	0.00000
0.30980	0.48235	0.00000
0.38039	0.47451	0.00000
0.44314	0.45882	0.00000
0.51765	0.44314	0.00000
0.58824	0.42353	0.00000
0.65490	0.40392	0.00000
0.72157	0.39216	0.00000
0.78431	0.39216	0.00000
0.84314	0.39216	0.00000
0.90196	0.39216	0.00000
0.95686	0.39216	0.00000
1.00000	0.39216	0.00000
0.00000	0.55294	0.00000
0.04706	0.55294	0.00000
0.09804	0.55294	0.00000
0.15294	0.55294	0.00000
0.20784	0.54902	0.00000
0.26667	0.54902	0.00000
0.34510	0.54510	0.00000
0.41569	0.52941	0.00000
0.47843	0.50588	0.00000
0.55294	0.48627	0.00000
0.62745	0.46667	0.00000
0.69804	0.45098	0.00000
0.77647	0.45098	0.00000
0.84314	0.45098	0.00000
0.90196	0.45098	0.00000
0.95686	0.45098	0.00000
1.00000	0.45098	0.00000
0.00000	0.61176	0.00000
0.04706	0.61176	0.00000
0.09804	0.60784	0.00000
0.15294	0.60784	0.00000
0.20392	0.60784	0.00000
0.25882	0.60784	0.00000
0.31373	0.60784	0.00000
0.38039	0.59608	0.00000
0.45098	0.57255	0.00000
0.51373	0.54902	0.00000
0.59216	0.52941	0.00000
0.67059	0.50980	0.00000
0.75686	0.50980	0.00000
0.83529	0.50980	0.00000
0.90196	0.50588	0.00000
0.95686	0.50980	0.00000
1.00000	0.50980	0.00000
0.00000	0.67059	0.00000
0.03529	0.67059	0.00000
0.08235	0.67059	0.00000
0.12941	0.67059	0.00000
0.17647	0.67059	0.00000
0.23529	0.67059	0.00000
0.29412	0.66667	0.00000
0.34902	0.65882	0.00000
0.41176	0.64314	0.00000
0.48235	0.61961	0.00000
0.54902	0.59216	0.00000
0.63137	0.57255	0.00000
0.71373	0.57255	0.00000
0.80392	0.57255	0.00000
0.87843	0.57255	0.00000
0.94902	0.57255	0.00000
1.00000	0.57255	0.00000
0.00000	0.72941	0.00000
0.03529	0.72941	0.00000
0.08235	0.72941	0.00000
0.12941	0.72941	0.00000
0.17647	0.72941	0.00000
0.22353	0.72941	0.00000
0.27451	0.72941	0.00000
0.32549	0.72549	0.00000
0.38824	0.70588	0.00000
0.44314	0.69020	0.00000
0.51765	0.66667	0.00000
0.58824	0.63922	0.00000
0.66667	0.63922	0.00000
0.75294	0.63922	0.00000
0.84314	0.63922	0.00000
0.93333	0.63922	0.00000
1.00000	0.63922	0.00000
0.00000	0.78824	0.00000
0.03529	0.78824	0.00000
0.08235	0.78824	0.00000
0.12941	0.78824	0.00000
0.17647	0.78824	0.00000
0.22353	0.78824	0.00000
0.27451	0.78824	0.00000
0.32549	0.78431	0.00000
0.38824	0.78039	0.00000
0.44706	0.76863	0.00000
0.51765	0.73725	0.00000
0.58824	0.70980	0.00000
0.66667	0.70980	0.00000
0.74902	0.70980	0.00000
0.83922	0.70980	0.00000
0.92941	0.70980	0.00000
1.00000	0.70980	0.00000
0.00000	0.84314	0.00000
0.03529	0.84314	0.00000
0.08235	0.84314	0.00000
0.12941	0.84314	0.00000
0.17647	0.84314	0.00000
0.22353	0.84314	0.00000
0.27059	0.84314	0.00000
0.32941	0.84706	0.00000
0.38824	0.84314	0.00000
0.44706	0.83922	0.00000
0.51765	0.81569	0.00000
0.58824	0.78431	0.00000
0.66667	0.78431	0.00000
0.74902	0.78431	0.00000
0.83529	0.78431	0.00000
0.92941	0.78431	0.00000
1.00000	0.78431	0.00000
0.00000	0.90196	0.00000
0.03529	0.90196	0.00000
0.08235	0.90196	0.00000
0.12941	0.90196	0.00000
0.17647	0.90196	0.00000
0.22353	0.90196	0.00000
0.27059	0.90196	0.00000
0.32549	0.90196	0.00000
0.38824	0.90196	0.00000
0.44706	0.90196	0.00000
0.51765	0.89020	0.00000
0.58824	0.86275	0.00000
0.67059	0.86275	0.00000
0.74902	0.85882	0.00000
0.83529	0.85882	0.00000
0.92941	0.85882	0.00000
1.00000	0.85882	0.00000
0.00000	0.95686	0.00000
0.03529	0.95686	0.00000
0.08235	0.95686	0.00000
0.12941	0.95686	0.00000
0.17647	0.95686	0.00000
0.22353	0.95686	0.00000
0.27059	0.95686	0.00000
0.32549	0.95686	0.00000
0.38824	0.95686	0.00000
0.44706	0.95686	0.00000
0.51765	0.95294	0.00000
0.58431	0.94118	0.00000
0.66667	0.94118	0.00000
0.74902	0.93725	0.00000
0.83529	0.93725	0.00000
0.92941	0.93725	0.00000
1.00000	0.93725	0.00000
0.00000	1.00000	0.00000
0.03529	1.00000	0.00000
0.08235	1.00000	0.00000
0.12941	1.00000	0.00000
0.17647	1.00000	0.00000
0.22353	1.00000	0.00000
0.27451	1.00000	0.00000
0.32549	1.00000	0.00000
0.38824	1.00000	0.00000
0.44314	1.00000	0.00000
0.51765	1.00000	0.00000
0.58824	1.00000	0.00000
0.66667	1.00000	0.00000
0.74902	1.00000	0.00000
0.83529	1.00000	0.00000
0.92941	1.00000	0.00000
1.00000	1.00000	0.00000
0.00000	0.00000	0.07451
0.07059	0.00000	0.07059
0.14510	0.00000	0.07059
0.21569	0.00000	0.07059
0.28627	0.00000	0.07059
0.35686	0.00000	0.07059
0.42745	0.00000	0.07059
0.49412	0.00000	0.05882
0.55294	0.00000	0.05882
0.61176	0.00000	0.05882
0.67059	0.00000	0.05098
0.72941	0.00000	0.05098
0.78824	0.00000	0.05098
0.84314	0.00000	0.05098
0.90196	0.00000	0.05098
0.95686	0.00000	0.05098
1.00000	0.00000	0.05098
0.00000	0.07059	0.06667
0.07451	0.07451	0.07451
0.14510	0.07451	0.07451
0.21569	0.07451	0.07451
0.28627	0.07451	0.07451
0.35686	0.07451	0.07451
0.42745	0.07451	0.07451
0.49412	0.06667	0.06667
0.55294	0.06667	0.06667
0.61176	0.06667	0.06667
0.67059	0.05098	0.05098
0.72941	0.05098	0.05098
0.78824	0.05098	0.05098
0.84314	0.05098	0.05098
0.90196	0.05098	0.05098
0.95686	0.05098	0.05098
1.00000	0.05098	0.05098
0.00000	0.14118	0.06667
0.07451	0.14510	0.07451
0.13725	0.14118	0.07451
0.21176	0.14118	0.07451
0.28235	0.14118	0.07451
0.35294	0.14118	0.07451
0.42353	0.14118	0.07451
0.49412	0.12157	0.06667
0.55294	0.12157	0.06667
0.61176	0.12157	0.06667
0.67059	0.10980	0.05490
0.72941	0.10980	0.05098
0.78824	0.10588	0.05098
0.84314	0.10588	0.05098
0.90196	0.10588	0.05098
0.95686	0.10588	0.05098
1.00000	0.10588	0.05098
0.00000	0.21569	0.06667
0.07451	0.21569	0.07451
0.13725	0.21176	0.07451
0.20000	0.20392	0.07451
0.27451	0.20392	0.07451
0.34902	0.20392	0.07451
0.41961	0.20392	0.07451
0.49020	0.18824	0.06667
0.55294	0.18039	0.06667
0.60784	0.18039	0.06667
0.67059	0.16471	0.05098
0.72941	0.16471	0.05490
0.78824	0.16471	0.05098
0.84314	0.16471	0.05098
0.90196	0.16471	0.05098
0.95686	0.16471	0.05098
1.00000	0.16471	0.05098
0.00000	0.28235	0.06667
0.07451	0.28627	0.07451
0.13725	0.28235	0.07451
0.20000	0.27843	0.07451
0.26275	0.27059	0.07451
0.34118	0.27059	0.07451
0.41176	0.27059	0.07451
0.48627	0.25882	0.06667
0.54902	0.23922	0.06667
0.60784	0.23922	0.06667
0.67059	0.21961	0.05098
0.72941	0.21961	0.05490
0.78824	0.21961	0.05098
0.84314	0.21961	0.05098
0.90196	0.21961	0.05098
0.95686	0.21961	0.05098
1.00000	0.21961	0.05098
0.00000	0.35294	0.06667
0.07451	0.35686	0.07451
0.13725	0.35294	0.07451
0.20000	0.34902	0.07451
0.26275	0.34510	0.07451
0.32941	0.33725	0.07451
0.40392	0.33725	0.07451
0.47451	0.32941	0.06667
0.54510	0.30196	0.06667
0.60392	0.29804	0.06667
0.67059	0.28235	0.05490
0.72941	0.27843	0.05098
0.78824	0.27451	0.05098
0.84314	0.27451	0.05098
0.90196	0.27843	0.05098
0.95686	0.27843	0.05098
1.00000	0.27843	0.05098
0.00000	0.42353	0.06667
0.07451	0.42745	0.07451
0.13725	0.42353	0.07451
0.20000	0.41961	0.07451
0.26275	0.41569	0.07451
0.32941	0.41176	0.07451
0.39216	0.40392	0.07451
0.46667	0.39608	0.06667
0.53725	0.37647	0.06667
0.60392	0.35686	0.06667
0.66667	0.34510	0.05098
0.72941	0.33333	0.05098
0.78824	0.33333	0.05098
0.84314	0.33333	0.05098
0.90196	0.33333	0.05098
0.95686	0.33333	0.05098
1.00000	0.33333	0.05098
0.00000	0.49020	0.04706
0.05882	0.49020	0.05882
0.10588	0.49020	0.05882
0.17255	0.49020	0.05882
0.24314	0.48627	0.05882
0.31373	0.48235	0.05882
0.38039	0.47451	0.05882
0.44314	0.46275	0.06275
0.52157	0.44314	0.06275
0.58824	0.42353	0.06275
0.65882	0.40392	0.05882
0.72549	0.39216	0.05882
0.78431	0.39216	0.05490
0.84314	0.39216	0.05490
0.90196	0.39216	0.05490
0.95686	0.39216	0.05490
1.00000	0.39216	0.05490
0.00000	0.55294	0.04706
0.05882	0.55294	0.05882
0.10588	0.55294	0.05882
0.15686	0.55294	0.05882
0.20784	0.54902	0.05882
0.27059	0.54902	0.05882
0.34510	0.54510	0.05882
0.41569	0.53333	0.06275
0.47843	0.50588	0.06275
0.55686	0.49020	0.06275
0.63137	0.46667	0.05882
0.69804	0.45098	0.05882
0.77647	0.45098	0.05490
0.84314	0.45098	0.05490
0.90196	0.45098	0.05490
0.95686	0.45098	0.05490
1.00000	0.45098	0.05490
0.00000	0.61176	0.04706
0.05882	0.61176	0.05882
0.10588	0.61176	0.05882
0.15686	0.60784	0.05882
0.21176	0.60784	0.05882
0.26275	0.60784	0.05882
0.31373	0.60784	0.05882
0.38431	0.59608	0.06275
0.45098	0.57647	0.06275
0.51373	0.54902	0.06275
0.59608	0.52941	0.05882
0.67059	0.50980	0.05882
0.76078	0.50980	0.05490
0.83529	0.50980	0.05490
0.90196	0.50588	0.05490
0.95686	0.50980	0.05490
1.00000	0.50980	0.05490
0.00000	0.67059	0.03529
0.03922	0.67059	0.03529
0.08235	0.67059	0.03529
0.12941	0.67059	0.03529
0.17647	0.67059	0.03529
0.23529	0.67059	0.03529
0.29412	0.66667	0.03529
0.35294	0.66275	0.04706
0.41176	0.64314	0.05098
0.48235	0.61961	0.04706
0.55294	0.59608	0.05098
0.63529	0.57647	0.05098
0.71765	0.57255	0.05490
0.80392	0.57255	0.05882
0.88235	0.57255	0.06275
0.94902	0.57255	0.06275
1.00000	0.57255	0.06275
0.00000	0.72941	0.03529
0.03529	0.72941	0.03529
0.08235	0.72941	0.03529
0.12941	0.72941	0.03529
0.18039	0.72941	0.03922
0.22745	0.72941	0.03529
0.27451	0.72941	0.03529
0.32941	0.72549	0.04706
0.38824	0.70980	0.04706
0.44706	0.69020	0.04706
0.51765	0.66667	0.05098
0.58824	0.63922	0.05098
0.67059	0.63922	0.05490
0.75686	0.63922	0.05882
0.84314	0.63922	0.06275
0.93333	0.63922	0.06275
1.00000	0.63922	0.06275
0.00000	0.78824	0.03529
0.03529	0.78824	0.03529
0.08235	0.78824	0.03529
0.12941	0.78824	0.03529
0.17647	0.78824	0.03529
0.22353	0.78824	0.03529
0.27451	0.78824	0.03529
0.32941	0.78824	0.04314
0.38824	0.78039	0.04314
0.44706	0.76863	0.04314
0.51765	0.74118	0.04706
0.58824	0.71373	0.04706
0.66667	0.70980	0.05098
0.74902	0.70980	0.05882
0.83922	0.70980	0.06275
0.92941	0.70980	0.06667
1.00000	0.70980	0.06667
0.00000	0.84314	0.03529
0.03529	0.84314	0.03529
0.08235	0.84314	0.03529
0.12941	0.84314	0.03529
0.17647	0.84314	0.03529
0.22353	0.84314	0.03529
0.27059	0.84314	0.03529
0.32549	0.84314	0.04314
0.38824	0.84314	0.04314
0.44706	0.83922	0.04314
0.51765	0.81961	0.05098
0.58824	0.78824	0.05098
0.66667	0.78431	0.05490
0.74902	0.78431	0.05882
0.83922	0.78431	0.06667
0.92941	0.78431	0.07059
1.00000	0.78431	0.07059
0.00000	0.90196	0.03529
0.03529	0.90196	0.03529
0.08235	0.90196	0.03529
0.12941	0.90196	0.03529
0.17647	0.90196	0.03529
0.22353	0.90196	0.03529
0.27059	0.90196	0.03529
0.32549	0.90196	0.04314
0.38824	0.90196	0.04314
0.44706	0.90196	0.04314
0.51765	0.89020	0.05098
0.58824	0.86275	0.05098
0.66667	0.86275	0.05882
0.74902	0.85882	0.06275
0.83922	0.85882	0.07059
0.92941	0.85882	0.07451
1.00000	0.85882	0.07451
0.00000	0.95686	0.03529
0.03529	0.95686	0.03529
0.08235	0.95686	0.03529
0.12941	0.95686	0.03529
0.17647	0.95686	0.03529
0.22353	0.95686	0.03529
0.27059	0.95686	0.03529
0.32549	0.95686	0.04314
0.38824	0.95686	0.04314
0.44706	0.95686	0.04314
0.51765	0.95294	0.05098
0.58431	0.94118	0.05490
0.66667	0.94118	0.05882
0.75294	0.93725	0.06667
0.83529	0.93725	0.07451
0.92941	0.93725	0.07451
1.00000	0.93725	0.07451
0.00000	1.00000	0.03529
0.03529	1.00000	0.03529
0.08235	1.00000	0.03529
0.12941	1.00000	0.03529
0.17647	1.00000	0.03529
0.22353	1.00000	0.03529
0.27059	1.00000	0.03529
0.32549	1.00000	0.04314
0.38824	1.00000	0.04314
0.44314	1.00000	0.04314
0.51765	1.00000	0.05490
0.58824	1.00000	0.05490
0.66667	1.00000	0.05882
0.75294	1.00000	0.06667
0.83529	1.00000	0.07451
0.92941	1.00000	0.07451
1.00000	1.00000	0.07451
0.00000	0.00000	0.14510
0.07059	0.00000	0.14510
0.13725	0.00000	0.13725
0.21176	0.00000	0.13725
0.28235	0.00000	0.13725
0.35294	0.00000	0.13725
0.42353	0.00000	0.13725
0.49412	0.00000	0.11765
0.55294	0.00000	0.11765
0.61176	0.00000	0.11765
0.67059	0.00000	0.10588
0.72941	0.00000	0.10588
0.78824	0.00000	0.10588
0.84314	0.00000	0.10588
0.90196	0.00000	0.10980
0.95686	0.00000	0.10588
1.00000	0.00000	0.10588
0.00000	0.07059	0.14118
0.07451	0.07451	0.14510
0.14118	0.07451	0.14118
0.21176	0.07451	0.14118
0.28235	0.07451	0.14118
0.35686	0.07451	0.14118
0.42353	0.07451	0.14118
0.49412	0.06667	0.12157
0.55294	0.06667	0.12157
0.61176	0.06667	0.12157
0.67059	0.05098	0.10980
0.72941	0.05098	0.10980
0.78824	0.05098	0.10588
0.84314	0.05098	0.10980
0.90196	0.05098	0.10588
0.95686	0.05098	0.10980
1.00000	0.05098	0.10980
0.00000	0.13725	0.12941
0.07451	0.14118	0.13725
0.14510	0.14510	0.14510
0.21569	0.14510	0.14510
0.28627	0.14510	0.14510
0.35686	0.14510	0.14510
0.42745	0.14510	0.14510
0.49412	0.12941	0.12941
0.55294	0.12941	0.12941
0.61176	0.12941	0.12941
0.67059	0.10980	0.10980
0.72941	0.10980	0.10980
0.78824	0.10980	0.10980
0.84314	0.10588	0.10980
0.90196	0.10980	0.10980
0.95686	0.10980	0.10980
1.00000	0.10980	0.10980
0.00000	0.20784	0.13333
0.07451	0.21176	0.13725
0.14510	0.21569	0.14510
0.20392	0.20784	0.14510
0.27843	0.20784	0.14510
0.34902	0.20784	0.14510
0.42353	0.20784	0.14510
0.49020	0.19608	0.12941
0.55294	0.18431	0.12941
0.60784	0.18431	0.12941
0.67059	0.16471	0.10980
0.72941	0.16471	0.10980
0.78824	0.16471	0.10980
0.84314	0.16471	0.10980
0.90196	0.16471	0.10980
0.95686	0.16471	0.10588
1.00000	0.16471	0.10980
0.00000	0.28235	0.13333
0.07451	0.28235	0.13725
0.14510	0.28627	0.14510
0.20392	0.28235	0.14510
0.26667	0.27451	0.14510
0.34118	0.27451	0.14510
0.41569	0.27451	0.14510
0.48627	0.26275	0.12941
0.54902	0.24314	0.12941
0.60784	0.24314	0.12941
0.67059	0.22353	0.10980
0.72941	0.22353	0.10980
0.78824	0.21961	0.10980
0.84314	0.21961	0.10980
0.90196	0.21961	0.10980
0.95686	0.21961	0.10980
1.00000	0.21961	0.10980
0.00000	0.35294	0.13333
0.07451	0.35294	0.13725
0.14510	0.35686	0.14510
0.20392	0.35294	0.14510
0.26667	0.34510	0.14510
0.32941	0.34118	0.14510
0.40784	0.34118	0.14510
0.47843	0.33333	0.12941
0.54902	0.30588	0.12941
0.60392	0.30196	0.12941
0.67059	0.28235	0.10980
0.72941	0.27843	0.10980
0.78824	0.27451	0.10980
0.84314	0.27843	0.10980
0.90196	0.27843	0.10980
0.95686	0.27843	0.10980
1.00000	0.27843	0.10980
0.00000	0.42353	0.13333
0.07451	0.42353	0.13725
0.14510	0.42745	0.14510
0.20392	0.42353	0.14510
0.26667	0.41961	0.14510
0.32941	0.41176	0.14510
0.39608	0.40392	0.14510
0.46667	0.40000	0.12941
0.53725	0.37647	0.12941
0.60392	0.36078	0.12941
0.66667	0.34510	0.10980
0.72941	0.33333	0.10980
0.78824	0.33333	0.10980
0.84314	0.33333	0.10980
0.90196	0.33333	0.10588
0.95686	0.33333	0.10980
1.00000	0.33333	0.10980
0.00000	0.49020	0.10196
0.05882	0.49020	0.10588
0.11765	0.49020	0.11765
0.18039	0.49020	0.11765
0.25098	0.48627	0.11765
0.31765	0.48235	0.11765
0.38431	0.47451	0.11765
0.45098	0.46667	0.12549
0.52549	0.44706	0.12549
0.59216	0.42745	0.12549
0.66275	0.40784	0.11765
0.72549	0.39216	0.11765
0.78431	0.39216	0.11765
0.84314	0.39216	0.11765
0.90196	0.39216	0.11765
0.95686	0.39216	0.11765
1.00000	0.39216	0.11373
0.00000	0.55294	0.10196
0.05882	0.55294	0.10588
0.11765	0.55294	0.11765
0.16471	0.55294	0.11765
0.21569	0.54902	0.11765
0.27451	0.54902	0.11765
0.34902	0.54510	0.11765
0.42353	0.53333	0.12549
0.48627	0.50980	0.12549
0.56078	0.49020	0.12549
0.63529	0.46667	0.11765
0.70196	0.45490	0.11765
0.78039	0.45098	0.11765
0.83922	0.45098	0.11373
0.90196	0.45098	0.11765
0.95686	0.45098	0.11765
1.00000	0.45098	0.11373
0.00000	0.60784	0.10196
0.05882	0.60784	0.10588
0.11765	0.61176	0.11765
0.16471	0.61176	0.12157
0.21569	0.60784	0.11765
0.26667	0.60784	0.11765
0.31765	0.60784	0.11765
0.39216	0.60000	0.12549
0.45882	0.57647	0.12549
0.51765	0.55294	0.12549
0.60000	0.52941	0.11765
0.67451	0.50980	0.11765
0.76078	0.50980	0.11765
0.83529	0.50980	0.11765
0.90196	0.50980	0.11765
0.95686	0.50980	0.11765
1.00000	0.50980	0.11373
0.00000	0.67059	0.08235
0.03529	0.67059	0.08235
0.08627	0.67059	0.08627
0.13333	0.67059	0.08627
0.18039	0.67059	0.08627
0.23529	0.67059	0.08627
0.29412	0.66667	0.08627
0.35294	0.66667	0.10588
0.41569	0.64706	0.10588
0.48235	0.62353	0.10588
0.55294	0.59608	0.10588
0.63529	0.57647	0.10588
0.71765	0.57255	0.10980
0.80784	0.57255	0.12157
0.88235	0.57255	0.12157
0.94902	0.57255	0.12157
1.00000	0.57255	0.12549
0.00000	0.72941	0.08235
0.03529	0.72941	0.08235
0.08627	0.72941	0.08627
0.13333	0.72941	0.08627
0.18039	0.72941	0.08627
0.22745	0.72941	0.08627
0.27451	0.72941	0.08627
0.33333	0.72941	0.10588
0.39216	0.70980	0.10588
0.44706	0.69412	0.10588
0.52157	0.66667	0.10588
0.59216	0.64314	0.10588
0.67451	0.63922	0.10980
0.76078	0.63922	0.12157
0.84314	0.63922	0.12157
0.93725	0.63922	0.12549
1.00000	0.63922	0.12549
0.00000	0.78824	0.08235
0.03529	0.78824	0.08235
0.08235	0.78824	0.08235
0.12941	0.78824	0.08235
0.17647	0.78824	0.08235
0.22353	0.78824	0.08235
0.27451	0.78824	0.08235
0.32549	0.78824	0.09804
0.38824	0.78039	0.09804
0.44706	0.76863	0.09804
0.51765	0.74118	0.10196
0.58824	0.71373	0.10196
0.66667	0.70980	0.10588
0.74902	0.70980	0.11765
0.83922	0.70980	0.12549
0.92941	0.70980	0.12549
1.00000	0.70980	0.12941
0.00000	0.84314	0.08235
0.03529	0.84314	0.08235
0.08235	0.84314	0.08235
0.12941	0.84314	0.08235
0.17647	0.84314	0.08235
0.22353	0.84314	0.08235
0.27451	0.84314	0.08235
0.32549	0.84314	0.09804
0.38824	0.84314	0.09804
0.44706	0.83922	0.09804
0.51765	0.81961	0.10980
0.58824	0.78824	0.10980
0.66667	0.78431	0.11373
0.74902	0.78431	0.12157
0.83922	0.78431	0.12941
0.92941	0.78431	0.13333
1.00000	0.78431	0.13725
0.00000	0.90196	0.08235
0.03529	0.90196	0.08235
0.08235	0.90196	0.08235
0.12941	0.90196	0.08235
0.17647	0.90196	0.08235
0.22353	0.90196	0.08235
0.27059	0.90196	0.08235
0.32549	0.90196	0.09804
0.38824	0.90196	0.09804
0.44706	0.90196	0.09804
0.51765	0.89020	0.10980
0.58824	0.86275	0.10980
0.66667	0.85882	0.11765
0.74902	0.85882	0.12549
0.83922	0.85882	0.13725
0.92941	0.85882	0.13725
1.00000	0.85882	0.14118
0.00000	0.95686	0.08235
0.03529	0.95686	0.08235
0.08235	0.95686	0.08235
0.12941	0.95686	0.08235
0.17647	0.95686	0.08235
0.22353	0.95686	0.08235
0.27059	0.95686	0.08235
0.32549	0.95686	0.09804
0.38824	0.95686	0.09804
0.44706	0.95686	0.09804
0.51765	0.95294	0.10980
0.58431	0.94118	0.10980
0.66667	0.94118	0.11765
0.75294	0.93725	0.12941
0.83529	0.93725	0.13725
0.92941	0.93725	0.14118
1.00000	0.93725	0.14510
0.00000	1.00000	0.08235
0.03529	1.00000	0.08235
0.08235	1.00000	0.08235
0.12941	1.00000	0.08235
0.17647	1.00000	0.08235
0.22353	1.00000	0.08235
0.27451	1.00000	0.08235
0.32549	1.00000	0.09804
0.38824	1.00000	0.09804
0.44314	1.00000	0.09804
0.51373	1.00000	0.10980
0.58824	1.00000	0.10980
0.66667	1.00000	0.12157
0.74902	1.00000	0.12941
0.83529	1.00000	0.14118
0.92941	1.00000	0.14118
1.00000	1.00000	0.14510
0.00000	0.00000	0.21569
0.07059	0.00000	0.21569
0.13725	0.00000	0.21176
0.20392	0.00000	0.20392
0.27843	0.00000	0.20392
0.34902	0.00000	0.20392
0.42353	0.00000	0.20392
0.49020	0.00000	0.18824
0.55294	0.00000	0.17647
0.60784	0.00000	0.17647
0.67059	0.00000	0.16471
0.72941	0.00000	0.16471
0.78824	0.00000	0.16471
0.84314	0.00000	0.16471
0.90196	0.00000	0.16471
0.95686	0.00000	0.16471
1.00000	0.00000	0.16471
0.00000	0.07059	0.21176
0.07451	0.07451	0.21569
0.14118	0.07451	0.21176
0.20392	0.07451	0.20392
0.27843	0.07451	0.20392
0.35294	0.07451	0.20392
0.42353	0.07451	0.20392
0.49020	0.06667	0.18824
0.55294	0.06667	0.18039
0.60784	0.06667	0.18039
0.67059	0.05098	0.16471
0.72941	0.05098	0.16471
0.78824	0.05098	0.16471
0.84314	0.05098	0.16471
0.90196	0.05098	0.16471
0.95686	0.05098	0.16471
