LUTGenerator/TEST/CUBE/Retro/3strip_linear_sRGB.cube
TITLE 3strip_linear_sRGB.cube
LUT_3D_SIZE 9
DOMAIN_MIN 0.0 0.0 0.0
DOMAIN_MAX 1.0 1.0 1.0
0.00000	0.00000	0.00000
0.14902	0.00000	0.00000
0.28627	0.00000	0.00000
0.42745	0.00000	0.00000
0.55294	0.00000	0.00000
0.67059	0.00000	0.00000
0.78824	0.00000	0.00000
0.90196	0.00000	0.00000
1.00000	0.00000	0.00000
0.00000	0.14510	0.00000
0.13333	0.13725	0.00000
0.27843	0.13725	0.00000
0.42353	0.13725	0.00000
0.55294	0.11765	0.00000
0.67059	0.10588	0.00000
0.78824	0.10588	0.00000
0.90196	0.10588	0.00000
1.00000	0.10588	0.00000
0.00000	0.28627	0.00000
0.13333	0.28235	0.00000
0.25882	0.27059	0.00000
0.41176	0.27059	0.00000
0.54902	0.23529	0.00000
0.67059	0.21961	0.00000
0.78824	0.21961	0.00000
0.90196	0.21961	0.00000
1.00000	0.21961	0.00000
0.00000	0.42745	0.00000
0.13333	0.42353	0.00000
0.25882	0.41569	0.00000
0.39216	0.40392	0.00000
0.53725	0.37255	0.00000
0.66667	0.34510	0.00000
0.78824	0.33333	0.00000
0.90196	0.33333	0.00000
1.00000	0.33333	0.00000
0.00000	0.55294	0.00000
0.09804	0.55294	0.00000
0.20784	0.54902	0.00000
0.34510	0.54510	0.00000
0.47843	0.50588	0.00000
0.62745	0.46667	0.00000
0.77647	0.45098	0.00000
0.90196	0.45098	0.00000
1.00000	0.45098	0.00000
0.00000	0.67059	0.00000
0.08235	0.67059	0.00000
0.17647	0.67059	0.00000
0.29412	0.66667	0.00000
0.41176	0.64314	0.00000
0.54902	0.59216	0.00000
0.71373	0.57255	0.00000
0.87843	0.57255	0.00000
1.00000	0.57255	0.00000
0.00000	0.78824	0.00000
0.08235	0.78824	0.00000
0.17647	0.78824	0.00000
0.27451	0.78824	0.00000
0.38824	0.78039	0.00000
0.51765	0.73725	0.00000
0.66667	0.70980	0.00000
0.83922	0.70980	0.00000
1.00000	0.70980	0.00000
0.00000	0.90196	0.00000
0.08235	0.90196	0.00000
0.17647	0.90196	0.00000
0.27059	0.90196	0.00000
0.38824	0.90196	0.00000
0.51765	0.89020	0.00000
0.67059	0.86275	0.00000
0.83529	0.85882	0.00000
1.00000	0.85882	0.00000
0.00000	1.00000	0.00000
0.08235	1.00000	0.00000
0.17647	1.00000	0.00000
0.27451	1.00000	0.00000
0.38824	1.00000	0.00000
0.51765	1.00000	0.00000
0.66667	1.00000	0.00000
0.83529	1.00000	0.00000
1.00000	1.00000	0.00000
0.00000	0.00000	0.14510
0.13725	0.00000	0.13725
0.28235	0.00000	0.13725
0.42353	0.00000	0.13725
0.55294	0.00000	0.11765
0.67059	0.00000	0.10588
0.78824	0.00000	0.10588
0.90196	0.00000	0.10980
1.00000	0.00000	0.10588
0.00000	0.13725	0.12941
0.14510	0.14510	0.14510
0.28627	0.14510	0.14510
0.42745	0.14510	0.14510
0.55294	0.12941	0.12941
0.67059	0.10980	0.10980
0.78824	0.10980	0.10980
0.90196	0.10980	0.10980
1.00000	0.10980	0.10980
0.00000	0.28235	0.13333
0.14510	0.28627	0.14510
0.26667	0.27451	0.14510
0.41569	0.27451	0.14510
0.54902	0.24314	0.12941
0.67059	0.22353	0.10980
0.78824	0.21961	0.10980
0.90196	0.21961	0.10980
1.00000	0.21961	0.10980
0.00000	0.42353	0.13333
0.14510	0.42745	0.14510
0.26667	0.41961	0.14510
0.39608	0.40392	0.14510
0.53725	0.37647	0.12941
0.66667	0.34510	0.10980
0.78824	0.33333	0.10980
0.90196	0.33333	0.10588
1.00000	0.33333	0.10980
0.00000	0.55294	0.10196
0.11765	0.55294	0.11765
0.21569	0.54902	0.11765
0.34902	0.54510	0.11765
0.48627	0.50980	0.12549
0.63529	0.46667	0.11765
0.78039	0.45098	0.11765
0.90196	0.45098	0.11765
1.00000	0.45098	0.11373
0.00000	0.67059	0.08235
0.08627	0.67059	0.08627
0.18039	0.67059	0.08627
0.29412	0.66667	0.08627
0.41569	0.64706	0.10588
0.55294	0.59608	0.10588
0.71765	0.57255	0.10980
0.88235	0.57255	0.12157
1.00000	0.57255	0.12549
0.00000	0.78824	0.08235
0.08235	0.78824	0.08235
0.17647	0.78824	0.08235
0.27451	0.78824	0.08235
0.38824	0.78039	0.09804
0.51765	0.74118	0.10196
0.66667	0.70980	0.10588
0.83922	0.70980	0.12549
1.00000	0.70980	0.12941
0.00000	0.90196	0.08235
0.08235	0.90196	0.08235
0.17647	0.90196	0.08235
0.27059	0.90196	0.08235
0.38824	0.90196	0.09804
0.51765	0.89020	0.10980
0.66667	0.85882	0.11765
0.83922	0.85882	0.13725
1.00000	0.85882	0.14118
0.00000	1.00000	0.08235
0.08235	1.00000	0.08235
0.17647	1.00000	0.08235
0.27451	1.00000	0.08235
0.38824	1.00000	0.09804
0.51373	1.00000	0.10980
0.66667	1.00000	0.12157
0.83529	1.00000	0.14118
1.00000	1.00000	0.14510
0.00000	0.00000	0.28627
0.13725	0.00000	0.28235
0.27059	0.00000	0.27059
0.41961	0.00000	0.27059
0.55294	0.00000	0.23922
0.67059	0.00000	0.21961
0.78824	0.00000	0.21961
0.90196	0.00000	0.21961
1.00000	0.00000	0.21961
0.00000	0.13725	0.27843
0.14510	0.14510	0.28627
0.27451	0.14510	0.27451
0.41961	0.14510	0.27451
0.55294	0.12941	0.24314
0.67059	0.10980	0.22353
0.78824	0.10980	0.21961
0.90196	0.10980	0.21961
1.00000	0.10980	0.21961
0.00000	0.27059	0.26275
0.14510	0.27451	0.26667
0.28235	0.28235	0.28235
0.42353	0.28235	0.28235
0.55294	0.25882	0.25882
0.67059	0.22353	0.22353
0.78824	0.21961	0.21961
0.90196	0.21961	0.21961
1.00000	0.21961	0.21961
0.00000	0.41569	0.25882
0.14510	0.41961	0.26667
0.28235	0.42353	0.28235
0.40392	0.41176	0.28235
0.54118	0.38824	0.25882
0.66667	0.34902	0.22353
0.78824	0.33333	0.22353
0.90196	0.33333	0.21961
1.00000	0.33333	0.22353
0.00000	0.54902	0.20784
0.12157	0.55294	0.21961
0.23922	0.55294	0.23922
0.36471	0.54510	0.23922
0.50196	0.51765	0.25098
0.65098	0.47059	0.23922
0.78431	0.45098	0.23529
0.90196	0.45098	0.23529
1.00000	0.45098	0.23529
0.00000	0.67059	0.17647
0.08627	0.67059	0.17647
0.18431	0.67059	0.18431
0.29804	0.66667	0.18431
0.42353	0.65882	0.21569
0.56471	0.60392	0.21961
0.73333	0.57255	0.22745
0.89412	0.57255	0.24706
1.00000	0.57255	0.24706
0.00000	0.78824	0.17647
0.08235	0.78824	0.17647
0.18039	0.78824	0.18039
0.27451	0.78824	0.18039
0.38824	0.78431	0.20000
0.51765	0.74902	0.21176
0.66667	0.70980	0.21961
0.83922	0.70980	0.24314
1.00000	0.70980	0.25882
0.00000	0.90196	0.17647
0.08235	0.90196	0.17647
0.17647	0.90196	0.17647
0.27451	0.90196	0.17647
0.38824	0.90196	0.20392
0.51765	0.89804	0.22353
0.66667	0.86275	0.23137
0.83922	0.85882	0.25490
1.00000	0.85882	0.27451
0.00000	1.00000	0.17647
0.08235	1.00000	0.17647
0.18039	1.00000	0.18039
0.27451	1.00000	0.18039
0.38824	1.00000	0.20392
0.51373	1.00000	0.22353
0.66667	1.00000	0.24314
0.83529	1.00000	0.26667
1.00000	1.00000	0.28627
0.00000	0.00000	0.42745
0.13725	0.00000	0.42353
0.27059	0.00000	0.41569
0.40392	0.00000	0.40392
0.54510	0.00000	0.37647
0.66667	0.00000	0.34510
0.78824	0.00000	0.33333
0.90196	0.00000	0.33333
1.00000	0.00000	0.33333
0.00000	0.13725	0.42353
0.14510	0.14510	0.42353
0.27451	0.14510	0.41961
0.40784	0.14510	0.40784
0.54510	0.12941	0.38039
0.66667	0.10980	0.34510
0.78824	0.10980	0.33333
0.90196	0.10980	0.33333
1.00000	0.10980	0.33333
0.00000	0.27059	0.41176
0.14510	0.27451	0.41569
0.28235	0.28235	0.42353
0.41176	0.28235	0.41176
0.54510	0.25882	0.38824
0.66667	0.22353	0.34902
0.78824	0.21961	0.33333
0.90196	0.21961	0.33333
1.00000	0.21961	0.33333
0.00000	0.40392	0.39216
0.14510	0.40392	0.39608
0.28235	0.41176	0.40392
0.42353	0.42353	0.42353
0.55294	0.40000	0.40000
0.67059	0.36471	0.36078
0.78824	0.33725	0.33725
0.90196	0.33333	0.33333
1.00000	0.33333	0.33333
0.00000	0.54118	0.34510
0.11765	0.54510	0.35294
0.23922	0.54510	0.36471
0.38431	0.55294	0.38431
0.51765	0.52941	0.39216
0.66275	0.48627	0.37255
0.78824	0.45098	0.34902
0.90196	0.45098	0.34902
1.00000	0.45098	0.34510
0.00000	0.66667	0.29412
0.08627	0.66667	0.29412
0.18431	0.66667	0.29804
0.32549	0.67059	0.32157
0.44314	0.66667	0.34510
0.58824	0.61569	0.35294
0.74902	0.57647	0.34902
0.89804	0.57255	0.36078
1.00000	0.57255	0.36471
0.00000	0.78824	0.27059
0.08235	0.78824	0.27059
0.18039	0.78824	0.27059
0.27451	0.78824	0.27451
0.39216	0.78824	0.29804
0.52157	0.76078	0.31765
0.67451	0.71373	0.33333
0.84706	0.70980	0.36078
1.00000	0.70980	0.38431
0.00000	0.90196	0.27059
0.08235	0.90196	0.27059
0.17647	0.90196	0.27059
0.27451	0.90196	0.27451
0.38824	0.90196	0.29804
0.51765	0.89804	0.32549
0.66667	0.86667	0.34510
0.83922	0.85882	0.37647
1.00000	0.85882	0.40784
0.00000	1.00000	0.27059
0.08235	1.00000	0.27059
0.18039	1.00000	0.27451
0.27451	1.00000	0.27843
0.38824	1.00000	0.29804
0.51765	1.00000	0.32549
0.66667	1.00000	0.36078
0.83922	1.00000	0.39608
1.00000	1.00000	0.42745
0.00000	0.00000	0.55294
0.11765	0.00000	0.55294
0.23922	0.00000	0.54902
0.37647	0.00000	0.54510
0.50588	0.00000	0.50588
0.64314	0.00000	0.46667
0.78039	0.00000	0.45098
0.90196	0.00000	0.45098
1.00000	0.00000	0.45098
0.00000	0.11765	0.55294
0.12941	0.12941	0.55294
0.24314	0.12941	0.54902
0.38039	0.12941	0.54510
0.50980	0.12941	0.50980
0.64706	0.11765	0.46667
0.78039	0.11765	0.45098
0.90196	0.11765	0.45098
1.00000	0.11765	0.45098
0.00000	0.23529	0.54902
0.12941	0.24314	0.54902
0.25490	0.25490	0.55294
0.38824	0.25490	0.54510
0.52157	0.25882	0.52157
0.65882	0.23922	0.47059
0.78431	0.23529	0.45098
0.90196	0.23529	0.45098
1.00000	0.23529	0.45098
0.00000	0.37647	0.53725
0.12941	0.37647	0.53725
0.25882	0.38824	0.54118
0.40000	0.40000	0.55294
0.52941	0.40000	0.52941
0.66275	0.37255	0.48627
0.78824	0.34902	0.45490
0.90196	0.34902	0.45098
1.00000	0.34510	0.45098
0.00000	0.50196	0.47843
0.12549	0.50588	0.48235
0.25098	0.51765	0.50196
0.39608	0.52941	0.52157
0.54902	0.54902	0.54902
0.66667	0.50980	0.50588
0.78824	0.45490	0.45490
0.90196	0.45490	0.45490
1.00000	0.45490	0.45490
0.00000	0.64314	0.41569
0.10196	0.64706	0.41569
0.21569	0.65882	0.42353
0.34510	0.66275	0.44706
0.48235	0.67059	0.48235
0.62745	0.63922	0.49804
0.78039	0.58039	0.47451
0.90196	0.57255	0.47451
1.00000	0.57255	0.47059
0.00000	0.78039	0.38824
0.09804	0.78039	0.38824
0.20392	0.78431	0.38824
0.29804	0.78824	0.39216
0.39608	0.78824	0.39216
0.52549	0.78431	0.43137
0.68235	0.71765	0.43529
0.86667	0.70980	0.47843
1.00000	0.70980	0.49804
0.00000	0.90196	0.38824
0.09804	0.90196	0.38824
0.20392	0.90196	0.38824
0.29804	0.90196	0.38824
0.39216	0.90196	0.39216
0.51765	0.90196	0.42745
0.66667	0.87843	0.45490
0.83922	0.85882	0.49020
1.00000	0.85882	0.52549
0.00000	1.00000	0.38824
0.09804	1.00000	0.38824
0.20392	1.00000	0.38824
0.29804	1.00000	0.39216
0.39216	1.00000	0.39216
0.51765	1.00000	0.42745
0.66667	1.00000	0.47059
0.83922	1.00000	0.51373
1.00000	1.00000	0.55294
0.00000	0.00000	0.67059
0.10588	0.00000	0.67059
0.21961	0.00000	0.67059
0.34510	0.00000	0.66667
0.46667	0.00000	0.64314
0.59216	0.00000	0.59216
0.73725	0.00000	0.57255
0.88627	0.00000	0.57647
1.00000	0.00000	0.57255
0.00000	0.10588	0.67059
0.10980	0.10980	0.67059
0.22353	0.10980	0.67059
0.34510	0.10980	0.66667
0.46667	0.11765	0.64706
0.59608	0.11373	0.59608
0.74118	0.11765	0.57255
0.89020	0.12549	0.57647
1.00000	0.12157	0.57255
0.00000	0.21961	0.67059
0.10980	0.22353	0.67059
0.22745	0.22745	0.67059
0.34902	0.22353	0.66667
0.47059	0.24314	0.65882
0.60392	0.23137	0.60392
0.74902	0.23529	0.57255
0.89804	0.24706	0.57255
1.00000	0.24706	0.57255
0.00000	0.34510	0.66667
0.10980	0.34510	0.66667
0.22745	0.34902	0.66667
0.36471	0.36078	0.67059
0.48627	0.37255	0.66667
0.61569	0.36863	0.61569
0.76078	0.35686	0.57647
0.89804	0.36078	0.57255
1.00000	0.36078	0.57255
0.00000	0.46667	0.62745
0.11765	0.46667	0.63529
0.23922	0.47059	0.65098
0.37255	0.48627	0.66275
0.50588	0.50588	0.67059
0.64314	0.50980	0.64314
0.78431	0.47451	0.58039
0.90196	0.47451	0.57255
1.00000	0.47451	0.57255
0.00000	0.59216	0.54902
0.10588	0.59608	0.55294
0.21569	0.60000	0.56471
0.35294	0.61569	0.58824
0.49804	0.64314	0.62745
0.66275	0.66275	0.66275
0.78824	0.60392	0.60392
0.90196	0.57647	0.57647
1.00000	0.57647	0.57647
0.00000	0.74118	0.51765
0.10196	0.74118	0.51765
0.21176	0.75294	0.51765
0.32157	0.76078	0.52157
0.43137	0.78431	0.52549
0.56471	0.78824	0.56471
0.72549	0.74510	0.58824
0.88627	0.70980	0.59608
1.00000	0.70980	0.60392
0.00000	0.88627	0.51765
0.10980	0.89020	0.51765
0.22353	0.89804	0.51765
0.32549	0.89804	0.51765
0.42745	0.90196	0.51765
0.51765	0.90196	0.51765
0.66667	0.89412	0.56078
0.83922	0.85882	0.59216
1.00000	0.85882	0.63922
0.00000	1.00000	0.51373
0.10980	1.00000	0.51373
0.22353	1.00000	0.51373
0.32549	1.00000	0.51765
0.42745	1.00000	0.51765
0.51765	1.00000	0.51765
0.66667	1.00000	0.56863
0.83922	1.00000	0.61961
1.00000	1.00000	0.67059
0.00000	0.00000	0.78824
0.10588	0.00000	0.78824
0.21961	0.00000	0.78824
0.33333	0.00000	0.78824
0.45098	0.00000	0.78039
0.57255	0.00000	0.74118
0.70980	0.00000	0.70980
0.85882	0.00000	0.70980
1.00000	0.00000	0.70980
0.00000	0.10588	0.78824
0.10980	0.10588	0.78824
0.21961	0.10588	0.78824
0.33333	0.10588	0.78431
0.45098	0.11765	0.78039
0.57255	0.11765	0.74118
0.70980	0.11373	0.70980
0.85882	0.12549	0.70980
1.00000	0.12941	0.70980
0.00000	0.21961	0.78824
0.10588	0.21961	0.78824
0.21961	0.21961	0.78824
0.33333	0.21961	0.78431
0.45098	0.23529	0.78431
0.57255	0.23529	0.75294
0.70980	0.23137	0.70980
0.85882	0.24706	0.70980
1.00000	0.25882	0.70980
0.00000	0.33333	0.78431
0.10588	0.33333	0.78431
0.21961	0.33333	0.78431
0.33725	0.33333	0.78824
0.45490	0.34902	0.78824
0.57647	0.35686	0.76471
0.71373	0.35294	0.71373
0.86667	0.36863	0.70980
1.00000	0.38431	0.70980
0.00000	0.45098	0.77647
0.11765	0.45098	0.78039
0.23529	0.45098	0.78431
0.34902	0.45490	0.78824
0.45490	0.45490	0.78824
0.58039	0.47451	0.78431
0.71765	0.45882	0.71765
0.87843	0.48627	0.70980
1.00000	0.49804	0.70980
0.00000	0.57255	0.71373
0.11373	0.57255	0.72157
0.22745	0.57647	0.73333
0.35294	0.57647	0.74902
0.47451	0.58039	0.78039
0.60392	0.60392	0.78824
0.74510	0.60392	0.74510
0.89412	0.59608	0.70980
1.00000	0.60392	0.70980
0.00000	0.70980	0.66667
0.10588	0.70980	0.66667
0.21961	0.70980	0.66667
0.33333	0.71373	0.67451
0.43529	0.72157	0.68235
0.58824	0.74510	0.72549
0.78039	0.78039	0.78039
0.90196	0.71373	0.71373
1.00000	0.71373	0.71373
0.00000	0.86275	0.67059
0.11765	0.86275	0.67059
0.23529	0.85882	0.66667
0.34902	0.86667	0.66667
0.45490	0.87843	0.66667
0.56078	0.89412	0.66667
0.67451	0.90196	0.67451
0.84706	0.86667	0.70980
1.00000	0.85882	0.74902
0.00000	1.00000	0.66667
0.12157	1.00000	0.66667
0.24314	1.00000	0.66667
0.36078	1.00000	0.66667
0.47059	1.00000	0.66667
0.56863	1.00000	0.66667
0.67059	1.00000	0.67059
0.83922	1.00000	0.72941
1.00000	1.00000	0.78824
0.00000	0.00000	0.90196
0.10588	0.00000	0.90196
0.21961	0.00000	0.90196
0.33333	0.00000	0.90196
0.45098	0.00000	0.90196
0.57255	0.00000	0.88627
0.70980	0.00000	0.85882
0.85882	0.00000	0.85882
1.00000	0.00000	0.85882
0.00000	0.10980	0.90196
0.10980	0.10980	0.90196
0.21961	0.10980	0.90196
0.33333	0.10980	0.90196
0.45098	0.11765	0.90196
0.57255	0.12157	0.89020
0.70980	0.12549	0.85882
0.85882	0.13725	0.85882
1.00000	0.14118	0.85882
0.00000	0.21961	0.90196
0.10980	0.21961	0.90196
0.21961	0.21961	0.90196
0.33333	0.22353	0.90196
0.45098	0.23529	0.90196
0.57255	0.24706	0.89804
0.70980	0.24706	0.85882
0.85882	0.26275	0.85882
1.00000	0.27451	0.85882
0.00000	0.33333	0.90196
0.10980	0.33333	0.90196
0.21961	0.33333	0.90196
0.33333	0.33333	0.90196
0.45098	0.34902	0.90196
0.57255	0.36078	0.89804
0.70980	0.36863	0.86667
0.85882	0.38431	0.85882
1.00000	0.40784	0.85882
0.00000	0.45490	0.90196
0.11373	0.45098	0.90196
0.23529	0.45490	0.90196
0.34510	0.45490	0.90196
0.45490	0.45490	0.90196
0.57647	0.47451	0.90196
0.70980	0.48627	0.87843
0.85882	0.50196	0.85882
1.00000	0.52549	0.85882
0.00000	0.57255	0.87843
0.12549	0.57255	0.88235
0.24706	0.57255	0.89412
0.36078	0.57255	0.89804
0.47451	0.57255	0.90196
0.57647	0.57647	0.90196
0.70980	0.59608	0.89412
0.85882	0.60784	0.85882
1.00000	0.63529	0.85882
0.00000	0.70980	0.83922
0.12549	0.70980	0.83922
0.24314	0.70980	0.83922
0.36078	0.70980	0.84706
0.47843	0.70980	0.86667
0.59608	0.70980	0.88627
0.71373	0.71373	0.90196
0.86667	0.72549	0.86667
1.00000	0.74902	0.85882
0.00000	0.85882	0.83922
0.13725	0.85882	0.83529
0.25490	0.85882	0.83529
0.37647	0.85882	0.83922
0.49020	0.85882	0.83922
0.59216	0.85882	0.83922
0.70980	0.86667	0.84706
0.89020	0.89412	0.89020
1.00000	0.86275	0.86275
0.00000	1.00000	0.83922
0.14118	1.00000	0.83922
0.27059	1.00000	0.83922
0.39608	1.00000	0.83922
0.51373	1.00000	0.83529
0.61961	1.00000	0.83922
0.72941	1.00000	0.83922
0.83922	1.00000	0.83922
1.00000	1.00000	0.90196
0.00000	0.00000	1.00000
0.10980	0.00000	1.00000
0.22353	0.00000	1.00000
0.33725	0.00000	1.00000
0.45490	0.00000	1.00000
0.57255	0.00000	1.00000
0.70980	0.00000	1.00000
0.85882	0.00000	1.00000
1.00000	0.00000	1.00000
0.00000	0.10588	1.00000
0.10588	0.10980	1.00000
0.22353	0.10588	1.00000
0.33725	0.10980	1.00000
0.45490	0.11765	1.00000
0.57255	0.12549	1.00000
0.70980	0.12941	1.00000
0.85882	0.14118	1.00000
1.00000	0.14510	1.00000
0.00000	0.21961	1.00000
0.10588	0.21961	1.00000
0.21961	0.21961	1.00000
0.33333	0.22353	1.00000
0.45490	0.23529	1.00000
0.57647	0.24706	1.00000
0.70980	0.25882	1.00000
0.85882	0.27451	1.00000
1.00000	0.28627	1.00000
0.00000	0.33333	1.00000
0.10588	0.33333	1.00000
0.21961	0.33333	1.00000
0.33333	0.33333	1.00000
0.45098	0.34902	1.00000
0.57255	0.36471	1.00000
0.70980	0.38431	1.00000
0.85882	0.40392	1.00000
1.00000	0.42745	1.00000
0.00000	0.45098	1.00000
0.11765	0.45098	1.00000
0.23529	0.45098	1.00000
0.34510	0.45490	1.00000
0.45098	0.45098	1.00000
0.57255	0.47451	1.00000
0.70980	0.49804	1.00000
0.85882	0.52549	1.00000
1.00000	0.55294	1.00000
0.00000	0.57255	1.00000
0.12549	0.57255	1.00000
0.24706	0.57255	1.00000
0.36471	0.57647	1.00000
0.47451	0.57255	1.00000
0.57255	0.57255	1.00000
0.70980	0.60392	1.00000
0.85882	0.63922	1.00000
1.00000	0.67059	1.00000
0.00000	0.70980	1.00000
0.12941	0.70980	1.00000
0.25882	0.70980	1.00000
0.38431	0.70980	1.00000
0.49804	0.70980	1.00000
0.60392	0.70980	1.00000
0.71373	0.71373	1.00000
0.85882	0.74902	1.00000
1.00000	0.78824	1.00000
0.00000	0.85882	1.00000
0.14118	0.85882	1.00000
0.27451	0.85882	1.00000
0.40392	0.85882	1.00000
0.52549	0.85882	1.00000
0.63529	0.85882	1.00000
0.74902	0.85882	1.00000
0.86275	0.86275	1.00000
1.00000	0.90196	1.00000
0.00000	1.00000	1.00000
0.14510	1.00000	1.00000
0.28627	1.00000	1.00000
0.42745	1.00000	1.00000
0.55294	1.00000	1.00000
0.67059	1.00000	1.00000
0.78824	1.00000	1.00000
0.90196	1.00000	1.00000
1.00000	1.00000	1.00000
