LUTGenerator/TEST/CUBE/Retro/3strip_linear_sRGB.cube
TITLE 3strip_linear_sRGB.cube
LUT_3D_SIZE 5
DOMAIN_MIN 0.0 0.0 0.0
DOMAIN_MAX 1.0 1.0 1.0
0.00000	0.00000	0.00000
0.28627	0.00000	0.00000
0.55294	0.00000	0.00000
0.78824	0.00000	0.00000
1.00000	0.00000	0.00000
0.00000	0.28627	0.00000
0.25882	0.27059	0.00000
0.54902	0.23529	0.00000
0.78824	0.21961	0.00000
1.00000	0.21961	0.00000
0.00000	0.55294	0.00000
0.20784	0.54902	0.00000
0.47843	0.50588	0.00000
0.77647	0.45098	0.00000
1.00000	0.45098	0.00000
0.00000	0.78824	0.00000
0.17647	0.78824	0.00000
0.38824	0.78039	0.00000
0.66667	0.70980	0.00000
1.00000	0.70980	0.00000
0.00000	1.00000	0.00000
0.17647	1.00000	0.00000
0.38824	1.00000	0.00000
0.66667	1.00000	0.00000
1.00000	1.00000	0.00000
0.00000	0.00000	0.28627
0.27059	0.00000	0.27059
0.55294	0.00000	0.23922
0.78824	0.00000	0.21961
1.00000	0.00000	0.21961
0.00000	0.27059	0.26275
0.28235	0.28235	0.28235
0.55294	0.25882	0.25882
0.78824	0.21961	0.21961
1.00000	0.21961	0.21961
0.00000	0.54902	0.20784
0.23922	0.55294	0.23922
0.50196	0.51765	0.25098
0.78431	0.45098	0.23529
1.00000	0.45098	0.23529
0.00000	0.78824	0.17647
0.18039	0.78824	0.18039
0.38824	0.78431	0.20000
0.66667	0.70980	0.21961
1.00000	0.70980	0.25882
0.00000	1.00000	0.17647
0.18039	1.00000	0.18039
0.38824	1.00000	0.20392
0.66667	1.00000	0.24314
1.00000	1.00000	0.28627
0.00000	0.00000	0.55294
0.23922	0.00000	0.54902
0.50588	0.00000	0.50588
0.78039	0.00000	0.45098
1.00000	0.00000	0.45098
0.00000	0.23529	0.54902
0.25490	0.25490	0.55294
0.52157	0.25882	0.52157
0.78431	0.23529	0.45098
1.00000	0.23529	0.45098
0.00000	0.50196	0.47843
0.25098	0.51765	0.50196
0.54902	0.54902	0.54902
0.78824	0.45490	0.45490
1.00000	0.45490	0.45490
0.00000	0.78039	0.38824
0.20392	0.78431	0.38824
0.39608	0.78824	0.39216
0.68235	0.71765	0.43529
1.00000	0.70980	0.49804
0.00000	1.00000	0.38824
0.20392	1.00000	0.38824
0.39216	1.00000	0.39216
0.66667	1.00000	0.47059
1.00000	1.00000	0.55294
0.00000	0.00000	0.78824
0.21961	0.00000	0.78824
0.45098	0.00000	0.78039
0.70980	0.00000	0.70980
1.00000	0.00000	0.70980
0.00000	0.21961	0.78824
0.21961	0.21961	0.78824
0.45098	0.23529	0.78431
0.70980	0.23137	0.70980
1.00000	0.25882	0.70980
0.00000	0.45098	0.77647
0.23529	0.45098	0.78431
0.45490	0.45490	0.78824
0.71765	0.45882	0.71765
1.00000	0.49804	0.70980
0.00000	0.70980	0.66667
0.21961	0.70980	0.66667
0.43529	0.72157	0.68235
0.78039	0.78039	0.78039
1.00000	0.71373	0.71373
0.00000	1.00000	0.66667
0.24314	1.00000	0.66667
0.47059	1.00000	0.66667
0.67059	1.00000	0.67059
1.00000	1.00000	0.78824
0.00000	0.00000	1.00000
0.22353	0.00000	1.00000
0.45490	0.00000	1.00000
0.70980	0.00000	1.00000
1.00000	0.00000	1.00000
0.00000	0.21961	1.00000
0.21961	0.21961	1.00000
0.45490	0.23529	1.00000
0.70980	0.25882	1.00000
1.00000	0.28627	1.00000
0.00000	0.45098	1.00000
0.23529	0.45098	1.00000
0.45098	0.45098	1.00000
0.70980	0.49804	1.00000
1.00000	0.55294	1.00000
0.00000	0.70980	1.00000
0.25882	0.70980	1.00000
0.49804	0.70980	1.00000
0.71373	0.71373	1.00000
1.00000	0.78824	1.00000
0.00000	1.00000	1.00000
0.28627	1.00000	1.00000
0.55294	1.00000	1.00000
0.78824	1.00000	1.00000
1.00000	1.00000	1.00000
