LUTGenerator/TEST/CUBE/Retro/bleachbypass_linear_sRGB.cube
TITLE bleachbypass_linear_sRGB.cube
LUT_3D_SIZE 9
DOMAIN_MIN 0.0 0.0 0.0
DOMAIN_MAX 1.0 1.0 1.0
0.16471	0.16471	0.16471
0.18431	0.17255	0.17255
0.22745	0.18824	0.18824
0.28627	0.21176	0.21176
0.38039	0.25490	0.25490
0.49804	0.30588	0.30588
0.65098	0.37255	0.37255
0.83922	0.45098	0.45098
1.00000	0.54902	0.54902
0.17255	0.18431	0.17255
0.19608	0.19608	0.18039
0.23529	0.21176	0.19608
0.29412	0.23137	0.21961
0.38824	0.27451	0.25882
0.50588	0.32549	0.30980
0.65882	0.38824	0.37647
0.84706	0.47059	0.45882
1.00000	0.56471	0.55294
0.18824	0.22745	0.18824
0.20784	0.23529	0.19608
0.25882	0.25882	0.21176
0.30980	0.27451	0.23529
0.40392	0.31765	0.27451
0.52157	0.36863	0.32549
0.67451	0.43137	0.38824
0.86275	0.50980	0.47059
1.00000	0.60392	0.56471
0.21176	0.28627	0.21176
0.23137	0.29020	0.21961
0.27451	0.30980	0.23529
0.33725	0.33725	0.25882
0.43137	0.37647	0.29804
0.54510	0.42745	0.34510
0.70196	0.49412	0.41176
0.88627	0.57255	0.49020
1.00000	0.66667	0.58431
0.25490	0.38039	0.25490
0.27451	0.38824	0.25882
0.31765	0.40784	0.27451
0.37647	0.43137	0.29804
0.47059	0.47059	0.33333
0.58824	0.52157	0.38039
0.74118	0.58824	0.44314
0.92549	0.67059	0.52157
1.00000	0.76471	0.61569
0.30588	0.49804	0.30588
0.32549	0.50588	0.30980
0.36863	0.52157	0.32549
0.42745	0.54902	0.34510
0.52157	0.58824	0.38039
0.63922	0.63922	0.42745
0.79216	0.70588	0.49020
0.97647	0.78824	0.56471
1.00000	0.88235	0.65882
0.37255	0.65098	0.37255
0.38824	0.65882	0.37647
0.43137	0.67451	0.38824
0.49412	0.70196	0.41176
0.58824	0.74118	0.44314
0.70588	0.79216	0.49020
0.85882	0.85882	0.54902
1.00000	0.94118	0.62353
1.00000	1.00000	0.71373
0.45098	0.83922	0.45098
0.47059	0.84706	0.45882
0.50980	0.86275	0.47059
0.57255	0.88627	0.49020
0.67059	0.92549	0.52157
0.78824	0.97647	0.56471
0.94118	1.00000	0.62353
1.00000	1.00000	0.69804
1.00000	1.00000	0.78431
0.54902	1.00000	0.54902
0.56471	1.00000	0.55294
0.60392	1.00000	0.56471
0.66667	1.00000	0.58431
0.76471	1.00000	0.61569
0.88235	1.00000	0.65882
1.00000	1.00000	0.71373
1.00000	1.00000	0.78431
1.00000	1.00000	0.87451
0.17255	0.17255	0.18431
0.19608	0.18039	0.19608
0.23529	0.19608	0.20784
0.29020	0.21961	0.23137
0.38824	0.25882	0.27451
0.50588	0.30980	0.32549
0.65882	0.37647	0.38824
0.84706	0.45882	0.47059
1.00000	0.55294	0.56471
0.18039	0.19608	0.19608
0.20784	0.20784	0.20784
0.24706	0.21961	0.21961
0.30196	0.24314	0.24314
0.39608	0.28235	0.28235
0.51373	0.33333	0.33333
0.66667	0.39608	0.39608
0.85490	0.47843	0.47843
1.00000	0.57255	0.57255
0.19608	0.23529	0.21176
0.21961	0.24706	0.21961
0.26667	0.26667	0.23529
0.31765	0.28235	0.25490
0.41176	0.32549	0.29804
0.52941	0.37647	0.34510
0.68235	0.43922	0.40784
0.86667	0.51765	0.49020
1.00000	0.61176	0.58039
0.21961	0.29412	0.23137
0.24314	0.30196	0.24314
0.28627	0.31765	0.25882
0.34510	0.34510	0.27843
0.43529	0.38039	0.31765
0.55294	0.43137	0.36471
0.70588	0.49804	0.42745
0.89412	0.57647	0.50980
1.00000	0.67451	0.60000
0.25882	0.38824	0.27451
0.28235	0.39608	0.28235
0.32549	0.41176	0.29804
0.38039	0.43529	0.31765
0.47843	0.47843	0.35294
0.59608	0.52941	0.40000
0.74510	0.59608	0.46275
0.93333	0.67451	0.54118
1.00000	0.76863	0.63137
0.30980	0.50588	0.32549
0.33333	0.51373	0.33333
0.37647	0.52941	0.34510
0.43137	0.55294	0.36471
0.52941	0.59608	0.40000
0.64706	0.64706	0.44706
0.80000	0.71373	0.50980
0.98431	0.79608	0.58431
1.00000	0.89020	0.67451
0.37647	0.65882	0.38824
0.39608	0.66667	0.39608
0.43922	0.68235	0.40784
0.49804	0.70588	0.43137
0.59608	0.74902	0.46275
0.71373	0.80000	0.50980
0.86667	0.86667	0.56863
1.00000	0.94510	0.64314
1.00000	1.00000	0.72941
0.45882	0.84706	0.47059
0.47843	0.85490	0.47843
0.51765	0.86667	0.49020
0.57647	0.89412	0.50980
0.67451	0.93333	0.54118
0.79216	0.98431	0.58431
0.94902	1.00000	0.64314
1.00000	1.00000	0.71765
1.00000	1.00000	0.80392
0.55294	1.00000	0.56471
0.56863	1.00000	0.56863
0.60784	1.00000	0.58039
0.67059	1.00000	0.60000
0.76863	1.00000	0.63137
0.89020	1.00000	0.67451
1.00000	1.00000	0.72941
1.00000	1.00000	0.80392
1.00000	1.00000	0.88627
0.18824	0.18824	0.22745
0.20784	0.19608	0.23529
0.25882	0.21176	0.25882
0.30980	0.23529	0.27451
0.40392	0.27451	0.31765
0.52157	0.32549	0.36863
0.67451	0.38824	0.43137
0.86275	0.47059	0.50980
1.00000	0.56471	0.60392
0.19608	0.21176	0.23529
0.21961	0.21961	0.24706
0.26667	0.23529	0.26667
0.31765	0.25490	0.28235
0.41176	0.29804	0.32549
0.52941	0.34510	0.37647
0.68235	0.40784	0.43922
0.86667	0.49020	0.51765
1.00000	0.58039	0.60784
0.21176	0.25882	0.25882
0.23529	0.26667	0.26667
0.28627	0.28627	0.28627
0.33333	0.30196	0.30196
0.43137	0.34510	0.34510
0.54902	0.39216	0.39216
0.69804	0.45490	0.45490
0.88235	0.53333	0.53333
1.00000	0.62353	0.62353
0.23529	0.30980	0.27451
0.25490	0.31765	0.28235
0.30196	0.33333	0.30196
0.36078	0.36078	0.32157
0.45490	0.39608	0.36078
0.57255	0.44706	0.41176
0.72157	0.51373	0.47059
0.90588	0.59216	0.54902
1.00000	0.68627	0.63922
0.27451	0.40784	0.31765
0.29804	0.41176	0.32549
0.34510	0.43137	0.34510
0.39608	0.45490	0.36078
0.49804	0.49804	0.40000
0.61176	0.54510	0.44706
0.76078	0.60784	0.50588
0.94510	0.68627	0.58431
1.00000	0.78039	0.67451
0.32549	0.52157	0.36863
0.34510	0.52941	0.37647
0.39216	0.54902	0.39216
0.44706	0.57255	0.41176
0.54510	0.61176	0.44706
0.66275	0.66275	0.49412
0.81176	0.72941	0.55294
0.99608	0.80784	0.62745
1.00000	0.90196	0.71373
0.38824	0.67451	0.43137
0.40784	0.68235	0.43922
0.45490	0.69804	0.45490
0.51373	0.72157	0.47059
0.60784	0.76078	0.50588
0.72941	0.81176	0.55294
0.87843	0.87843	0.60784
1.00000	0.96078	0.68235
1.00000	1.00000	0.77255
0.47059	0.86275	0.50980
0.49020	0.86667	0.51765
0.53333	0.88235	0.53333
0.59216	0.90588	0.54902
0.68627	0.94510	0.58431
0.80784	0.99608	0.62745
0.96078	1.00000	0.68235
1.00000	1.00000	0.75294
1.00000	1.00000	0.83922
0.56471	1.00000	0.60392
0.58039	1.00000	0.60784
0.62353	1.00000	0.62353
0.68627	1.00000	0.63922
0.78039	1.00000	0.67451
0.90196	1.00000	0.71373
1.00000	1.00000	0.77255
1.00000	1.00000	0.83922
1.00000	1.00000	0.92549
0.21176	0.21176	0.28627
0.23137	0.21961	0.29020
0.27451	0.23529	0.30980
0.33725	0.25882	0.33725
0.43137	0.29804	0.37647
0.54510	0.34510	0.42745
0.70196	0.41176	0.49412
0.88627	0.49020	0.57255
1.00000	0.58431	0.66667
0.21961	0.23137	0.29020
0.24314	0.24314	0.29804
0.28235	0.25490	0.31765
0.34510	0.27843	0.34510
0.43529	0.31765	0.38039
0.55294	0.36471	0.43137
0.70588	0.42745	0.49804
0.89412	0.50980	0.57647
1.00000	0.60000	0.67451
0.23529	0.27451	0.30980
0.25490	0.28235	0.31765
0.30196	0.30196	0.33333
0.36078	0.32157	0.36078
0.45490	0.36078	0.39608
0.57255	0.41176	0.44706
0.72157	0.47059	0.51373
0.90588	0.54902	0.59216
1.00000	0.63922	0.68627
0.25882	0.33725	0.33725
0.27843	0.34510	0.34510
0.32157	0.36078	0.36078
0.38824	0.38824	0.38824
0.47843	0.42353	0.42353
0.59216	0.47059	0.47059
0.74510	0.53333	0.53333
0.92941	0.61176	0.61176
1.00000	0.70588	0.70588
0.29804	0.43137	0.37647
0.31765	0.43529	0.38039
0.36078	0.45490	0.39608
0.42353	0.47843	0.42353
0.51765	0.51765	0.45882
0.63137	0.56471	0.50588
0.78431	0.63137	0.56863
0.96863	0.70588	0.64314
1.00000	0.80000	0.73333
0.34510	0.54902	0.42745
0.36471	0.55294	0.43137
0.41176	0.57255	0.44706
0.47059	0.59216	0.47059
0.56471	0.63529	0.50588
0.68235	0.68235	0.54902
0.83529	0.74902	0.61176
1.00000	0.82745	0.68627
1.00000	0.92157	0.77647
0.41176	0.70196	0.49412
0.42745	0.70588	0.49804
0.47059	0.72157	0.51373
0.53333	0.74510	0.53333
0.63137	0.78431	0.56863
0.74902	0.83529	0.61176
0.90196	0.90196	0.67059
1.00000	0.98039	0.74510
1.00000	1.00000	0.83529
0.49020	0.88627	0.57255
0.50980	0.89412	0.57647
0.54902	0.90588	0.59216
0.61176	0.92941	0.61176
0.70588	0.96863	0.64314
0.82745	1.00000	0.68627
0.98039	1.00000	0.74510
1.00000	1.00000	0.81569
1.00000	1.00000	0.90196
0.58431	1.00000	0.66667
0.60000	1.00000	0.67059
0.63922	1.00000	0.68235
0.70588	1.00000	0.70588
0.80000	1.00000	0.73725
0.92157	1.00000	0.77647
1.00000	1.00000	0.83529
1.00000	1.00000	0.90196
1.00000	1.00000	0.98824
0.25490	0.25490	0.38039
0.27451	0.25882	0.38824
0.31765	0.27451	0.40392
0.37647	0.29804	0.43137
0.47059	0.33333	0.47059
0.58824	0.38039	0.52157
0.74118	0.44314	0.58824
0.92549	0.52157	0.67059
1.00000	0.61569	0.76471
0.25882	0.27451	0.38824
0.28235	0.28235	0.39608
0.32549	0.29804	0.41176
0.38039	0.31765	0.43529
0.47843	0.35294	0.47843
0.59608	0.40000	0.52941
0.74902	0.46275	0.59608
0.93333	0.54118	0.67451
1.00000	0.63137	0.76863
0.27451	0.31765	0.40392
0.29804	0.32549	0.41176
0.34510	0.34510	0.43137
0.39608	0.36078	0.45490
0.49412	0.40000	0.49412
0.61176	0.44706	0.54510
0.76078	0.50588	0.60784
0.94510	0.58431	0.68627
1.00000	0.67451	0.78039
0.29804	0.37647	0.43137
0.31765	0.38039	0.43529
0.36078	0.39608	0.45490
0.42353	0.42353	0.47843
0.51765	0.45882	0.51765
0.63529	0.50588	0.56471
0.78431	0.56863	0.63137
0.96863	0.64314	0.70588
1.00000	0.73725	0.80000
0.33333	0.47451	0.47451
0.35294	0.47843	0.47843
0.40000	0.49412	0.49412
0.45882	0.51765	0.51765
0.55686	0.55686	0.55686
0.67451	0.60392	0.60392
0.82353	0.66667	0.66667
1.00000	0.74118	0.74118
1.00000	0.83137	0.83137
0.38039	0.58824	0.52157
0.40000	0.59608	0.52941
0.44706	0.61176	0.54510
0.50588	0.63137	0.56471
0.60392	0.67451	0.60392
0.72157	0.72157	0.64706
0.87059	0.78431	0.70980
1.00000	0.86275	0.78431
1.00000	0.95294	0.87451
0.44314	0.74118	0.58824
0.46275	0.74902	0.59608
0.50588	0.76078	0.60784
0.56863	0.78431	0.63137
0.66667	0.82353	0.66667
0.78431	0.87059	0.70980
0.93725	0.93725	0.76863
1.00000	1.00000	0.84314
1.00000	1.00000	0.92941
0.52157	0.92549	0.66667
0.54118	0.93333	0.67451
0.58431	0.94510	0.68627
0.64314	0.96863	0.70588
0.74118	1.00000	0.74118
0.86275	1.00000	0.78431
1.00000	1.00000	0.84314
1.00000	1.00000	0.91373
1.00000	1.00000	1.00000
0.61569	1.00000	0.76471
0.63137	1.00000	0.76863
0.67451	1.00000	0.78039
0.73725	1.00000	0.80000
0.83137	1.00000	0.83137
0.95294	1.00000	0.87451
1.00000	1.00000	0.92941
1.00000	1.00000	1.00000
1.00000	1.00000	1.00000
0.30588	0.30588	0.49804
0.32157	0.30980	0.50588
0.36863	0.32549	0.52157
0.42745	0.34510	0.54902
0.52157	0.38039	0.58824
0.63922	0.42745	0.63922
0.79216	0.49020	0.70588
0.97647	0.56471	0.78824
1.00000	0.65882	0.88235
0.30980	0.32549	0.50588
0.33333	0.33333	0.51373
0.37647	0.34510	0.52941
0.43137	0.36471	0.55294
0.52941	0.40000	0.59608
0.64706	0.44706	0.64706
0.80000	0.50588	0.71373
0.98431	0.58431	0.79608
1.00000	0.67451	0.89020
0.32549	0.36863	0.52157
0.34510	0.37647	0.52941
0.39216	0.39216	0.54902
0.44706	0.41176	0.57255
0.54510	0.44706	0.61176
0.66275	0.49412	0.66275
0.81176	0.55294	0.72941
0.99608	0.62745	0.80784
1.00000	0.71373	0.90196
0.34510	0.42745	0.54510
0.36471	0.43137	0.55294
0.41176	0.44706	0.57255
0.47059	0.47059	0.59216
0.56471	0.50588	0.63529
0.68235	0.54902	0.68235
0.83529	0.61176	0.74902
1.00000	0.68627	0.82745
1.00000	0.77647	0.92157
0.38039	0.52157	0.58824
0.40000	0.52941	0.59608
0.44706	0.54510	0.61176
0.50588	0.56471	0.63529
0.60392	0.60392	0.67451
0.72157	0.64706	0.72157
0.87059	0.70980	0.78431
1.00000	0.78431	0.85882
1.00000	0.87451	0.95294
0.42745	0.64314	0.64314
0.44706	0.64706	0.64706
0.49412	0.66275	0.66275
0.54902	0.68235	0.68235
0.64706	0.72157	0.72157
0.76863	0.76863	0.76863
0.91765	0.82745	0.82745
1.00000	0.90588	0.90588
1.00000	0.99608	0.99608
0.49020	0.79216	0.70588
0.50980	0.80000	0.71373
0.55294	0.81176	0.72549
0.61176	0.83529	0.74902
0.70980	0.87059	0.78431
0.82745	0.91765	0.82745
0.98039	0.98039	0.88627
1.00000	1.00000	0.96078
1.00000	1.00000	1.00000
0.56471	0.97647	0.78824
0.58431	0.98431	0.79608
0.62745	0.99608	0.80784
0.68627	1.00000	0.82745
0.78431	1.00000	0.85882
0.90588	1.00000	0.90588
1.00000	1.00000	0.96078
1.00000	1.00000	1.00000
1.00000	1.00000	1.00000
0.65882	1.00000	0.88627
0.67451	1.00000	0.89020
0.71373	1.00000	0.90196
0.77647	1.00000	0.92157
0.87451	1.00000	0.95294
0.99608	1.00000	0.99608
1.00000	1.00000	1.00000
1.00000	1.00000	1.00000
1.00000	1.00000	1.00000
0.36863	0.36863	0.65098
0.38824	0.37647	0.65882
0.43137	0.38824	0.67451
0.49412	0.41176	0.70196
0.58824	0.44314	0.74118
0.70588	0.49020	0.79216
0.86275	0.54902	0.86275
1.00000	0.62353	0.94118
1.00000	0.71373	1.00000
0.37647	0.38824	0.65882
0.39608	0.39608	0.66667
0.43922	0.40784	0.68235
0.49804	0.42745	0.70588
0.59608	0.46275	0.74902
0.71373	0.50980	0.80000
0.86667	0.56863	0.86667
1.00000	0.64314	0.94902
1.00000	0.72941	1.00000
0.38824	0.43137	0.67451
0.40784	0.43922	0.68235
0.45490	0.45490	0.69804
0.51373	0.47059	0.72157
0.60784	0.50588	0.76078
0.72941	0.55294	0.81176
0.88235	0.61176	0.88235
1.00000	0.68235	0.96078
1.00000	0.76863	1.00000
0.41176	0.49412	0.70196
0.42745	0.49804	0.70588
0.47059	0.51373	0.72157
0.53333	0.53333	0.74902
0.62745	0.56863	0.78431
0.74902	0.61176	0.83529
0.90196	0.67059	0.90196
1.00000	0.74510	0.98039
1.00000	0.83529	1.00000
0.44314	0.58824	0.74118
0.46275	0.59608	0.74510
0.50588	0.60784	0.76078
0.56863	0.63137	0.78431
0.66667	0.66667	0.82353
0.78431	0.70980	0.87059
0.93725	0.76863	0.93725
1.00000	0.84314	1.00000
1.00000	0.92941	1.00000
0.49020	0.70588	0.79216
0.50588	0.71373	0.80000
0.55294	0.72941	0.81176
0.61176	0.74902	0.83529
0.70980	0.78431	0.87059
0.82745	0.82745	0.91765
0.98039	0.89020	0.98039
1.00000	0.96078	1.00000
1.00000	1.00000	1.00000
0.54902	0.86275	0.86275
0.56863	0.86667	0.86667
0.60784	0.87843	0.87843
0.67059	0.90196	0.90196
0.76863	0.93725	0.93725
0.88627	0.98039	0.98039
1.00000	1.00000	1.00000
1.00000	1.00000	1.00000
1.00000	1.00000	1.00000
0.62353	1.00000	0.94118
0.64314	1.00000	0.94510
0.68235	1.00000	0.96078
0.74510	1.00000	0.98039
0.84314	1.00000	1.00000
0.96078	1.00000	1.00000
1.00000	1.00000	1.00000
1.00000	1.00000	1.00000
1.00000	1.00000	1.00000
0.71373	1.00000	1.00000
0.72941	1.00000	1.00000
0.76863	1.00000	1.00000
0.83529	1.00000	1.00000
0.92941	1.00000	1.00000
1.00000	1.00000	1.00000
1.00000	1.00000	1.00000
1.00000	1.00000	1.00000
1.00000	1.00000	1.00000
0.45098	0.45098	0.83922
0.47059	0.45490	0.84706
0.50980	0.47059	0.86275
0.57255	0.49020	0.88627
0.66667	0.52157	0.92549
0.78824	0.56471	0.97647
0.94118	0.62353	1.00000
1.00000	0.69804	1.00000
1.00000	0.78431	1.00000
0.45490	0.47059	0.84706
0.47843	0.47843	0.85490
0.51765	0.49020	0.86667
0.57647	0.50588	0.89412
0.67451	0.54118	0.93333
0.79216	0.58431	0.98431
0.94902	0.64314	1.00000
1.00000	0.71373	1.00000
1.00000	0.80392	1.00000
0.47059	0.50980	0.86275
0.49020	0.51765	0.86667
0.53333	0.53333	0.88235
0.59216	0.54902	0.90588
0.68627	0.58431	0.94510
0.80784	0.62745	0.99608
0.96078	0.68235	1.00000
1.00000	0.75686	1.00000
1.00000	0.83922	1.00000
0.49020	0.57255	0.88627
0.50980	0.57647	0.89412
0.54902	0.59216	0.90588
0.61176	0.61176	0.92941
0.70588	0.64314	0.96863
0.82745	0.68627	1.00000
0.98039	0.74510	1.00000
1.00000	0.81569	1.00000
1.00000	0.90196	1.00000
0.52157	0.67059	0.92549
0.54118	0.67451	0.93333
0.58431	0.68627	0.94510
0.64314	0.70588	0.96863
0.74118	0.74118	1.00000
0.86275	0.78431	1.00000
1.00000	0.84314	1.00000
1.00000	0.91373	1.00000
1.00000	1.00000	1.00000
0.56471	0.78824	0.97647
0.58431	0.79608	0.98431
0.62745	0.80784	1.00000
0.68627	0.82745	1.00000
0.78431	0.86275	1.00000
0.90588	0.90588	1.00000
1.00000	0.96078	1.00000
1.00000	1.00000	1.00000
1.00000	1.00000	1.00000
0.62353	0.94118	1.00000
0.64314	0.94902	1.00000
0.68235	0.96078	1.00000
0.74510	0.98039	1.00000
0.84314	1.00000	1.00000
0.96078	1.00000	1.00000
1.00000	1.00000	1.00000
1.00000	1.00000	1.00000
1.00000	1.00000	1.00000
0.69804	1.00000	1.00000
0.71373	1.00000	1.00000
0.75686	1.00000	1.00000
0.81569	1.00000	1.00000
0.91373	1.00000	1.00000
1.00000	1.00000	1.00000
1.00000	1.00000	1.00000
1.00000	1.00000	1.00000
1.00000	1.00000	1.00000
0.78431	1.00000	1.00000
0.80392	1.00000	1.00000
0.83922	1.00000	1.00000
0.90196	1.00000	1.00000
1.00000	1.00000	1.00000
1.00000	1.00000	1.00000
1.00000	1.00000	1.00000
1.00000	1.00000	1.00000
1.00000	1.00000	1.00000
0.54902	0.54902	1.00000
0.56471	0.55294	1.00000
0.60392	0.56471	1.00000
0.66667	0.58431	1.00000
0.76471	0.61569	1.00000
0.88235	0.65882	1.00000
1.00000	0.71373	1.00000
1.00000	0.78431	1.00000
1.00000	0.87451	1.00000
0.55294	0.56471	1.00000
0.56863	0.56863	1.00000
0.61176	0.58039	1.00000
0.67059	0.60000	1.00000
0.76863	0.63137	1.00000
0.89020	0.67451	1.00000
1.00000	0.72941	1.00000
1.00000	0.80392	1.00000
1.00000	0.89020	1.00000
0.56471	0.60392	1.00000
0.58039	0.60784	1.00000
0.62353	0.62353	1.00000
0.68627	0.63922	1.00000
0.78039	0.67451	1.00000
0.90196	0.71373	1.00000
1.00000	0.76863	1.00000
1.00000	0.84314	1.00000
1.00000	0.92549	1.00000
0.58431	0.66667	1.00000
0.60000	0.67059	1.00000
0.63922	0.68235	1.00000
0.70588	0.70588	1.00000
0.80000	0.73725	1.00000
0.92157	0.77647	1.00000
1.00000	0.83529	1.00000
1.00000	0.90196	1.00000
1.00000	0.98824	1.00000
0.61569	0.76471	1.00000
0.63137	0.76863	1.00000
0.67451	0.78039	1.00000
0.73725	0.80000	1.00000
0.83137	0.83137	1.00000
0.95294	0.87451	1.00000
1.00000	0.92941	1.00000
1.00000	1.00000	1.00000
1.00000	1.00000	1.00000
0.65882	0.88627	1.00000
0.67451	0.89020	1.00000
0.71373	0.90196	1.00000
0.77647	0.92157	1.00000
0.87451	0.95294	1.00000
0.99608	0.99608	1.00000
1.00000	1.00000	1.00000
1.00000	1.00000	1.00000
1.00000	1.00000	1.00000
0.71373	1.00000	1.00000
0.72941	1.00000	1.00000
0.76863	1.00000	1.00000
0.83529	1.00000	1.00000
0.92941	1.00000	1.00000
1.00000	1.00000	1.00000
1.00000	1.00000	1.00000
1.00000	1.00000	1.00000
1.00000	1.00000	1.00000
0.78431	1.00000	1.00000
0.80392	1.00000	1.00000
0.84314	1.00000	1.00000
0.90196	1.00000	1.00000
1.00000	1.00000	1.00000
1.00000	1.00000	1.00000
1.00000	1.00000	1.00000
1.00000	1.00000	1.00000
1.00000	1.00000	1.00000
0.87451	1.00000	1.00000
0.88627	1.00000	1.00000
0.92549	1.00000	1.00000
0.98824	1.00000	1.00000
1.00000	1.00000	1.00000
1.00000	1.00000	1.00000
1.00000	1.00000	1.00000
1.00000	1.00000	1.00000
1.00000	1.00000	1.00000
