LUTGenerator/TEST/CUBE/Retro/bleachbypass_linear_sRGB.cube
TITLE bleachbypass_linear_sRGB.cube
LUT_3D_SIZE 5
DOMAIN_MIN 0.0 0.0 0.0
DOMAIN_MAX 1.0 1.0 1.0
0.16471	0.16471	0.16471
0.22745	0.18824	0.18824
0.38039	0.25490	0.25490
0.65098	0.37255	0.37255
1.00000	0.54902	0.54902
0.18824	0.22745	0.18824
0.25882	0.25882	0.21176
0.40392	0.31765	0.27451
0.67451	0.43137	0.38824
1.00000	0.60392	0.56471
0.25490	0.38039	0.25490
0.31765	0.40784	0.27451
0.47059	0.47059	0.33333
0.74118	0.58824	0.44314
1.00000	0.76471	0.61569
0.37255	0.65098	0.37255
0.43137	0.67451	0.38824
0.58824	0.74118	0.44314
0.85882	0.85882	0.54902
1.00000	1.00000	0.71373
0.54902	1.00000	0.54902
0.60392	1.00000	0.56471
0.76471	1.00000	0.61569
1.00000	1.00000	0.71373
1.00000	1.00000	0.87451
0.18824	0.18824	0.22745
0.25882	0.21176	0.25882
0.40392	0.27451	0.31765
0.67451	0.38824	0.43137
1.00000	0.56471	0.60392
0.21176	0.25882	0.25882
0.28627	0.28627	0.28627
0.43137	0.34510	0.34510
0.69804	0.45490	0.45490
1.00000	0.62353	0.62353
0.27451	0.40784	0.31765
0.34510	0.43137	0.34510
0.49804	0.49804	0.40000
0.76078	0.60784	0.50588
1.00000	0.78039	0.67451
0.38824	0.67451	0.43137
0.45490	0.69804	0.45490
0.60784	0.76078	0.50588
0.87843	0.87843	0.60784
1.00000	1.00000	0.77255
0.56471	1.00000	0.60392
0.62353	1.00000	0.62353
0.78039	1.00000	0.67451
1.00000	1.00000	0.77255
1.00000	1.00000	0.92549
0.25490	0.25490	0.38039
0.31765	0.27451	0.40392
0.47059	0.33333	0.47059
0.74118	0.44314	0.58824
1.00000	0.61569	0.76471
0.27451	0.31765	0.40392
0.34510	0.34510	0.43137
0.49412	0.40000	0.49412
0.76078	0.50588	0.60784
1.00000	0.67451	0.78039
0.33333	0.47451	0.47451
0.40000	0.49412	0.49412
0.55686	0.55686	0.55686
0.82353	0.66667	0.66667
1.00000	0.83137	0.83137
0.44314	0.74118	0.58824
0.50588	0.76078	0.60784
0.66667	0.82353	0.66667
0.93725	0.93725	0.76863
1.00000	1.00000	0.92941
0.61569	1.00000	0.76471
0.67451	1.00000	0.78039
0.83137	1.00000	0.83137
1.00000	1.00000	0.92941
1.00000	1.00000	1.00000
0.36863	0.36863	0.65098
0.43137	0.38824	0.67451
0.58824	0.44314	0.74118
0.86275	0.54902	0.86275
1.00000	0.71373	1.00000
0.38824	0.43137	0.67451
0.45490	0.45490	0.69804
0.60784	0.50588	0.76078
0.88235	0.61176	0.88235
1.00000	0.76863	1.00000
0.44314	0.58824	0.74118
0.50588	0.60784	0.76078
0.66667	0.66667	0.82353
0.93725	0.76863	0.93725
1.00000	0.92941	1.00000
0.54902	0.86275	0.86275
0.60784	0.87843	0.87843
0.76863	0.93725	0.93725
1.00000	1.00000	1.00000
1.00000	1.00000	1.00000
0.71373	1.00000	1.00000
0.76863	1.00000	1.00000
0.92941	1.00000	1.00000
1.00000	1.00000	1.00000
1.00000	1.00000	1.00000
0.54902	0.54902	1.00000
0.60392	0.56471	1.00000
0.76471	0.61569	1.00000
1.00000	0.71373	1.00000
1.00000	0.87451	1.00000
0.56471	0.60392	1.00000
0.62353	0.62353	1.00000
0.78039	0.67451	1.00000
1.00000	0.76863	1.00000
1.00000	0.92549	1.00000
0.61569	0.76471	1.00000
0.67451	0.78039	1.00000
0.83137	0.83137	1.00000
1.00000	0.92941	1.00000
1.00000	1.00000	1.00000
0.71373	1.00000	1.00000
0.76863	1.00000	1.00000
0.92941	1.00000	1.00000
1.00000	1.00000	1.00000
1.00000	1.00000	1.00000
0.87451	1.00000	1.00000
0.92549	1.00000	1.00000
1.00000	1.00000	1.00000
1.00000	1.00000	1.00000
1.00000	1.00000	1.00000
