LUTGenerator/TEST/CUBE/Retro/bleachbypass_linear_sRGB.cube
TITLE bleachbypass_linear_sRGB.cube
LUT_3D_SIZE 17
DOMAIN_MIN 0.0 0.0 0.0
DOMAIN_MAX 1.0 1.0 1.0
0.16471	0.16471	0.16471
0.17255	0.16863	0.16863
0.18431	0.17255	0.17255
0.20392	0.17647	0.17647
0.22745	0.18824	0.18824
0.25490	0.20000	0.20000
0.28627	0.21176	0.21176
0.32549	0.23137	0.23137
0.38039	0.25490	0.25490
0.42745	0.27451	0.27451
0.49804	0.30588	0.30588
0.56471	0.33333	0.33333
0.65098	0.37255	0.37255
0.74118	0.40784	0.40784
0.83922	0.45098	0.45098
0.94510	0.49804	0.49804
1.00000	0.54902	0.54902
0.16863	0.17255	0.16863
0.17647	0.17647	0.16863
0.18824	0.18039	0.17255
0.20784	0.18824	0.18039
0.23137	0.19608	0.18824
0.25882	0.20784	0.20000
0.28627	0.21961	0.21569
0.32941	0.23922	0.23529
0.38039	0.25882	0.25490
0.43137	0.28235	0.27843
0.50196	0.31373	0.30588
0.56863	0.34118	0.33725
0.65490	0.37647	0.37255
0.74510	0.41569	0.41176
0.84314	0.45882	0.45490
0.94902	0.50588	0.49804
1.00000	0.55294	0.54902
0.17255	0.18431	0.17255
0.18039	0.18824	0.17255
0.19608	0.19608	0.18039
0.21176	0.20000	0.18431
0.23529	0.21176	0.19608
0.26275	0.21961	0.20784
0.29412	0.23137	0.21961
0.33333	0.25490	0.23922
0.38824	0.27451	0.25882
0.43529	0.29412	0.28235
0.50588	0.32549	0.30980
0.57255	0.35294	0.34118
0.65882	0.38824	0.37647
0.74902	0.42745	0.41569
0.84706	0.47059	0.45882
0.95294	0.51373	0.50196
1.00000	0.56471	0.55294
0.18039	0.20392	0.18039
0.18824	0.20784	0.18039
0.20000	0.21176	0.18431
0.22353	0.22353	0.19216
0.24706	0.23137	0.20392
0.27059	0.23922	0.21176
0.29804	0.25098	0.22745
0.34118	0.27059	0.24314
0.39608	0.29412	0.26667
0.44314	0.30980	0.28627
0.51373	0.34118	0.31765
0.58039	0.36863	0.34510
0.66667	0.40784	0.38039
0.75686	0.44706	0.41961
0.85490	0.49020	0.46275
0.95686	0.53333	0.50588
1.00000	0.58039	0.55686
0.18824	0.22745	0.18824
0.19608	0.22745	0.18824
0.20784	0.23529	0.19608
0.23137	0.24314	0.20392
0.25882	0.25882	0.21176
0.28235	0.26667	0.22353
0.30980	0.27451	0.23529
0.35294	0.29412	0.25098
0.40392	0.31765	0.27451
0.45098	0.33333	0.29412
0.52157	0.36863	0.32549
0.58824	0.39216	0.35294
0.67451	0.43137	0.38824
0.76471	0.47059	0.42745
0.86275	0.50980	0.47059
0.96471	0.55294	0.51373
1.00000	0.60392	0.56471
0.20000	0.25490	0.20000
0.20784	0.25490	0.20000
0.21961	0.26275	0.20784
0.23922	0.27059	0.21176
0.26667	0.28235	0.22353
0.29412	0.29412	0.23529
0.32157	0.30588	0.24706
0.36078	0.32157	0.26275
0.41961	0.34510	0.28627
0.46275	0.36471	0.30588
0.53333	0.39608	0.33333
0.60000	0.41961	0.36078
0.68627	0.46275	0.40000
0.77647	0.49804	0.43922
0.87451	0.54118	0.47843
0.97647	0.58431	0.52549
1.00000	0.63529	0.57255
0.21176	0.28627	0.21176
0.21961	0.28627	0.21569
0.23137	0.29020	0.21961
0.25098	0.29804	0.22745
0.27451	0.30980	0.23529
0.30588	0.32157	0.24706
0.33725	0.33725	0.25882
0.37647	0.35294	0.27451
0.43137	0.37647	0.29804
0.47843	0.39608	0.31765
0.54510	0.42745	0.34510
0.61569	0.45490	0.37647
0.70196	0.49412	0.41176
0.78824	0.52941	0.44706
0.88627	0.57255	0.49020
0.99216	0.61961	0.53333
1.00000	0.66667	0.58431
0.23137	0.32549	0.23137
0.23922	0.32941	0.23529
0.25490	0.33725	0.23922
0.27059	0.34118	0.24314
0.29412	0.34902	0.25098
0.32157	0.36078	0.26275
0.35294	0.37647	0.27451
0.39608	0.39608	0.29412
0.44706	0.41569	0.31373
0.49412	0.43922	0.33333
0.56471	0.46667	0.36078
0.63137	0.49804	0.38824
0.71765	0.53333	0.42353
0.80784	0.57255	0.46275
0.90588	0.61569	0.50588
1.00000	0.66275	0.54902
1.00000	0.70980	0.59608
0.25490	0.38039	0.25490
0.26275	0.38431	0.25490
0.27451	0.38824	0.25882
0.29412	0.39608	0.26667
0.31765	0.40784	0.27451
0.34902	0.41961	0.28627
0.37647	0.43137	0.29804
0.41569	0.44706	0.31373
0.47059	0.47059	0.33333
0.51765	0.49020	0.35294
0.58824	0.52157	0.38039
0.65490	0.54902	0.40784
0.74118	0.58824	0.44314
0.83137	0.62745	0.48235
0.92549	0.67059	0.52157
1.00000	0.71373	0.56471
1.00000	0.76471	0.61569
0.27451	0.43137	0.27451
0.28235	0.43137	0.27843
0.29412	0.43529	0.28235
0.30980	0.44314	0.28627
0.33333	0.45098	0.29412
0.36471	0.46275	0.30588
0.39608	0.47843	0.31765
0.43922	0.49412	0.33333
0.49020	0.51765	0.35294
0.54118	0.54118	0.37255
0.60784	0.56863	0.40000
0.67843	0.60000	0.42745
0.76078	0.63922	0.46275
0.85098	0.67843	0.50196
0.94902	0.72157	0.54118
1.00000	0.76471	0.58431
1.00000	0.81569	0.63529
0.30588	0.49804	0.30588
0.30980	0.50196	0.30588
0.32549	0.50588	0.30980
0.34118	0.51373	0.31765
0.36863	0.52157	0.32549
0.39608	0.53333	0.33333
0.42745	0.54902	0.34510
0.46667	0.56471	0.36078
0.52157	0.58824	0.38039
0.56863	0.60784	0.40000
0.63922	0.63922	0.42745
0.70588	0.67059	0.45490
0.79216	0.70588	0.49020
0.88235	0.74510	0.52549
0.97647	0.78824	0.56471
1.00000	0.83529	0.60784
1.00000	0.88235	0.65882
0.33333	0.56863	0.33333
0.34118	0.56863	0.33725
0.35294	0.57255	0.34118
0.36863	0.58039	0.34510
0.39216	0.58824	0.35294
0.42353	0.60000	0.36078
0.45490	0.61569	0.37647
0.49804	0.63137	0.39216
0.54902	0.65490	0.40784
0.60000	0.67843	0.42745
0.67059	0.70588	0.45490
0.73725	0.73725	0.48235
0.82353	0.77647	0.51765
0.90980	0.81569	0.55294
1.00000	0.85882	0.59216
1.00000	0.90588	0.63529
1.00000	0.95686	0.68235
0.37255	0.65098	0.37255
0.37647	0.65490	0.37255
0.38824	0.65882	0.37647
0.40784	0.66667	0.38039
0.43137	0.67451	0.38824
0.46275	0.68627	0.40000
0.49412	0.70196	0.41176
0.53333	0.71765	0.42745
0.58824	0.74118	0.44314
0.63922	0.76078	0.46275
0.70588	0.79216	0.49020
0.77647	0.82353	0.51765
0.85882	0.85882	0.54902
0.94902	0.89804	0.58431
1.00000	0.94118	0.62353
1.00000	0.98824	0.66667
1.00000	1.00000	0.71373
0.40784	0.74118	0.40784
0.41569	0.74510	0.41176
0.42745	0.74902	0.41569
0.44706	0.75686	0.41961
0.47059	0.76471	0.42745
0.49804	0.77647	0.43529
0.52941	0.78824	0.44706
0.57255	0.80784	0.46275
0.62745	0.83137	0.48235
0.67843	0.85098	0.50196
0.74902	0.88235	0.52549
0.81569	0.91373	0.55294
0.89804	0.94902	0.58431
0.98824	0.98824	0.61961
1.00000	1.00000	0.65882
1.00000	1.00000	0.70196
1.00000	1.00000	0.74902
0.45098	0.83922	0.45098
0.45882	0.84314	0.45490
0.47059	0.84706	0.45882
0.48627	0.85490	0.46275
0.50980	0.86275	0.47059
0.53725	0.87059	0.47843
0.57255	0.88627	0.49020
0.61569	0.90588	0.50588
0.67059	0.92549	0.52157
0.71765	0.94902	0.54118
0.78824	0.97647	0.56471
0.85882	1.00000	0.59216
0.94118	1.00000	0.62353
1.00000	1.00000	0.65882
1.00000	1.00000	0.69804
1.00000	1.00000	0.74118
1.00000	1.00000	0.78431
0.49804	0.94510	0.49804
0.50588	0.94902	0.49804
0.51373	0.95294	0.50196
0.53333	0.95686	0.50588
0.55686	0.96863	0.51373
0.58431	0.97647	0.52549
0.61961	0.99216	0.53333
0.66275	1.00000	0.54902
0.71373	1.00000	0.56471
0.76471	1.00000	0.58431
0.83529	1.00000	0.60784
0.90588	1.00000	0.63529
0.98824	1.00000	0.66667
1.00000	1.00000	0.70196
1.00000	1.00000	0.74118
1.00000	1.00000	0.78039
1.00000	1.00000	0.82745
0.54902	1.00000	0.54902
0.55294	1.00000	0.54902
0.56471	1.00000	0.55294
0.58039	1.00000	0.55686
0.60392	1.00000	0.56471
0.63137	1.00000	0.57255
0.66667	1.00000	0.58431
0.70980	1.00000	0.59608
0.76471	1.00000	0.61569
0.81569	1.00000	0.63529
0.88235	1.00000	0.65882
0.95686	1.00000	0.68235
1.00000	1.00000	0.71373
1.00000	1.00000	0.74902
1.00000	1.00000	0.78431
1.00000	1.00000	0.82745
1.00000	1.00000	0.87451
0.16863	0.16863	0.17255
0.17647	0.16863	0.17647
0.18824	0.17255	0.18039
0.20784	0.18039	0.18824
0.23137	0.18824	0.19608
0.25882	0.20392	0.20784
0.28627	0.21569	0.21961
0.32941	0.23529	0.23922
0.38431	0.25490	0.25882
0.43137	0.27843	0.28235
0.50196	0.30588	0.30980
0.56863	0.33725	0.34118
0.65490	0.37255	0.37647
0.74510	0.41176	0.41569
0.84314	0.45490	0.45882
0.94902	0.49804	0.50588
1.00000	0.54902	0.55294
0.16863	0.17647	0.17647
0.18039	0.18039	0.18039
0.19216	0.18431	0.18431
0.21176	0.19216	0.19216
0.23529	0.20000	0.20000
0.25882	0.21176	0.21176
0.29020	0.22353	0.22353
0.33333	0.24314	0.24314
0.38431	0.26275	0.26275
0.43529	0.28627	0.28627
0.50196	0.31373	0.31373
0.57255	0.34510	0.34510
0.65882	0.38039	0.38039
0.74902	0.41961	0.41961
0.84314	0.46275	0.46275
0.95294	0.50588	0.50588
1.00000	0.55686	0.55686
0.17255	0.18824	0.18039
0.18431	0.19216	0.18431
0.20000	0.20000	0.18824
0.21569	0.20392	0.19608
0.23922	0.21569	0.20392
0.26667	0.22353	0.21569
0.29412	0.23529	0.22745
0.33725	0.25882	0.24706
0.38824	0.27843	0.26667
0.43922	0.29804	0.29020
0.50588	0.32549	0.31765
0.57647	0.35294	0.34510
0.66275	0.39216	0.38431
0.75294	0.43137	0.42353
0.84706	0.47451	0.46275
0.95294	0.51765	0.50980
1.00000	0.56863	0.56078
0.18039	0.20784	0.18824
0.19216	0.21176	0.19216
0.20392	0.21569	0.19608
0.22745	0.22745	0.20392
0.24706	0.23529	0.21176
0.27451	0.24314	0.22353
0.30196	0.25490	0.23529
0.34510	0.27451	0.25490
0.39608	0.29412	0.27451
0.44314	0.31373	0.29412
0.51373	0.34510	0.32549
0.58039	0.37255	0.35294
0.66667	0.40784	0.38824
0.75686	0.45098	0.42745
0.85490	0.49020	0.47059
0.96078	0.53333	0.51373
1.00000	0.58431	0.56471
0.18824	0.23137	0.19608
0.20000	0.23529	0.20000
0.21569	0.23922	0.20392
0.23529	0.24706	0.21176
0.25882	0.25882	0.21961
0.28627	0.27059	0.23137
0.31373	0.27843	0.24314
0.35294	0.29804	0.26275
0.40784	0.32157	0.28235
0.45490	0.33725	0.30196
0.52549	0.37255	0.33333
0.59216	0.39608	0.36078
0.67843	0.43529	0.39608
0.76863	0.47451	0.43529
0.86275	0.51373	0.47451
0.96863	0.55686	0.52157
1.00000	0.60784	0.57255
0.20000	0.25882	0.20784
0.21176	0.25882	0.21176
0.22353	0.26667	0.21569
0.24314	0.27451	0.22353
0.27059	0.28627	0.23137
0.29804	0.29804	0.24314
0.32549	0.30588	0.25490
0.36471	0.32549	0.27059
0.41961	0.34902	0.29412
0.46667	0.36471	0.31373
0.53725	0.39608	0.34118
0.60392	0.42353	0.36863
0.69020	0.46275	0.40784
0.78039	0.50196	0.44314
0.87451	0.54118	0.48627
0.98039	0.58431	0.52941
1.00000	0.63529	0.58039
0.21569	0.28627	0.21961
0.22353	0.29020	0.22353
0.23529	0.29412	0.22745
0.25490	0.30196	0.23529
0.27843	0.30980	0.24314
0.30588	0.32549	0.25490
0.34118	0.34118	0.26667
0.38039	0.35294	0.28235
0.43137	0.37647	0.30588
0.48235	0.40000	0.32549
0.54902	0.42745	0.35294
0.61569	0.45882	0.38039
0.70196	0.49412	0.41569
0.79216	0.53333	0.45490
0.89020	0.57255	0.49412
0.99608	0.61961	0.54118
1.00000	0.67059	0.58824
0.23529	0.32941	0.23922
0.24314	0.33333	0.24314
0.25882	0.33725	0.24706
0.27451	0.34510	0.25490
0.29804	0.35294	0.26275
0.32549	0.36471	0.27059
0.35294	0.38039	0.28235
0.40000	0.40000	0.30196
0.45098	0.41961	0.32157
0.49804	0.43922	0.34118
0.56863	0.47059	0.36863
0.63529	0.49804	0.39608
0.72157	0.53725	0.43137
0.81176	0.57647	0.47059
0.90588	0.61961	0.50980
1.00000	0.66275	0.55686
1.00000	0.71373	0.60392
0.25490	0.38039	0.25882
0.26275	0.38431	0.26275
0.27843	0.38824	0.26667
0.29412	0.39608	0.27451
0.32157	0.40784	0.28235
0.34902	0.41961	0.29412
0.37647	0.43137	0.30588
0.41961	0.45098	0.32157
0.47451	0.47451	0.34118
0.52157	0.49412	0.36078
0.59216	0.52549	0.38824
0.65490	0.55294	0.41569
0.74510	0.59216	0.45098
0.83137	0.63137	0.49020
0.92941	0.67059	0.52941
1.00000	0.71373	0.57255
1.00000	0.76471	0.62353
0.27843	0.43137	0.28235
0.28627	0.43529	0.28627
0.29804	0.43922	0.29020
0.31373	0.44314	0.29412
0.33725	0.45490	0.30196
0.36471	0.46667	0.31373
0.40000	0.48235	0.32549
0.43922	0.49804	0.34118
0.49412	0.52157	0.36078
0.54510	0.54510	0.38039
0.61176	0.57255	0.40784
0.67843	0.60392	0.43529
0.76471	0.63922	0.47059
0.85490	0.67843	0.50588
0.94902	0.72157	0.54902
1.00000	0.76863	0.59216
1.00000	0.81961	0.63922
0.30588	0.50196	0.30980
0.31373	0.50196	0.31373
0.32549	0.50980	0.31765
0.34510	0.51373	0.32549
0.37255	0.52549	0.33333
0.40000	0.53725	0.34118
0.42745	0.54902	0.35294
0.47059	0.56863	0.36863
0.52549	0.59216	0.38824
0.57255	0.61176	0.40784
0.64314	0.64314	0.43529
0.70980	0.67059	0.46275
0.79608	0.70980	0.49412
0.88627	0.74902	0.53333
0.98039	0.79216	0.57255
1.00000	0.83529	0.61569
1.00000	0.88627	0.66275
0.33725	0.56863	0.34118
0.34510	0.57255	0.34510
0.35294	0.57647	0.34510
0.37255	0.58039	0.35294
0.39608	0.59216	0.36078
0.42353	0.60392	0.36863
0.45882	0.61569	0.38039
0.49804	0.63529	0.39608
0.55294	0.65882	0.41569
0.60392	0.67843	0.43529
0.67059	0.70980	0.46275
0.74118	0.74118	0.49020
0.82353	0.77647	0.52157
0.91373	0.81569	0.56078
1.00000	0.85882	0.60000
1.00000	0.90588	0.64314
1.00000	0.95686	0.69020
0.37255	0.65490	0.37647
0.38039	0.65882	0.38039
0.39216	0.66275	0.38431
0.40784	0.66667	0.38824
0.43529	0.67843	0.39608
0.46275	0.69020	0.40784
0.49412	0.70196	0.41569
0.53725	0.72157	0.43137
0.59216	0.74510	0.45098
0.63922	0.76471	0.47059
0.70980	0.79608	0.49804
0.77647	0.82353	0.52157
0.86275	0.86275	0.55686
0.95294	0.90196	0.59216
1.00000	0.94510	0.63137
1.00000	0.99216	0.67451
1.00000	1.00000	0.72157
0.41176	0.74510	0.41569
0.41961	0.74902	0.41961
0.43137	0.75294	0.42353
0.45098	0.75686	0.42745
0.47451	0.76863	0.43529
0.50196	0.78039	0.44314
0.53333	0.79216	0.45490
0.57647	0.81176	0.47059
0.63137	0.83137	0.49020
0.67843	0.85490	0.50588
0.74902	0.88235	0.53333
0.81569	0.91373	0.55686
0.90196	0.94902	0.59216
0.99216	0.99216	0.62745
1.00000	1.00000	0.66667
1.00000	1.00000	0.70980
1.00000	1.00000	0.75294
0.45490	0.84314	0.45882
0.46275	0.84314	0.46275
0.47451	0.84706	0.46275
0.49020	0.85490	0.47059
0.51373	0.86275	0.47451
0.54118	0.87451	0.48627
0.57255	0.89020	0.49804
0.61961	0.90588	0.50980
0.67059	0.92941	0.52941
0.72157	0.94902	0.54902
0.79216	0.98039	0.57255
0.85882	1.00000	0.60000
0.94510	1.00000	0.63137
1.00000	1.00000	0.66667
1.00000	1.00000	0.70588
1.00000	1.00000	0.74510
1.00000	1.00000	0.79216
0.49804	0.94902	0.50588
0.50588	0.94902	0.50588
0.51765	0.95294	0.50980
0.53333	0.96078	0.51373
0.55686	0.96863	0.52157
0.58431	0.98039	0.52941
0.61961	0.99608	0.54118
0.66275	1.00000	0.55686
0.71765	1.00000	0.57255
0.76863	1.00000	0.59216
0.83529	1.00000	0.61569
0.90588	1.00000	0.64314
0.99216	1.00000	0.67451
1.00000	1.00000	0.70980
1.00000	1.00000	0.74510
1.00000	1.00000	0.78824
1.00000	1.00000	0.83529
0.54902	1.00000	0.55294
0.55686	1.00000	0.55686
0.56863	1.00000	0.56078
0.58431	1.00000	0.56471
0.60784	1.00000	0.56863
0.63529	1.00000	0.58039
0.67059	1.00000	0.58824
0.71373	1.00000	0.60392
0.76471	1.00000	0.62353
0.81961	1.00000	0.63922
0.88627	1.00000	0.66275
0.95686	1.00000	0.69020
1.00000	1.00000	0.72157
1.00000	1.00000	0.75294
1.00000	1.00000	0.79216
1.00000	1.00000	0.83137
1.00000	1.00000	0.87843
0.17255	0.17255	0.18431
0.18039	0.17647	0.18824
0.19608	0.18039	0.19608
0.21176	0.18431	0.20000
0.23529	0.19608	0.20784
0.26275	0.20784	0.21961
0.29020	0.21961	0.23137
0.33725	0.23922	0.25490
0.38824	0.25882	0.27451
0.43529	0.28235	0.29412
0.50588	0.30980	0.32549
0.57255	0.34118	0.35294
0.65882	0.37647	0.38824
0.74902	0.41569	0.42745
0.84706	0.45882	0.47059
0.95294	0.50196	0.51373
1.00000	0.55294	0.56471
0.17255	0.18039	0.18824
0.18431	0.18431	0.19216
0.20000	0.18824	0.20000
0.21569	0.19608	0.20784
0.23922	0.20392	0.21569
0.26667	0.21569	0.22353
0.29412	0.22745	0.23529
0.33725	0.24706	0.25882
0.38824	0.26667	0.27843
0.43922	0.29020	0.29804
0.50980	0.31765	0.32549
0.57647	0.34510	0.35294
0.66275	0.38431	0.39216
0.75294	0.42353	0.43137
0.85098	0.46275	0.47451
0.95686	0.50980	0.51765
1.00000	0.56078	0.56863
0.18039	0.19608	0.19608
0.18824	0.20000	0.20000
0.20784	0.20784	0.20784
0.22353	0.21176	0.21176
0.24706	0.21961	0.21961
0.27059	0.23137	0.23137
0.30196	0.24314	0.24314
0.34510	0.26275	0.26275
0.39608	0.28235	0.28235
0.44314	0.30196	0.30196
0.51373	0.33333	0.33333
0.58039	0.36078	0.36078
0.66667	0.39608	0.39608
0.75686	0.43529	0.43529
0.85490	0.47843	0.47843
0.95686	0.52157	0.52157
1.00000	0.57255	0.57255
0.18431	0.21176	0.20000
0.19608	0.21569	0.20392
0.21176	0.22353	0.21176
0.23529	0.23529	0.21961
0.25490	0.23922	0.22745
0.27843	0.25098	0.23529
0.30588	0.25882	0.24706
0.35294	0.28235	0.27059
0.40392	0.30196	0.28627
0.44706	0.31765	0.30588
0.52157	0.34902	0.33725
0.58431	0.37647	0.36471
0.67059	0.41569	0.40000
0.76471	0.45490	0.43922
0.85882	0.49412	0.48235
0.96471	0.53725	0.52549
1.00000	0.58824	0.57647
0.19608	0.23529	0.21176
0.20392	0.23922	0.21569
0.21961	0.24706	0.21961
0.23922	0.25490	0.22745
0.26667	0.26667	0.23529
0.29020	0.27451	0.24706
0.31765	0.28235	0.25490
0.36078	0.30196	0.27451
0.41176	0.32549	0.29804
0.45882	0.34118	0.31373
0.52941	0.37647	0.34510
0.59608	0.40000	0.37255
0.68235	0.43922	0.40784
0.77255	0.47843	0.44706
0.86667	0.51765	0.49020
0.97255	0.56078	0.53333
1.00000	0.61176	0.58039
0.20784	0.26275	0.21961
0.21569	0.26667	0.22353
0.23137	0.27059	0.23137
0.25098	0.27843	0.23529
0.27451	0.29020	0.24706
0.30196	0.30196	0.25490
0.32941	0.31373	0.26667
0.37255	0.32941	0.28627
0.42353	0.35294	0.30588
0.47059	0.36863	0.32549
0.54118	0.40392	0.35294
0.60784	0.42745	0.38039
0.69412	0.46667	0.41961
0.78431	0.50588	0.45490
0.87843	0.54510	0.49804
0.98431	0.58824	0.54118
1.00000	0.63922	0.58824
0.21961	0.29412	0.23137
0.22745	0.29412	0.23529
0.24314	0.30196	0.24314
0.25882	0.30588	0.24706
0.28627	0.31765	0.25882
0.31373	0.32941	0.26667
0.34510	0.34510	0.27843
0.38431	0.36078	0.29804
0.43529	0.38039	0.31765
0.48627	0.40392	0.33725
0.55294	0.43137	0.36471
0.61961	0.45882	0.39216
0.70588	0.49804	0.42745
0.79608	0.53725	0.46667
0.89412	0.57647	0.50980
1.00000	0.62353	0.55294
1.00000	0.67451	0.60000
0.23922	0.33725	0.25490
0.24706	0.33725	0.25490
0.26275	0.34510	0.26275
0.28235	0.35294	0.27059
0.30196	0.36078	0.27451
0.32941	0.36863	0.28627
0.36078	0.38431	0.29804
0.40392	0.40392	0.31765
0.45490	0.42353	0.33333
0.50196	0.44314	0.35294
0.57255	0.47451	0.38431
0.63922	0.50588	0.40784
0.72549	0.54118	0.44314
0.81569	0.58039	0.48235
0.90980	0.62353	0.52549
1.00000	0.66667	0.56863
1.00000	0.71765	0.61569
0.25882	0.38824	0.27451
0.26667	0.38824	0.27843
0.28235	0.39608	0.28235
0.30196	0.40392	0.29020
0.32549	0.41176	0.29804
0.35294	0.42745	0.30588
0.38039	0.43529	0.31765
0.42353	0.45490	0.33333
0.47843	0.47843	0.35294
0.52549	0.49804	0.37255
0.59608	0.52941	0.40000
0.65882	0.55686	0.42745
0.74510	0.59608	0.46275
0.83529	0.63529	0.50196
0.93333	0.67451	0.54118
1.00000	0.71765	0.58431
1.00000	0.76863	0.63137
0.28235	0.43529	0.29412
0.29020	0.43922	0.29804
0.30196	0.44314	0.30196
0.32157	0.45098	0.30588
0.34118	0.45882	0.31373
0.36863	0.47059	0.32549
0.40392	0.48627	0.33725
0.44706	0.50196	0.35294
0.49804	0.52549	0.37255
0.54902	0.54902	0.39216
0.61569	0.57647	0.41961
0.68235	0.60784	0.44706
0.76863	0.64314	0.48235
0.85882	0.68235	0.51765
0.95294	0.72549	0.55686
1.00000	0.77255	0.60392
1.00000	0.81961	0.65098
0.30980	0.50588	0.32549
0.31765	0.50588	0.32549
0.33333	0.51373	0.33333
0.34902	0.52157	0.33725
0.37647	0.52941	0.34510
0.40392	0.54118	0.35294
0.43137	0.55294	0.36471
0.47451	0.57255	0.38431
0.52941	0.59608	0.40000
0.57647	0.61569	0.41961
0.64706	0.64706	0.44706
0.71373	0.67451	0.47451
0.80000	0.71373	0.50980
0.88627	0.75294	0.54510
0.98431	0.79608	0.58431
1.00000	0.83922	0.62745
1.00000	0.89020	0.67451
0.34118	0.57255	0.35294
0.34902	0.57647	0.35686
0.36078	0.58039	0.36078
0.37647	0.58431	0.36471
0.40000	0.59608	0.37255
0.42745	0.60784	0.38039
0.45882	0.61961	0.39216
0.50588	0.63922	0.40784
0.55686	0.65882	0.42745
0.60784	0.68235	0.44706
0.67451	0.71373	0.47451
0.74510	0.74510	0.49804
0.82745	0.78039	0.53333
0.91765	0.81961	0.56863
1.00000	0.86275	0.61176
1.00000	0.90980	0.65098
1.00000	0.96078	0.69804
0.37647	0.65882	0.38824
0.38431	0.66275	0.39216
0.39608	0.66667	0.39608
0.41569	0.67059	0.40000
0.43922	0.68235	0.40784
0.46667	0.69412	0.41961
0.49804	0.70588	0.43137
0.54118	0.72549	0.44314
0.59608	0.74902	0.46275
0.64314	0.76863	0.48235
0.71373	0.80000	0.50980
0.78039	0.82745	0.53333
0.86667	0.86667	0.56863
0.95294	0.90588	0.60392
1.00000	0.94510	0.64314
1.00000	0.99216	0.68235
1.00000	1.00000	0.72941
0.41569	0.74902	0.42745
0.42353	0.75294	0.43137
0.43529	0.75686	0.43529
0.45490	0.76078	0.43922
0.47843	0.77255	0.44706
0.50588	0.78431	0.45490
0.53725	0.79608	0.46667
0.58039	0.81569	0.48235
0.63529	0.83529	0.50196
0.68235	0.85882	0.51765
0.75294	0.88627	0.54510
0.81961	0.91765	0.56863
0.90588	0.95294	0.60392
0.99608	0.99608	0.63922
1.00000	1.00000	0.67843
1.00000	1.00000	0.71765
1.00000	1.00000	0.76471
0.45882	0.84706	0.47059
0.46275	0.85098	0.47451
0.47843	0.85490	0.47843
0.49412	0.85882	0.48235
0.51765	0.86667	0.49020
0.54510	0.87843	0.49804
0.57647	0.89412	0.50980
0.62353	0.90980	0.52549
0.67451	0.93333	0.54118
0.72549	0.95294	0.55686
0.79216	0.98431	0.58431
0.86275	1.00000	0.60784
0.94902	1.00000	0.64314
1.00000	1.00000	0.67843
1.00000	1.00000	0.71765
1.00000	1.00000	0.75686
1.00000	1.00000	0.80392
0.50196	0.95294	0.51373
0.50980	0.95686	0.51765
0.52157	0.96078	0.52157
0.53725	0.96471	0.52549
0.56078	0.97255	0.53333
0.58824	0.98431	0.54118
0.62353	1.00000	0.55294
0.66667	1.00000	0.56863
0.71765	1.00000	0.58431
0.77255	1.00000	0.60392
0.83922	1.00000	0.62745
0.90980	1.00000	0.65098
0.99216	1.00000	0.68235
1.00000	1.00000	0.71765
1.00000	1.00000	0.75686
1.00000	1.00000	0.79608
1.00000	1.00000	0.84314
0.55294	1.00000	0.56471
0.56078	1.00000	0.56471
0.56863	1.00000	0.56863
0.58824	1.00000	0.57647
0.60784	1.00000	0.58039
0.63922	1.00000	0.58824
0.67059	1.00000	0.60000
0.71765	1.00000	0.61569
0.76863	1.00000	0.63137
0.81961	1.00000	0.65098
0.89020	1.00000	0.67451
0.96078	1.00000	0.69804
1.00000	1.00000	0.72941
1.00000	1.00000	0.76471
1.00000	1.00000	0.80392
1.00000	1.00000	0.84314
1.00000	1.00000	0.88627
0.18039	0.18039	0.20392
0.18824	0.18039	0.20784
0.20000	0.18431	0.21176
0.22353	0.19216	0.22353
0.24314	0.20392	0.23137
0.27059	0.21176	0.23922
0.29804	0.22745	0.25098
0.34118	0.24314	0.27059
0.39608	0.26667	0.29412
0.44314	0.28627	0.31373
0.51373	0.31765	0.34118
0.58039	0.34510	0.36863
0.66667	0.38039	0.40784
0.75686	0.41961	0.44706
0.85490	0.46275	0.48627
0.95686	0.50588	0.53333
1.00000	0.55686	0.58039
0.18039	0.18824	0.20784
0.19216	0.19216	0.21176
0.20392	0.19608	0.21569
0.22745	0.20392	0.22745
0.24706	0.21176	0.23529
0.27451	0.22353	0.24314
0.30196	0.23529	0.25490
0.34510	0.25490	0.27451
0.39608	0.27451	0.29412
0.44314	0.29412	0.31373
0.51373	0.32549	0.34510
0.58039	0.35294	0.37255
0.66667	0.38824	0.40784
0.75686	0.42745	0.45098
0.85490	0.47059	0.49020
0.96078	0.51373	0.53333
